(G-CODE GENERATED BY FLATCAM v8.991 - www.flatcam.org - Version Date: 2019/12/27)

(Name: FILE)
(Type: G-code from Geometry)
(Units: MM)

(Created on Wednesday, 07 June 2023 at 21:02)

(TOOL DIAMETER: 0.5 mm)
(Feedrate: 120.0 mm/min)
(Feedrate_Z: 60.0 mm/min)
(Feedrate rapids 1500.0 mm/min)

(Z_Cut: -0.25 mm)
(Z_Move: 2.0 mm)
(Z Toolchange: 15.0 mm)
(X,Y Toolchange: 0.0000, 0.0000 mm)
(Z Start: None mm)
(Z End: 2.0 mm)
(Steps per circle: 64)
(Preprocessor Geometry: default)

(X range:    4.8705 ...   78.8922  mm)
(Y range:    4.1895 ...   60.5064  mm)

(Spindle Speed: None RPM)
G21
G90
G94

M204 P36000 T36000
G00 F1200.00
;G29 L0 R85 F0 B65 N6 N6
;M06


G01 F120.00
G00 Z2.0000

M03
G00 X5.3287 Y5.0209
G01 F60.00
G01 Z-0.2500
G01 F120.00
G01 X5.1621 Y5.2658
G01 X5.1621 Y59.4474
G01 X5.3287 Y59.6923
G01 X5.4846 Y59.8926
G01 X5.6504 Y60.0380
G01 X5.8456 Y60.1385
G01 X6.0900 Y60.2041
G01 X6.4029 Y60.2449
G01 X6.9399 Y60.2931
G01 X6.9399 Y4.4091
G01 X6.4146 Y4.4467
G01 X6.1066 Y4.4826
G01 X5.8635 Y4.5477
G01 X5.6659 Y4.6522
G01 X5.4941 Y4.8065
G01 X5.3287 Y5.0209
G00 Z2.0000
G00 X11.9588 Y9.5396
G01 F60.00
G01 Z-0.2500
G01 F120.00
G01 X11.7714 Y9.8303
G01 X11.7736 Y9.9849
G01 X11.8279 Y9.9957
G01 X12.2015 Y10.0747
G01 X12.8503 Y10.2136
G01 X14.1153 Y10.4854
G01 X14.5193 Y10.5711
G01 X14.8810 Y10.6467
G01 X15.1883 Y10.7099
G01 X15.4289 Y10.7581
G01 X15.5909 Y10.7889
G01 X15.6620 Y10.7997
G01 X15.8490 Y10.6817
G01 X16.0832 Y10.4531
G01 X16.1716 Y10.3025
G01 X16.1084 Y10.2817
G01 X15.9450 Y10.2381
G01 X15.6969 Y10.1754
G01 X15.3792 Y10.0975
G01 X15.0074 Y10.0082
G01 X14.2318 Y9.8254
G01 X13.8734 Y9.7405
G01 X13.5337 Y9.6594
G01 X13.2251 Y9.5851
G01 X12.9597 Y9.5204
G01 X12.7495 Y9.4683
G01 X12.6069 Y9.4318
G01 X12.1625 Y9.3142
G01 X11.9588 Y9.5396
G00 Z2.0000
G00 X11.5940 Y10.1919
G01 F60.00
G01 Z-0.2500
G01 F120.00
G01 X11.4880 Y10.4706
G01 X11.5435 Y10.6879
G01 X11.6382 Y10.7142
G01 X11.8212 Y10.7571
G01 X12.0761 Y10.8132
G01 X12.3870 Y10.8795
G01 X12.7376 Y10.9525
G01 X13.1119 Y11.0291
G01 X13.4939 Y11.1060
G01 X13.8672 Y11.1800
G01 X14.2159 Y11.2478
G01 X14.5239 Y11.3062
G01 X14.7749 Y11.3519
G01 X14.9529 Y11.3817
G01 X15.0419 Y11.3924
G01 X15.3160 Y11.2716
G01 X15.4590 Y11.0399
G01 X15.3338 Y10.9571
G01 X15.0330 Y10.8725
G01 X14.8964 Y10.8442
G01 X14.4405 Y10.7475
G01 X13.8192 Y10.6138
G01 X13.1259 Y10.4631
G01 X12.7315 Y10.3793
G01 X12.3728 Y10.3074
G01 X12.0649 Y10.2500
G01 X11.8225 Y10.2099
G01 X11.6606 Y10.1897
G01 X11.5940 Y10.1919
G00 Z2.0000
G00 X11.2383 Y11.1801
G01 F60.00
G01 Z-0.2500
G01 F120.00
G01 X11.1087 Y11.5246
G01 X11.1250 Y11.7099
G01 X11.2921 Y11.7918
G01 X11.4208 Y11.8144
G01 X11.6290 Y11.8471
G01 X11.8986 Y11.8875
G01 X12.2116 Y11.9329
G01 X12.5497 Y11.9809
G01 X12.8951 Y12.0289
G01 X13.2296 Y12.0745
G01 X13.5351 Y12.1149
G01 X13.7937 Y12.1478
G01 X13.9872 Y12.1705
G01 X14.2885 Y12.1905
G01 X14.4681 Y12.1284
G01 X14.6697 Y11.9347
G01 X14.8821 Y11.6070
G01 X14.8123 Y11.5833
G01 X14.6423 Y11.5402
G01 X14.3878 Y11.4812
G01 X14.0645 Y11.4099
G01 X13.6879 Y11.3297
G01 X13.2736 Y11.2442
G01 X12.1261 Y11.0104
G01 X11.6515 Y10.9131
G01 X11.5515 Y10.8923
G01 X11.3888 Y10.9243
G01 X11.2383 Y11.1801
G00 Z2.0000
G00 X10.2334 Y11.8565
G01 F60.00
G01 Z-0.2500
G01 F120.00
G01 X10.1722 Y12.0742
G01 X10.1484 Y12.1493
G01 X10.1401 Y12.2053
G01 X10.1791 Y12.2507
G01 X10.2973 Y12.2939
G01 X10.5266 Y12.3434
G01 X10.8986 Y12.4077
G01 X11.4453 Y12.4953
G01 X12.1984 Y12.6147
G01 X13.7901 Y12.8682
G01 X13.9948 Y12.6720
G01 X14.1996 Y12.4279
G01 X14.0956 Y12.3918
G01 X13.8228 Y12.3433
G01 X13.4403 Y12.2929
G01 X13.2345 Y12.2681
G01 X12.9829 Y12.2360
G01 X12.6979 Y12.1981
G01 X12.3913 Y12.1562
G01 X12.0753 Y12.1118
G01 X11.7621 Y12.0667
G01 X10.9901 Y11.9527
G01 X10.6002 Y11.8981
G01 X10.3345 Y11.8642
G01 X10.2334 Y11.8565
G00 Z2.0000
G00 X9.8357 Y12.4716
G01 F60.00
G01 Z-0.2500
G01 F120.00
G01 X9.4860 Y12.5516
G01 X9.6200 Y12.6841
G01 X9.7492 Y12.7106
G01 X9.9558 Y12.7504
G01 X10.2240 Y12.8008
G01 X10.5380 Y12.8589
G01 X10.8818 Y12.9218
G01 X11.2398 Y12.9866
G01 X11.5960 Y13.0504
G01 X11.9346 Y13.1103
G01 X12.2399 Y13.1635
G01 X12.4958 Y13.2071
G01 X12.8670 Y13.2715
G01 X13.1636 Y13.3268
G01 X13.3214 Y13.3612
G01 X13.5653 Y13.2745
G01 X13.6205 Y13.0800
G01 X13.4900 Y13.0309
G01 X13.2155 Y12.9697
G01 X12.8564 Y12.9095
G01 X12.6366 Y12.8770
G01 X12.3698 Y12.8362
G01 X12.0725 Y12.7898
G01 X11.7612 Y12.7404
G01 X11.4524 Y12.6906
G01 X11.1624 Y12.6429
G01 X10.8305 Y12.5902
G01 X10.5095 Y12.5439
G01 X10.2219 Y12.5068
G01 X9.9899 Y12.4817
G01 X9.8357 Y12.4716
G00 Z2.0000
G00 X9.4401 Y12.8276
G01 F60.00
G01 Z-0.2500
G01 F120.00
G01 X9.3336 Y12.8627
G01 X9.3105 Y13.1607
G01 X9.3105 Y13.5316
G01 X9.6253 Y13.5723
G01 X9.7200 Y13.5835
G01 X9.8605 Y13.5987
G01 X10.0423 Y13.6174
G01 X10.2614 Y13.6392
G01 X10.5134 Y13.6637
G01 X11.0997 Y13.7195
G01 X11.7673 Y13.7813
G01 X12.4827 Y13.8461
G01 X13.3848 Y13.9261
G01 X13.3848 Y13.7334
G01 X13.3208 Y13.5407
G01 X13.2892 Y13.5375
G01 X13.2218 Y13.5274
G01 X13.1137 Y13.5095
G01 X12.9600 Y13.4830
G01 X12.7559 Y13.4469
G01 X12.4965 Y13.4004
G01 X11.7923 Y13.2726
G01 X10.1994 Y12.9810
G01 X9.8645 Y12.9176
G01 X9.5917 Y12.8625
G01 X9.4401 Y12.8276
G00 Z2.0000
G00 X8.8104 Y13.6896
G01 F60.00
G01 Z-0.2500
G01 F120.00
G01 X8.7178 Y13.7909
G01 X8.8104 Y13.9651
G01 X8.8472 Y13.9790
G01 X8.9230 Y13.9941
G01 X9.0375 Y14.0105
G01 X9.1902 Y14.0281
G01 X9.3809 Y14.0468
G01 X9.6090 Y14.0666
G01 X9.8743 Y14.0875
G01 X10.1762 Y14.1095
G01 X10.5145 Y14.1325
G01 X10.8886 Y14.1565
G01 X11.2983 Y14.1814
G01 X11.7431 Y14.2073
G01 X12.2227 Y14.2341
G01 X12.7366 Y14.2618
G01 X13.2207 Y14.2677
G01 X13.3848 Y14.2181
G01 X13.3384 Y14.1611
G01 X13.1810 Y14.1138
G01 X12.8847 Y14.0709
G01 X12.4217 Y14.0267
G01 X12.2714 Y14.0135
G01 X12.0555 Y13.9939
G01 X11.4761 Y13.9396
G01 X10.7815 Y13.8732
G01 X10.0158 Y13.7991
G01 X9.6440 Y13.7637
G01 X9.3219 Y13.7337
G01 X9.0652 Y13.7103
G01 X8.8895 Y13.6952
G01 X8.8104 Y13.6896
G00 Z2.0000
G00 X8.1622 Y17.7531
G01 F60.00
G01 Z-0.2500
G01 F120.00
G01 X7.3474 Y17.7261
G01 X7.3048 Y19.0965
G01 X7.6967 Y19.0965
G01 X7.9723 Y19.0776
G01 X8.1955 Y18.9992
G01 X8.4588 Y18.8287
G01 X8.6893 Y18.6737
G01 X8.9377 Y18.5251
G01 X9.1502 Y18.4149
G01 X9.4389 Y18.3266
G01 X9.6767 Y18.3459
G01 X9.8620 Y18.4724
G01 X9.9931 Y18.7054
G01 X10.0868 Y18.9645
G01 X11.0691 Y18.9358
G01 X11.6012 Y18.9157
G01 X11.9185 Y18.8859
G01 X12.0967 Y18.8339
G01 X12.2113 Y18.7472
G01 X12.3346 Y18.5492
G01 X12.3780 Y18.2678
G01 X12.3847 Y17.9483
G01 X10.3625 Y17.8487
G01 X9.7110 Y17.8182
G01 X9.3925 Y17.8037
G01 X8.8062 Y17.7782
G01 X8.5529 Y17.7678
G01 X8.3358 Y17.7593
G01 X8.1622 Y17.7531
G00 Z2.0000
G00 X8.0511 Y19.3445
G01 F60.00
G01 Z-0.2500
G01 F120.00
G01 X7.3474 Y19.8744
G01 X7.3264 Y20.7147
G01 X7.3241 Y21.1346
G01 X7.3383 Y21.4273
G01 X7.3659 Y21.5296
G01 X7.4614 Y21.4457
G01 X7.6533 Y21.2502
G01 X7.9001 Y20.9855
G01 X8.0519 Y20.8207
G01 X8.2390 Y20.6197
G01 X8.4497 Y20.3950
G01 X8.6722 Y20.1591
G01 X8.8948 Y19.9244
G01 X9.1059 Y19.7034
G01 X9.4977 Y19.2790
G01 X9.7301 Y18.9787
G01 X9.8145 Y18.7747
G01 X9.7624 Y18.6396
G01 X9.5853 Y18.5456
G01 X9.4490 Y18.5219
G01 X9.2891 Y18.5484
G01 X9.0874 Y18.6345
G01 X8.8258 Y18.7896
G01 X8.4865 Y19.0231
G01 X8.0511 Y19.3445
G00 Z2.0000
G00 X7.4029 Y19.3131
G01 F60.00
G01 Z-0.2500
G01 F120.00
G01 X7.3679 Y19.6151
G01 X7.5958 Y19.4942
G01 X7.7548 Y19.3211
G01 X7.6252 Y19.2826
G01 X7.4029 Y19.3131
G00 Z2.0000
G00 X8.2099 Y20.9178
G01 F60.00
G01 Z-0.2500
G01 F120.00
G01 X7.8738 Y21.2912
G01 X7.7720 Y21.4730
G01 X7.8193 Y21.6152
G01 X7.9002 Y21.8406
G01 X8.0105 Y22.2264
G01 X8.1417 Y22.7264
G01 X8.6872 Y22.7264
G01 X9.1524 Y22.7043
G01 X9.1691 Y22.5592
G01 X9.1288 Y22.4184
G01 X9.0661 Y22.1590
G01 X8.9895 Y21.8177
G01 X8.9077 Y21.4316
G01 X8.8291 Y21.0570
G01 X8.7614 Y20.7468
G01 X8.7117 Y20.5334
G01 X8.6874 Y20.4489
G01 X8.5379 Y20.5774
G01 X8.2099 Y20.9178
G00 Z2.0000
G00 X7.4589 Y21.7259
G01 F60.00
G01 Z-0.2500
G01 F120.00
G01 X7.3414 Y21.9198
G01 X7.3103 Y22.2789
G01 X7.3103 Y22.6974
G01 X7.6066 Y22.7149
G01 X7.9030 Y22.6542
G01 X7.8654 Y22.4621
G01 X7.7802 Y22.1224
G01 X7.6883 Y21.7904
G01 X7.6307 Y21.6218
G01 X7.4589 Y21.7259
G00 Z2.0000
G00 X8.4771 Y22.9278
G01 F60.00
G01 Z-0.2500
G01 F120.00
G01 X7.3103 Y22.8871
G01 X7.3103 Y23.8395
G01 X7.3147 Y24.2114
G01 X7.3267 Y24.5202
G01 X7.3443 Y24.7336
G01 X7.3659 Y24.8195
G01 X7.4724 Y24.8254
G01 X7.7148 Y24.8192
G01 X8.0540 Y24.8034
G01 X8.4506 Y24.7807
G01 X8.8656 Y24.7536
G01 X9.2597 Y24.7247
G01 X9.5938 Y24.6964
G01 X9.8286 Y24.6715
G01 X9.9251 Y24.6524
G01 X9.9222 Y24.5189
G01 X9.8862 Y24.2141
G01 X9.8301 Y23.8237
G01 X9.7670 Y23.4330
G01 X9.7099 Y23.1276
G01 X9.6719 Y22.9928
G01 X9.5689 Y22.9802
G01 X9.3093 Y22.9637
G01 X8.9323 Y22.9455
G01 X8.4771 Y22.9278
G00 Z2.0000
G00 X8.0396 Y25.0228
G01 F60.00
G01 Z-0.2500
G01 F120.00
G01 X7.7351 Y25.0283
G01 X7.6109 Y25.0413
G01 X7.6379 Y25.1535
G01 X7.6737 Y25.2945
G01 X7.7178 Y25.4623
G01 X7.7696 Y25.6550
G01 X7.8286 Y25.8704
G01 X7.8941 Y26.1066
G01 X7.9655 Y26.3617
G01 X8.0423 Y26.6336
G01 X8.1239 Y26.9204
G01 X8.2992 Y27.5305
G01 X8.3916 Y27.8499
G01 X8.5834 Y28.5073
G01 X8.7802 Y29.1763
G01 X8.8791 Y29.5101
G01 X9.0750 Y30.1667
G01 X9.1708 Y30.4853
G01 X9.2643 Y30.7950
G01 X9.3551 Y31.0936
G01 X9.4425 Y31.3791
G01 X9.5259 Y31.6497
G01 X9.6048 Y31.9032
G01 X9.6786 Y32.1377
G01 X9.7466 Y32.3512
G01 X9.8084 Y32.5418
G01 X10.0568 Y33.3026
G01 X10.2569 Y33.9187
G01 X10.3297 Y34.1445
G01 X10.3794 Y34.3004
G01 X10.4026 Y34.3752
G01 X10.5005 Y34.4965
G01 X10.8200 Y34.3927
G01 X11.0883 Y34.1836
G01 X11.0715 Y34.0945
G01 X11.0248 Y33.9051
G01 X10.9537 Y33.6363
G01 X10.8637 Y33.3089
G01 X10.7602 Y32.9437
G01 X9.4094 Y28.2324
G01 X9.0318 Y26.9215
G01 X8.8749 Y26.3789
G01 X8.7491 Y25.9463
G01 X8.6619 Y25.6493
G01 X8.6352 Y25.5599
G01 X8.4726 Y25.0228
G01 X8.0396 Y25.0228
G00 Z2.0000
G00 X7.3753 Y25.0635
G01 F60.00
G01 Z-0.2500
G01 F120.00
G01 X7.3602 Y25.1008
G01 X7.3465 Y25.2408
G01 X7.3350 Y25.4737
G01 X7.3255 Y25.7899
G01 X7.3188 Y26.1791
G01 X7.3151 Y26.6315
G01 X7.3143 Y27.1378
G01 X7.3182 Y29.2823
G01 X8.0092 Y31.3565
G01 X8.1240 Y31.7001
G01 X8.2394 Y32.0425
G01 X8.3531 Y32.3783
G01 X8.4634 Y32.7014
G01 X8.5681 Y33.0063
G01 X8.6656 Y33.2877
G01 X8.7538 Y33.5391
G01 X8.8305 Y33.7556
G01 X8.8938 Y33.9314
G01 X8.9419 Y34.0605
G01 X9.2085 Y34.7521
G01 X9.4610 Y35.4017
G01 X9.5786 Y35.7027
G01 X9.6890 Y35.9835
G01 X9.7906 Y36.2409
G01 X9.9628 Y36.6718
G01 X10.0308 Y36.8389
G01 X10.0849 Y36.9697
G01 X10.1238 Y37.0604
G01 X10.2022 Y37.2399
G01 X10.4584 Y37.8318
G01 X10.6040 Y38.1717
G01 X10.8742 Y38.8045
G01 X11.0512 Y39.2077
G01 X11.1668 Y39.4306
G01 X11.2522 Y39.5225
G01 X11.3390 Y39.5323
G01 X11.4588 Y39.5096
G01 X11.7016 Y39.4813
G01 X11.9217 Y39.4690
G01 X12.1233 Y39.3570
G01 X12.0578 Y39.1310
G01 X12.0275 Y39.0868
G01 X11.9838 Y39.0033
G01 X11.9270 Y38.8838
G01 X11.8590 Y38.7306
G01 X11.7803 Y38.5469
G01 X11.6921 Y38.3353
G01 X11.5955 Y38.0987
G01 X11.4919 Y37.8399
G01 X11.3821 Y37.5616
G01 X11.2670 Y37.2671
G01 X11.1483 Y36.9582
G01 X11.0265 Y36.6387
G01 X10.9030 Y36.3109
G01 X10.7787 Y35.9777
G01 X10.6547 Y35.6422
G01 X10.5323 Y35.3065
G01 X10.4122 Y34.9741
G01 X10.2960 Y34.6477
G01 X10.1846 Y34.3299
G01 X10.0787 Y34.0233
G01 X10.0104 Y33.8211
G01 X9.9359 Y33.5968
G01 X9.8564 Y33.3524
G01 X9.7718 Y33.0900
G01 X9.6828 Y32.8117
G01 X9.5904 Y32.5188
G01 X9.4949 Y32.2139
G01 X9.3969 Y31.8986
G01 X9.2970 Y31.5749
G01 X9.1956 Y31.2448
G01 X9.0934 Y30.9099
G01 X8.9912 Y30.5725
G01 X8.7882 Y29.8977
G01 X8.6888 Y29.5643
G01 X8.5914 Y29.2355
G01 X8.4967 Y28.9141
G01 X8.4054 Y28.6016
G01 X8.3178 Y28.2998
G01 X8.2346 Y28.0111
G01 X8.1565 Y27.7370
G01 X8.0840 Y27.4794
G01 X8.0174 Y27.2405
G01 X7.9577 Y27.0224
G01 X7.9054 Y26.8264
G01 X7.8608 Y26.6551
G01 X7.8247 Y26.5100
G01 X7.7978 Y26.3933
G01 X7.7239 Y26.0970
G01 X7.6270 Y25.7602
G01 X7.5248 Y25.4385
G01 X7.4350 Y25.1876
G01 X7.3753 Y25.0635
G00 Z2.0000
G00 X9.9232 Y24.8949
G01 F60.00
G01 Z-0.2500
G01 F120.00
G01 X9.6810 Y24.8860
G01 X9.2441 Y24.9205
G01 X8.7504 Y25.0014
G01 X8.7209 Y25.1710
G01 X8.7947 Y25.4261
G01 X8.9487 Y25.9551
G01 X9.4819 Y27.7829
G01 X9.6948 Y28.5171
G01 X10.0108 Y29.6131
G01 X10.3126 Y30.6667
G01 X10.5002 Y31.3255
G01 X10.6729 Y31.9354
G01 X10.8274 Y32.4843
G01 X10.9601 Y32.9602
G01 X11.0678 Y33.3512
G01 X11.1112 Y33.5110
G01 X11.1470 Y33.6451
G01 X11.1748 Y33.7519
G01 X11.1942 Y33.8299
G01 X11.2048 Y33.8777
G01 X11.3054 Y34.1683
G01 X11.4926 Y34.1431
G01 X11.8268 Y34.0385
G01 X12.1286 Y33.9105
G01 X12.1918 Y33.8503
G01 X12.1981 Y33.7189
G01 X12.1385 Y33.4482
G01 X12.0040 Y32.9697
G01 X11.9294 Y32.7097
G01 X11.8533 Y32.4415
G01 X11.7761 Y32.1659
G01 X11.6980 Y31.8839
G01 X11.6193 Y31.5964
G01 X11.5401 Y31.3043
G01 X11.4606 Y31.0086
G01 X11.3812 Y30.7101
G01 X11.3021 Y30.4098
G01 X11.2234 Y30.1085
G01 X11.1454 Y29.8073
G01 X11.0684 Y29.5071
G01 X10.9926 Y29.2086
G01 X10.9181 Y28.9129
G01 X10.8453 Y28.6209
G01 X10.7744 Y28.3335
G01 X10.7056 Y28.0517
G01 X10.6390 Y27.7762
G01 X10.5751 Y27.5081
G01 X10.5139 Y27.2483
G01 X10.4558 Y26.9976
G01 X10.4009 Y26.7571
G01 X10.3495 Y26.5276
G01 X10.3018 Y26.3100
G01 X10.2581 Y26.1052
G01 X10.2185 Y25.9143
G01 X10.1833 Y25.7380
G01 X10.0867 Y25.3017
G01 X9.9976 Y25.0129
G01 X9.9232 Y24.8949
G00 Z2.0000
G00 X10.6210 Y25.9832
G01 F60.00
G01 Z-0.2500
G01 F120.00
G01 X10.8342 Y25.9457
G01 X11.1519 Y25.8666
G01 X11.4479 Y25.7799
G01 X11.5957 Y25.7197
G01 X11.5152 Y25.7121
G01 X11.3147 Y25.7592
G01 X11.0135 Y25.8077
G01 X10.7384 Y25.8616
G01 X10.6008 Y25.9215
G01 X10.6210 Y25.9832
G00 Z2.0000
G00 X11.0143 Y26.9361
G01 F60.00
G01 Z-0.2500
G01 F120.00
G01 X11.2844 Y26.9210
G01 X11.5698 Y26.8790
G01 X11.8662 Y26.8177
G01 X11.6069 Y26.8135
G01 X11.3367 Y26.8285
G01 X11.0513 Y26.8705
G01 X10.7550 Y26.9318
G01 X11.0143 Y26.9361
G00 Z2.0000
G00 X12.0946 Y26.7948
G01 F60.00
G01 Z-0.2500
G01 F120.00
G01 X12.1393 Y26.7501
G01 X11.9973 Y26.7559
G01 X12.0946 Y26.7949
G01 X12.0946 Y26.7948
G00 Z2.0000
G00 X13.8375 Y28.7638
G01 F60.00
G01 Z-0.2500
G01 F120.00
G01 X13.8211 Y28.9317
G01 X13.8045 Y29.1542
G01 X13.7881 Y29.4215
G01 X13.7725 Y29.7242
G01 X13.7580 Y30.0527
G01 X13.7452 Y30.3975
G01 X13.7345 Y30.7488
G01 X13.7263 Y31.0972
G01 X13.7220 Y31.3494
G01 X13.7193 Y31.6030
G01 X13.7180 Y31.8581
G01 X13.7181 Y32.1147
G01 X13.7197 Y32.3727
G01 X13.7227 Y32.6320
G01 X13.7272 Y32.8927
G01 X13.7331 Y33.1548
G01 X13.7404 Y33.4180
G01 X13.7491 Y33.6826
G01 X13.7593 Y33.9483
G01 X13.7708 Y34.2151
G01 X13.7838 Y34.4831
G01 X13.7981 Y34.7522
G01 X13.8139 Y35.0223
G01 X13.8310 Y35.2934
G01 X13.8495 Y35.5655
G01 X13.8694 Y35.8385
G01 X13.8906 Y36.1125
G01 X13.9132 Y36.3873
G01 X13.9372 Y36.6629
G01 X13.9625 Y36.9393
G01 X13.9891 Y37.2165
G01 X14.0171 Y37.4944
G01 X14.0465 Y37.7729
G01 X14.0771 Y38.0521
G01 X14.1091 Y38.3319
G01 X14.1424 Y38.6123
G01 X14.1771 Y38.8932
G01 X14.2130 Y39.1746
G01 X14.2502 Y39.4565
G01 X14.2888 Y39.7387
G01 X14.3286 Y40.0214
G01 X14.3697 Y40.3044
G01 X14.4121 Y40.5877
G01 X14.4558 Y40.8713
G01 X14.5007 Y41.1552
G01 X14.5469 Y41.4392
G01 X14.5944 Y41.7234
G01 X14.6431 Y42.0077
G01 X14.6931 Y42.2922
G01 X14.7443 Y42.5766
G01 X14.7968 Y42.8611
G01 X14.8505 Y43.1456
G01 X14.9054 Y43.4300
G01 X14.9615 Y43.7143
G01 X15.0188 Y43.9985
G01 X15.0774 Y44.2825
G01 X15.1372 Y44.5663
G01 X15.1981 Y44.8499
G01 X15.2603 Y45.1332
G01 X15.3237 Y45.4162
G01 X15.3882 Y45.6988
G01 X15.4539 Y45.9810
G01 X15.5208 Y46.2628
G01 X15.5888 Y46.5442
G01 X15.6581 Y46.8250
G01 X15.7284 Y47.1053
G01 X15.7999 Y47.3851
G01 X15.8726 Y47.6642
G01 X15.9464 Y47.9427
G01 X16.0214 Y48.2205
G01 X16.0974 Y48.4976
G01 X16.1746 Y48.7739
G01 X16.2530 Y49.0495
G01 X16.3324 Y49.3242
G01 X16.4129 Y49.5980
G01 X16.4946 Y49.8710
G01 X16.5847 Y50.1652
G01 X16.6755 Y50.4524
G01 X16.7673 Y50.7331
G01 X16.8601 Y51.0079
G01 X16.9543 Y51.2773
G01 X17.0500 Y51.5419
G01 X17.1475 Y51.8024
G01 X17.2470 Y52.0591
G01 X17.3487 Y52.3128
G01 X17.4529 Y52.5640
G01 X17.5597 Y52.8133
G01 X17.6695 Y53.0612
G01 X17.7823 Y53.3082
G01 X17.8984 Y53.5551
G01 X18.0181 Y53.8023
G01 X18.2219 Y54.2059
G01 X18.4089 Y54.5506
G01 X18.5827 Y54.8412
G01 X18.7471 Y55.0830
G01 X18.9058 Y55.2810
G01 X19.0625 Y55.4403
G01 X19.2211 Y55.5659
G01 X19.3851 Y55.6629
G01 X19.6380 Y55.7690
G01 X19.9664 Y55.8809
G01 X20.2986 Y55.9778
G01 X20.5629 Y56.0389
G01 X20.6877 Y56.0431
G01 X20.6621 Y55.9577
G01 X20.5739 Y55.7436
G01 X20.4371 Y55.4331
G01 X20.2655 Y55.0584
G01 X20.1266 Y54.7592
G01 X19.9922 Y54.4674
G01 X19.8622 Y54.1825
G01 X19.7363 Y53.9040
G01 X19.6142 Y53.6312
G01 X19.4958 Y53.3638
G01 X19.3808 Y53.1010
G01 X19.2690 Y52.8424
G01 X19.1601 Y52.5873
G01 X19.0541 Y52.3353
G01 X18.9505 Y52.0858
G01 X18.8493 Y51.8382
G01 X18.7501 Y51.5920
G01 X18.6528 Y51.3465
G01 X18.5571 Y51.1014
G01 X18.4629 Y50.8560
G01 X18.3698 Y50.6097
G01 X18.2777 Y50.3620
G01 X18.1863 Y50.1124
G01 X18.0955 Y49.8603
G01 X18.0050 Y49.6051
G01 X17.9145 Y49.3463
G01 X17.8239 Y49.0833
G01 X17.7329 Y48.8157
G01 X17.6413 Y48.5427
G01 X17.5553 Y48.2821
G01 X17.4708 Y48.0211
G01 X17.3878 Y47.7595
G01 X17.3064 Y47.4975
G01 X17.2265 Y47.2349
G01 X17.1481 Y46.9719
G01 X17.0713 Y46.7084
G01 X16.9959 Y46.4444
G01 X16.9221 Y46.1799
G01 X16.8499 Y45.9148
G01 X16.7791 Y45.6493
G01 X16.7099 Y45.3833
G01 X16.6423 Y45.1167
G01 X16.5761 Y44.8497
G01 X16.5115 Y44.5821
G01 X16.4484 Y44.3141
G01 X16.3868 Y44.0455
G01 X16.3268 Y43.7764
G01 X16.2682 Y43.5068
G01 X16.2113 Y43.2366
G01 X16.1558 Y42.9659
G01 X16.1018 Y42.6948
G01 X16.0494 Y42.4230
G01 X15.9985 Y42.1508
G01 X15.9492 Y41.8780
G01 X15.9013 Y41.6047
G01 X15.8550 Y41.3309
G01 X15.8102 Y41.0565
G01 X15.7669 Y40.7816
G01 X15.7252 Y40.5062
G01 X15.6850 Y40.2302
G01 X15.6463 Y39.9537
G01 X15.6091 Y39.6766
G01 X15.5734 Y39.3990
G01 X15.5393 Y39.1208
G01 X15.5067 Y38.8421
G01 X15.4756 Y38.5628
G01 X15.4460 Y38.2830
G01 X15.4180 Y38.0026
G01 X15.3915 Y37.7217
G01 X15.3664 Y37.4402
G01 X15.3430 Y37.1581
G01 X15.3210 Y36.8755
G01 X15.3005 Y36.5923
G01 X15.2816 Y36.3085
G01 X15.2642 Y36.0242
G01 X15.2483 Y35.7393
G01 X15.2339 Y35.4539
G01 X15.2211 Y35.1678
G01 X15.2097 Y34.8812
G01 X15.1999 Y34.5940
G01 X15.1916 Y34.3062
G01 X15.1848 Y34.0179
G01 X15.1796 Y33.7289
G01 X15.1758 Y33.4394
G01 X15.1736 Y33.1493
G01 X15.1728 Y32.8586
G01 X15.1736 Y32.5673
G01 X15.1759 Y32.2754
G01 X15.1798 Y31.9829
G01 X15.1851 Y31.6899
G01 X15.1940 Y31.3049
G01 X15.2043 Y30.9416
G01 X15.2163 Y30.5979
G01 X15.2301 Y30.2722
G01 X15.2460 Y29.9626
G01 X15.2642 Y29.6673
G01 X15.2849 Y29.3844
G01 X15.3083 Y29.1121
G01 X15.3345 Y28.8486
G01 X15.3639 Y28.5921
G01 X15.3966 Y28.3408
G01 X15.4328 Y28.0927
G01 X15.4728 Y27.8461
G01 X15.5167 Y27.5992
G01 X15.5648 Y27.3502
G01 X15.6172 Y27.0971
G01 X15.6743 Y26.8382
G01 X15.7361 Y26.5717
G01 X15.8029 Y26.2957
G01 X15.8748 Y25.9557
G01 X15.8857 Y25.7953
G01 X15.7572 Y25.8264
G01 X15.4832 Y25.9579
G01 X15.1357 Y26.1520
G01 X14.7868 Y26.3708
G01 X14.6191 Y26.4934
G01 X14.4749 Y26.6231
G01 X14.3516 Y26.7670
G01 X14.2463 Y26.9323
G01 X14.1563 Y27.1258
G01 X14.0788 Y27.3546
G01 X14.0109 Y27.6258
G01 X13.9500 Y27.9463
G01 X13.8931 Y28.3233
G01 X13.8375 Y28.7638
G00 Z2.0000
G00 X15.5684 Y29.2260
G01 F60.00
G01 Z-0.2500
G01 F120.00
G01 X15.5508 Y29.4105
G01 X15.5337 Y29.6284
G01 X15.5174 Y29.8756
G01 X15.5018 Y30.1478
G01 X15.4869 Y30.4404
G01 X15.4732 Y30.7498
G01 X15.4606 Y31.0715
G01 X15.4491 Y31.4011
G01 X15.4390 Y31.7343
G01 X15.4304 Y32.0675
G01 X15.4234 Y32.3956
G01 X15.4180 Y32.7151
G01 X15.4144 Y33.0214
G01 X15.4127 Y33.3107
G01 X15.4133 Y33.5781
G01 X15.4158 Y33.8197
G01 X15.4208 Y34.0311
G01 X15.4281 Y34.2086
G01 X15.5362 Y36.2087
G01 X15.5510 Y36.4640
G01 X15.5676 Y36.7227
G01 X15.5863 Y36.9851
G01 X15.6068 Y37.2505
G01 X15.6292 Y37.5188
G01 X15.6532 Y37.7895
G01 X15.6793 Y38.0625
G01 X15.7070 Y38.3378
G01 X15.7367 Y38.6144
G01 X15.7678 Y38.8927
G01 X15.8005 Y39.1725
G01 X15.8352 Y39.4527
G01 X15.8711 Y39.7339
G01 X15.9089 Y40.0155
G01 X15.9481 Y40.2972
G01 X15.9887 Y40.5786
G01 X16.0307 Y40.8597
G01 X16.0741 Y41.1400
G01 X16.1192 Y41.4195
G01 X16.1654 Y41.6978
G01 X16.2130 Y41.9744
G01 X16.2617 Y42.2494
G01 X16.3118 Y42.5224
G01 X16.3630 Y42.7929
G01 X16.4154 Y43.0608
G01 X16.4666 Y43.3137
G01 X16.5196 Y43.5671
G01 X16.5742 Y43.8213
G01 X16.6307 Y44.0761
G01 X16.6892 Y44.3317
G01 X16.7494 Y44.5879
G01 X16.8113 Y44.8450
G01 X16.8752 Y45.1026
G01 X16.9407 Y45.3607
G01 X17.0082 Y45.6197
G01 X17.0773 Y45.8790
G01 X17.1482 Y46.1391
G01 X17.2210 Y46.3998
G01 X17.2954 Y46.6608
G01 X17.3716 Y46.9226
G01 X17.4494 Y47.1847
G01 X17.5292 Y47.4473
G01 X17.6107 Y47.7105
G01 X17.6939 Y47.9740
G01 X17.7787 Y48.2380
G01 X17.8655 Y48.5026
G01 X17.9537 Y48.7675
G01 X18.0439 Y49.0327
G01 X18.1357 Y49.2984
G01 X18.2292 Y49.5644
G01 X18.3244 Y49.8307
G01 X18.4213 Y50.0972
G01 X18.5199 Y50.3643
G01 X18.6201 Y50.6315
G01 X18.7220 Y50.8991
G01 X18.8256 Y51.1668
G01 X18.9309 Y51.4351
G01 X19.0376 Y51.7033
G01 X19.1462 Y51.9715
G01 X19.2566 Y52.2403
G01 X19.3683 Y52.5091
G01 X19.4820 Y52.7782
G01 X19.5970 Y53.0473
G01 X19.7138 Y53.3164
G01 X19.8322 Y53.5857
G01 X20.0484 Y54.0721
G01 X20.2492 Y54.5193
G01 X20.4362 Y54.9292
G01 X20.6104 Y55.3041
G01 X20.7725 Y55.6454
G01 X20.9240 Y55.9554
G01 X21.0656 Y56.2359
G01 X21.1989 Y56.4888
G01 X21.3246 Y56.7161
G01 X21.4439 Y56.9197
G01 X21.5579 Y57.1011
G01 X21.6676 Y57.2630
G01 X21.7743 Y57.4069
G01 X21.8788 Y57.5346
G01 X21.9826 Y57.6480
G01 X22.0862 Y57.7493
G01 X22.1915 Y57.8401
G01 X22.2988 Y57.9227
G01 X22.4519 Y58.0232
G01 X22.6146 Y58.0946
G01 X22.8313 Y58.1481
G01 X23.1472 Y58.1948
G01 X23.6075 Y58.2458
G01 X24.0149 Y58.2883
G01 X23.5960 Y57.9157
G01 X23.4608 Y57.7902
G01 X23.3261 Y57.6547
G01 X23.1914 Y57.5083
G01 X23.0567 Y57.3501
G01 X22.9209 Y57.1795
G01 X22.7840 Y56.9959
G01 X22.6451 Y56.7982
G01 X22.5040 Y56.5857
G01 X22.3601 Y56.3577
G01 X22.2125 Y56.1130
G01 X22.0616 Y55.8515
G01 X21.9059 Y55.5721
G01 X21.7458 Y55.2736
G01 X21.5800 Y54.9558
G01 X21.4086 Y54.6175
G01 X21.2308 Y54.2580
G01 X21.0463 Y53.8769
G01 X20.9405 Y53.6541
G01 X20.8352 Y53.4281
G01 X20.7305 Y53.1991
G01 X20.6263 Y52.9672
G01 X20.5230 Y52.7329
G01 X20.4202 Y52.4954
G01 X20.3180 Y52.2555
G01 X20.2170 Y52.0130
G01 X20.1162 Y51.7680
G01 X20.0165 Y51.5205
G01 X19.9176 Y51.2707
G01 X19.8194 Y51.0187
G01 X19.7222 Y50.7645
G01 X19.6259 Y50.5083
G01 X19.5304 Y50.2501
G01 X19.4360 Y49.9900
G01 X19.3425 Y49.7282
G01 X19.2498 Y49.4644
G01 X19.1586 Y49.1993
G01 X19.0681 Y48.9321
G01 X18.9788 Y48.6639
G01 X18.8906 Y48.3940
G01 X18.8035 Y48.1227
G01 X18.7178 Y47.8502
G01 X18.6333 Y47.5767
G01 X18.5498 Y47.3020
G01 X18.4675 Y47.0262
G01 X18.3866 Y46.7495
G01 X18.3071 Y46.4721
G01 X18.2290 Y46.1937
G01 X18.1522 Y45.9149
G01 X18.0766 Y45.6354
G01 X18.0027 Y45.3551
G01 X17.9302 Y45.0746
G01 X17.8591 Y44.7937
G01 X17.7896 Y44.5126
G01 X17.7216 Y44.2312
G01 X17.6552 Y43.9498
G01 X17.5864 Y43.6497
G01 X17.5192 Y43.3478
G01 X17.4539 Y43.0443
G01 X17.3906 Y42.7391
G01 X17.3290 Y42.4328
G01 X17.2691 Y42.1251
G01 X17.2114 Y41.8162
G01 X17.1554 Y41.5065
G01 X17.1011 Y41.1957
G01 X17.0488 Y40.8841
G01 X16.9984 Y40.5719
G01 X16.9496 Y40.2591
G01 X16.9029 Y39.9458
G01 X16.8581 Y39.6322
G01 X16.8150 Y39.3183
G01 X16.7738 Y39.0045
G01 X16.7346 Y38.6906
G01 X16.6971 Y38.3770
G01 X16.6615 Y38.0634
G01 X16.6279 Y37.7503
G01 X16.5963 Y37.4379
G01 X16.5663 Y37.1257
G01 X16.5383 Y36.8143
G01 X16.5123 Y36.5038
G01 X16.4882 Y36.1944
G01 X16.4658 Y35.8858
G01 X16.4454 Y35.5787
G01 X16.4269 Y35.2726
G01 X16.4104 Y34.9680
G01 X16.3958 Y34.6650
G01 X16.3829 Y34.3635
G01 X16.3723 Y34.0639
G01 X16.3633 Y33.7662
G01 X16.3563 Y33.4705
G01 X16.3513 Y33.1768
G01 X16.3482 Y32.8853
G01 X16.3471 Y32.5964
G01 X16.3479 Y32.3097
G01 X16.3504 Y32.0257
G01 X16.3552 Y31.7443
G01 X16.3619 Y31.4657
G01 X16.3703 Y31.1902
G01 X16.3810 Y30.9178
G01 X16.3933 Y30.6481
G01 X16.4078 Y30.3821
G01 X16.4241 Y30.1195
G01 X16.4426 Y29.8602
G01 X16.4630 Y29.6046
G01 X16.4851 Y29.3529
G01 X16.5095 Y29.1048
G01 X16.5358 Y28.8606
G01 X16.5641 Y28.6209
G01 X16.5943 Y28.3852
G01 X16.6265 Y28.1536
G01 X16.6607 Y27.9268
G01 X16.6968 Y27.7042
G01 X16.7349 Y27.4867
G01 X16.7752 Y27.2736
G01 X16.8175 Y27.0655
G01 X16.8617 Y26.8625
G01 X16.9079 Y26.6649
G01 X16.9561 Y26.4722
G01 X17.0065 Y26.2849
G01 X17.0586 Y26.1032
G01 X17.1129 Y25.9271
G01 X17.1692 Y25.7565
G01 X17.2912 Y25.4200
G01 X17.4153 Y25.1187
G01 X17.5438 Y24.8491
G01 X17.6788 Y24.6080
G01 X17.8224 Y24.3924
G01 X17.9767 Y24.1989
G01 X18.1438 Y24.0247
G01 X18.3258 Y23.8665
G01 X18.5252 Y23.7207
G01 X18.9015 Y23.4673
G01 X18.5834 Y23.4673
G01 X18.3172 Y23.4799
G01 X18.0705 Y23.5193
G01 X17.8414 Y23.5865
G01 X17.6286 Y23.6831
G01 X17.4298 Y23.8105
G01 X17.2431 Y23.9699
G01 X17.0670 Y24.1628
G01 X16.8992 Y24.3904
G01 X16.7380 Y24.6545
G01 X16.5814 Y24.9563
G01 X16.4871 Y25.1593
G01 X16.3980 Y25.3659
G01 X16.3140 Y25.5771
G01 X16.2348 Y25.7941
G01 X16.1600 Y26.0178
G01 X16.0898 Y26.2493
G01 X16.0234 Y26.4896
G01 X15.9610 Y26.7399
G01 X15.9022 Y27.0011
G01 X15.8464 Y27.2744
G01 X15.7938 Y27.5609
G01 X15.7442 Y27.8613
G01 X15.6969 Y28.1771
G01 X15.6521 Y28.5089
G01 X15.6093 Y28.8584
G01 X15.5684 Y29.2260
G00 Z2.0000
G00 X16.6467 Y29.7601
G01 F60.00
G01 Z-0.2500
G01 F120.00
G01 X16.6344 Y29.9402
G01 X16.6235 Y30.1432
G01 X16.6138 Y30.3672
G01 X16.6054 Y30.6101
G01 X16.5983 Y30.8700
G01 X16.5925 Y31.1450
G01 X16.5879 Y31.4330
G01 X16.5845 Y31.7322
G01 X16.5824 Y32.0405
G01 X16.5815 Y32.3561
G01 X16.5817 Y32.6769
G01 X16.5831 Y33.0009
G01 X16.5858 Y33.3263
G01 X16.5895 Y33.6510
G01 X16.5944 Y33.9731
G01 X16.6005 Y34.2906
G01 X16.6077 Y34.6016
G01 X16.6159 Y34.9041
G01 X16.6253 Y35.1962
G01 X16.6358 Y35.4758
G01 X16.6473 Y35.7411
G01 X16.6599 Y35.9900
G01 X16.6736 Y36.2206
G01 X16.6882 Y36.4309
G01 X16.7101 Y36.7071
G01 X16.7336 Y36.9837
G01 X16.7588 Y37.2606
G01 X16.7856 Y37.5378
G01 X16.8140 Y37.8152
G01 X16.8441 Y38.0929
G01 X16.8758 Y38.3708
G01 X16.9091 Y38.6489
G01 X16.9440 Y38.9271
G01 X16.9805 Y39.2054
G01 X17.0186 Y39.4837
G01 X17.0584 Y39.7621
G01 X17.0997 Y40.0405
G01 X17.1426 Y40.3188
G01 X17.1870 Y40.5971
G01 X17.2331 Y40.8753
G01 X17.2807 Y41.1534
G01 X17.3298 Y41.4313
G01 X17.3805 Y41.7090
G01 X17.4328 Y41.9865
G01 X17.4866 Y42.2638
G01 X17.5419 Y42.5407
G01 X17.5988 Y42.8173
G01 X17.6571 Y43.0936
G01 X17.7170 Y43.3694
G01 X17.7784 Y43.6449
G01 X17.8413 Y43.9199
G01 X17.9057 Y44.1944
G01 X17.9715 Y44.4683
G01 X18.0389 Y44.7418
G01 X18.1077 Y45.0146
G01 X18.1781 Y45.2868
G01 X18.2498 Y45.5584
G01 X18.3231 Y45.8293
G01 X18.3977 Y46.0994
G01 X18.4739 Y46.3688
G01 X18.5514 Y46.6375
G01 X18.6304 Y46.9053
G01 X18.7109 Y47.1723
G01 X18.8045 Y47.4784
G01 X18.8950 Y47.7707
G01 X18.9829 Y48.0507
G01 X19.0686 Y48.3200
G01 X19.1530 Y48.5802
G01 X19.2363 Y48.8329
G01 X19.3194 Y49.0797
G01 X19.4027 Y49.3221
G01 X19.4868 Y49.5618
G01 X19.5724 Y49.8003
G01 X19.6598 Y50.0392
G01 X19.7499 Y50.2800
G01 X19.8430 Y50.5245
G01 X19.9398 Y50.7741
G01 X20.0409 Y51.0305
G01 X20.1468 Y51.2951
G01 X20.2581 Y51.5697
G01 X20.3754 Y51.8558
G01 X20.4993 Y52.1550
G01 X20.6303 Y52.4689
G01 X20.7288 Y52.6993
G01 X20.8382 Y52.9466
G01 X20.9569 Y53.2075
G01 X21.0832 Y53.4788
G01 X21.2155 Y53.7572
G01 X21.3523 Y54.0394
G01 X21.4918 Y54.3222
G01 X21.6324 Y54.6022
G01 X21.7726 Y54.8763
G01 X21.9106 Y55.1411
G01 X22.0449 Y55.3934
G01 X22.1738 Y55.6298
G01 X22.2957 Y55.8473
G01 X22.4090 Y56.0423
G01 X22.6516 Y56.4381
G01 X22.8855 Y56.7923
G01 X23.1114 Y57.1053
G01 X23.3298 Y57.3778
G01 X23.5413 Y57.6100
G01 X23.7467 Y57.8025
G01 X23.9463 Y57.9558
G01 X24.1410 Y58.0702
G01 X24.3312 Y58.1464
G01 X24.5175 Y58.1846
G01 X24.7006 Y58.1855
G01 X24.8812 Y58.1494
G01 X25.0596 Y58.0768
G01 X25.2512 Y57.9553
G01 X25.4630 Y57.7816
G01 X25.6786 Y57.5727
G01 X25.8818 Y57.3458
G01 X26.0561 Y57.1177
G01 X26.1851 Y56.9056
G01 X26.2690 Y56.7277
G01 X26.3583 Y56.5142
G01 X26.4514 Y56.2709
G01 X26.5466 Y56.0039
G01 X26.6420 Y55.7190
G01 X26.7358 Y55.4221
G01 X26.8263 Y55.1192
G01 X26.9118 Y54.8161
G01 X26.9904 Y54.5188
G01 X27.0605 Y54.2333
G01 X27.1201 Y53.9653
G01 X27.1676 Y53.7209
G01 X27.2012 Y53.5060
G01 X27.2443 Y53.2117
G01 X27.2796 Y53.0244
G01 X27.2157 Y52.9057
G01 X26.9586 Y52.7712
G01 X26.8710 Y52.7297
G01 X26.7518 Y52.6638
G01 X26.6033 Y52.5752
G01 X26.4281 Y52.4658
G01 X26.2286 Y52.3372
G01 X26.0071 Y52.1913
G01 X25.7663 Y52.0298
G01 X25.5084 Y51.8544
G01 X25.2360 Y51.6670
G01 X24.9515 Y51.4693
G01 X24.6574 Y51.2631
G01 X24.3561 Y51.0500
G01 X24.0500 Y50.8320
G01 X23.7416 Y50.6107
G01 X23.4334 Y50.3879
G01 X23.1277 Y50.1653
G01 X22.8271 Y49.9448
G01 X22.5340 Y49.7281
G01 X22.2508 Y49.5170
G01 X21.9799 Y49.3131
G01 X21.7239 Y49.1184
G01 X21.4852 Y48.9345
G01 X21.2662 Y48.7632
G01 X21.0693 Y48.6063
G01 X20.8971 Y48.4655
G01 X20.7520 Y48.3426
G01 X20.6363 Y48.2393
G01 X20.5526 Y48.1575
G01 X20.3496 Y47.9435
G01 X20.3111 Y41.0668
G01 X20.0889 Y41.0112
G01 X19.7570 Y40.9299
G01 X19.1678 Y40.7868
G01 X17.7924 Y40.4544
G01 X17.7423 Y40.0168
G01 X17.7340 Y39.9323
G01 X17.7249 Y39.8175
G01 X17.7151 Y39.6739
G01 X17.7047 Y39.5033
G01 X17.6936 Y39.3074
G01 X17.6821 Y39.0879
G01 X17.6702 Y38.8464
G01 X17.6578 Y38.5846
G01 X17.6452 Y38.3042
G01 X17.6324 Y38.0070
G01 X17.6062 Y37.3687
G01 X17.5800 Y36.6831
G01 X17.5543 Y35.9638
G01 X17.5295 Y35.2242
G01 X17.5064 Y34.4780
G01 X17.4955 Y34.1065
G01 X17.4355 Y31.8981
G01 X17.8817 Y32.1233
G01 X18.1598 Y32.2682
G01 X18.4600 Y32.4316
G01 X18.7173 Y32.5782
G01 X18.9983 Y32.7339
G01 X19.1271 Y32.7859
G01 X19.1290 Y32.7427
G01 X19.1152 Y32.6397
G01 X19.0872 Y32.4830
G01 X19.0465 Y32.2789
G01 X18.9945 Y32.0338
G01 X18.9327 Y31.7540
G01 X18.8626 Y31.4457
G01 X18.7857 Y31.1153
G01 X18.7035 Y30.7690
G01 X18.6174 Y30.4132
G01 X18.5289 Y30.0541
G01 X18.4396 Y29.6981
G01 X18.3508 Y29.3514
G01 X18.2641 Y29.0204
G01 X18.1810 Y28.7113
G01 X18.1028 Y28.4304
G01 X17.9095 Y27.7476
G01 X17.7605 Y27.2128
G01 X17.6526 Y26.8067
G01 X17.5822 Y26.5100
G01 X17.5461 Y26.3032
G01 X17.5409 Y26.1671
G01 X17.5631 Y26.0821
G01 X17.6094 Y26.0290
G01 X17.6764 Y25.9884
G01 X17.8855 Y25.9343
G01 X18.1868 Y25.9118
G01 X18.4301 Y25.9244
G01 X18.6096 Y25.9770
G01 X18.7414 Y26.0914
G01 X18.8419 Y26.2893
G01 X18.9271 Y26.5925
G01 X19.0134 Y27.0229
G01 X19.0508 Y27.2228
G01 X19.0972 Y27.4648
G01 X19.1507 Y27.7396
G01 X19.2096 Y28.0380
G01 X19.2720 Y28.3508
G01 X19.3360 Y28.6686
G01 X19.3998 Y28.9822
G01 X19.5189 Y29.5614
G01 X19.5781 Y29.8529
G01 X19.6383 Y30.1533
G01 X19.6990 Y30.4589
G01 X19.7594 Y30.7662
G01 X19.8188 Y31.0718
G01 X19.8766 Y31.3719
G01 X19.9321 Y31.6631
G01 X19.9846 Y31.9418
G01 X20.0335 Y32.2044
G01 X20.0779 Y32.4475
G01 X20.1173 Y32.6673
G01 X20.1510 Y32.8604
G01 X20.1783 Y33.0233
G01 X20.2932 Y33.3749
G01 X20.4275 Y33.4737
G01 X20.7099 Y33.6441
G01 X21.0792 Y33.8492
G01 X21.3976 Y34.0214
G01 X21.7133 Y34.1956
G01 X22.0208 Y34.3685
G01 X22.3145 Y34.5366
G01 X22.5887 Y34.6968
G01 X22.8380 Y34.8458
G01 X23.0566 Y34.9801
G01 X23.2389 Y35.0965
G01 X23.3794 Y35.1917
G01 X23.4724 Y35.2624
G01 X23.5549 Y35.3411
G01 X23.6147 Y35.4404
G01 X23.6600 Y35.6015
G01 X23.6989 Y35.8655
G01 X23.7395 Y36.2737
G01 X23.7901 Y36.8670
G01 X23.8242 Y37.2522
G01 X23.8595 Y37.6077
G01 X23.8942 Y37.9182
G01 X23.9265 Y38.1687
G01 X23.9547 Y38.3439
G01 X23.9767 Y38.4287
G01 X24.1090 Y38.5917
G01 X24.3325 Y38.8074
G01 X24.4314 Y38.8967
G01 X24.5856 Y39.0395
G01 X24.7859 Y39.2268
G01 X25.0229 Y39.4499
G01 X25.2872 Y39.7000
G01 X25.5694 Y39.9683
G01 X25.8603 Y40.2459
G01 X26.1916 Y40.5611
G01 X26.4955 Y40.8469
G01 X26.7592 Y41.0914
G01 X26.9697 Y41.2830
G01 X27.1144 Y41.4097
G01 X27.1802 Y41.4598
G01 X27.2064 Y41.3487
G01 X27.1638 Y41.1768
G01 X27.1045 Y40.8604
G01 X27.0415 Y40.4682
G01 X27.0029 Y40.2170
G01 X26.9607 Y39.9563
G01 X26.9150 Y39.6870
G01 X26.8661 Y39.4103
G01 X26.8143 Y39.1273
G01 X26.7596 Y38.8392
G01 X26.7025 Y38.5469
G01 X26.6431 Y38.2516
G01 X26.5817 Y37.9544
G01 X26.5185 Y37.6565
G01 X26.4537 Y37.3588
G01 X26.3876 Y37.0625
G01 X26.3204 Y36.7688
G01 X26.2524 Y36.4786
G01 X26.1837 Y36.1932
G01 X26.1147 Y35.9136
G01 X26.0455 Y35.6409
G01 X25.9765 Y35.3762
G01 X25.9077 Y35.1206
G01 X25.8396 Y34.8752
G01 X25.7035 Y34.3937
G01 X24.1555 Y34.3937
G01 X23.6649 Y34.3932
G01 X23.2689 Y34.3879
G01 X22.9515 Y34.3727
G01 X22.6967 Y34.3420
G01 X22.4885 Y34.2905
G01 X22.3106 Y34.2128
G01 X22.1472 Y34.1037
G01 X21.9822 Y33.9576
G01 X21.7995 Y33.7694
G01 X21.5830 Y33.5335
G01 X21.4068 Y33.3318
G01 X21.2397 Y33.1230
G01 X21.0820 Y32.9074
G01 X20.9335 Y32.6851
G01 X20.7945 Y32.4563
G01 X20.6649 Y32.2212
G01 X20.5449 Y31.9800
G01 X20.4346 Y31.7327
G01 X20.3340 Y31.4798
G01 X20.2432 Y31.2212
G01 X20.1622 Y30.9572
G01 X20.0913 Y30.6881
G01 X20.0303 Y30.4138
G01 X19.9795 Y30.1348
G01 X19.9389 Y29.8511
G01 X19.9085 Y29.5629
G01 X19.8821 Y29.1793
G01 X19.8716 Y28.8176
G01 X19.8771 Y28.4772
G01 X19.8988 Y28.1579
G01 X19.9368 Y27.8590
G01 X19.9911 Y27.5803
G01 X20.0621 Y27.3212
G01 X20.1497 Y27.0814
G01 X20.2541 Y26.8604
G01 X20.3756 Y26.6578
G01 X20.5141 Y26.4732
G01 X20.6698 Y26.3061
G01 X20.8429 Y26.1561
G01 X21.0336 Y26.0229
G01 X21.1062 Y25.9163
G01 X21.1259 Y25.6413
G01 X21.1018 Y25.0727
G01 X21.0519 Y24.1966
G01 X20.7811 Y23.9484
G01 X20.5658 Y23.7844
G01 X20.3286 Y23.6631
G01 X20.0744 Y23.5842
G01 X19.8084 Y23.5472
G01 X19.5358 Y23.5515
G01 X19.2616 Y23.5968
G01 X18.9909 Y23.6826
G01 X18.7288 Y23.8083
G01 X18.4806 Y23.9736
G01 X18.2512 Y24.1780
G01 X18.1382 Y24.3038
G01 X18.0282 Y24.4463
G01 X17.9211 Y24.6050
G01 X17.8172 Y24.7797
G01 X17.7164 Y24.9697
G01 X17.6191 Y25.1748
G01 X17.5252 Y25.3945
G01 X17.4350 Y25.6283
G01 X17.3485 Y25.8758
G01 X17.2658 Y26.1366
G01 X17.1872 Y26.4103
G01 X17.1126 Y26.6965
G01 X17.0423 Y26.9946
G01 X16.9763 Y27.3043
G01 X16.9148 Y27.6251
G01 X16.8579 Y27.9567
G01 X16.8057 Y28.2985
G01 X16.7584 Y28.6502
G01 X16.7160 Y29.0113
G01 X16.6787 Y29.3814
G01 X16.6467 Y29.7601
G00 Z2.0000
G00 X17.8975 Y32.4307
G01 F60.00
G01 Z-0.2500
G01 F120.00
G01 X17.8805 Y32.4846
G01 X17.8665 Y32.6352
G01 X17.8557 Y32.8655
G01 X17.8480 Y33.1584
G01 X17.8438 Y33.4971
G01 X17.8430 Y33.8645
G01 X17.8459 Y34.2438
G01 X17.8525 Y34.6179
G01 X17.8629 Y34.9698
G01 X17.8773 Y35.2827
G01 X17.8825 Y35.3822
G01 X17.8900 Y35.5402
G01 X17.9108 Y36.0041
G01 X17.9374 Y36.6185
G01 X17.9828 Y37.7006
G01 X18.0008 Y38.1170
G01 X18.0195 Y38.5152
G01 X18.0385 Y38.8859
G01 X18.0572 Y39.2196
G01 X18.0751 Y39.5069
G01 X18.0915 Y39.7384
G01 X18.1059 Y39.9047
G01 X18.1179 Y39.9964
G01 X18.1829 Y40.1765
G01 X18.3819 Y40.2931
G01 X18.8695 Y40.4367
G01 X19.1723 Y40.5207
G01 X19.4787 Y40.6074
G01 X19.7529 Y40.6866
G01 X19.9592 Y40.7482
G01 X20.3481 Y40.8676
G01 X20.3481 Y38.2898
G01 X20.0142 Y38.1420
G01 X19.8071 Y38.0337
G01 X19.6186 Y37.8987
G01 X19.4456 Y37.7336
G01 X19.2849 Y37.5350
G01 X19.1334 Y37.2994
G01 X18.9879 Y37.0235
G01 X18.8787 Y36.7861
G01 X18.8106 Y36.5869
G01 X18.7741 Y36.3694
G01 X18.7598 Y36.0769
G01 X18.7581 Y35.6531
G01 X18.7623 Y35.3167
G01 X18.7743 Y35.0418
G01 X18.7973 Y34.8056
G01 X18.8342 Y34.5852
G01 X18.8881 Y34.3578
G01 X18.9619 Y34.1006
G01 X19.0868 Y33.6773
G01 X19.1503 Y33.3841
G01 X19.1410 Y33.1826
G01 X19.0478 Y33.0341
G01 X18.8593 Y32.9000
G01 X18.5642 Y32.7419
G01 X18.2534 Y32.5851
G01 X18.0139 Y32.4733
G01 X17.8975 Y32.4307
G00 Z2.0000
G00 X20.1718 Y33.6282
G01 F60.00
G01 Z-0.2500
G01 F120.00
G01 X20.0595 Y33.9008
G01 X20.0370 Y34.1345
G01 X20.1221 Y34.3000
G01 X20.4205 Y34.7715
G01 X20.5679 Y35.0321
G01 X20.7072 Y35.3029
G01 X20.8282 Y35.5630
G01 X20.9207 Y35.7916
G01 X20.9745 Y35.9679
G01 X21.0978 Y36.1946
G01 X21.2925 Y36.1236
G01 X21.3591 Y36.0861
G01 X21.4561 Y36.1076
G01 X21.6103 Y36.2088
G01 X21.8482 Y36.4100
G01 X22.1964 Y36.7318
G01 X22.6816 Y37.1948
G01 X22.9866 Y37.4849
G01 X23.2550 Y37.7348
G01 X23.4700 Y37.9294
G01 X23.6151 Y38.0535
G01 X23.6735 Y38.0922
G01 X23.6773 Y38.0176
G01 X23.6701 Y37.8311
G01 X23.6541 Y37.5600
G01 X23.6313 Y37.2317
G01 X23.6039 Y36.8733
G01 X23.5740 Y36.5124
G01 X23.5435 Y36.1761
G01 X23.5147 Y35.8919
G01 X23.4896 Y35.6870
G01 X23.4303 Y35.4940
G01 X23.2586 Y35.3239
G01 X22.8814 Y35.0846
G01 X22.6528 Y34.9509
G01 X22.3780 Y34.7947
G01 X22.0714 Y34.6234
G01 X21.7470 Y34.4447
G01 X21.4191 Y34.2663
G01 X21.1018 Y34.0958
G01 X20.8094 Y33.9408
G01 X20.5560 Y33.8089
G01 X20.3558 Y33.7077
G01 X20.2230 Y33.6450
G01 X20.1718 Y33.6282
G00 Z2.0000
G00 X19.2129 Y35.8752
G01 F60.00
G01 Z-0.2500
G01 F120.00
G01 X19.2748 Y35.4882
G01 X19.3638 Y35.3429
G01 X19.5374 Y35.3465
G01 X19.7639 Y35.4261
G01 X19.9876 Y35.5666
G01 X20.1901 Y35.7542
G01 X20.3528 Y35.9737
G01 X20.5177 Y36.1916
G01 X20.5238 Y36.0678
G01 X20.3679 Y35.6716
G01 X20.1677 Y35.2883
G01 X19.9717 Y34.9957
G01 X19.7855 Y34.7947
G01 X19.6144 Y34.6855
G01 X19.4638 Y34.6687
G01 X19.3389 Y34.7454
G01 X19.2456 Y34.9156
G01 X19.1888 Y35.1802
G01 X19.1740 Y35.5400
G01 X19.1899 Y35.8685
G01 X19.2129 Y35.8752
G00 Z2.0000
G00 X20.8828 Y37.8396
G01 F60.00
G01 Z-0.2500
G01 F120.00
G01 X20.8310 Y37.9388
G01 X20.7876 Y38.0254
G01 X20.7522 Y38.1114
G01 X20.7242 Y38.2087
G01 X20.7031 Y38.3295
G01 X20.6884 Y38.4856
G01 X20.6795 Y38.6892
G01 X20.6760 Y38.9522
G01 X20.6772 Y39.2866
G01 X20.6828 Y39.7046
G01 X20.6921 Y40.2180
G01 X20.7257 Y41.8625
G01 X20.7368 Y42.4576
G01 X20.7525 Y43.3834
G01 X20.7659 Y44.2868
G01 X20.7762 Y45.0978
G01 X20.7807 Y45.5525
G01 X20.7926 Y47.3945
G01 X21.5554 Y47.3945
G01 X21.5037 Y45.4790
G01 X21.4902 Y44.8900
G01 X21.4753 Y44.1504
G01 X21.4649 Y43.5929
G01 X21.4544 Y42.9972
G01 X21.4389 Y42.0574
G01 X21.4243 Y41.0965
G01 X21.4027 Y39.5360
G01 X21.3942 Y38.9840
G01 X21.3857 Y38.4945
G01 X21.3770 Y38.0649
G01 X21.3680 Y37.6923
G01 X21.3586 Y37.3740
G01 X21.3487 Y37.1071
G01 X21.3382 Y36.8889
G01 X21.3271 Y36.7166
G01 X21.3151 Y36.5874
G01 X21.3022 Y36.4986
G01 X21.2884 Y36.4474
G01 X21.2734 Y36.4309
G01 X21.1958 Y36.5630
G01 X21.1385 Y36.9309
G01 X21.0897 Y37.2540
G01 X21.0044 Y37.5571
G01 X20.8828 Y37.8396
G00 Z2.0000
G00 X22.0300 Y36.9524
G01 F60.00
G01 Z-0.2500
G01 F120.00
G01 X21.5263 Y36.4739
G01 X21.5479 Y37.5095
G01 X21.5660 Y38.5278
G01 X21.5976 Y40.4448
G01 X21.6500 Y43.7383
G01 X21.6665 Y44.7330
G01 X21.6810 Y45.5752
G01 X21.6953 Y46.3518
G01 X21.7185 Y47.4315
G01 X22.1630 Y47.6704
G01 X22.3229 Y47.7537
G01 X22.5021 Y47.8421
G01 X22.6992 Y47.9353
G01 X22.9127 Y48.0325
G01 X23.1411 Y48.1332
G01 X23.3829 Y48.2369
G01 X23.6367 Y48.3430
G01 X23.9010 Y48.4509
G01 X24.1742 Y48.5602
G01 X24.4551 Y48.6701
G01 X24.7419 Y48.7802
G01 X25.0334 Y48.8899
G01 X25.3279 Y48.9986
G01 X25.6241 Y49.1058
G01 X25.9204 Y49.2110
G01 X26.2155 Y49.3135
G01 X26.5077 Y49.4127
G01 X26.7956 Y49.5082
G01 X27.0778 Y49.5994
G01 X27.3527 Y49.6857
G01 X27.6189 Y49.7665
G01 X27.8750 Y49.8413
G01 X28.3485 Y49.9768
G01 X28.3483 Y47.2967
G01 X28.3478 Y46.9550
G01 X28.3467 Y46.6128
G01 X28.3448 Y46.2732
G01 X28.3424 Y45.9397
G01 X28.3393 Y45.6156
G01 X28.3357 Y45.3044
G01 X28.3316 Y45.0094
G01 X28.3270 Y44.7340
G01 X28.3220 Y44.4815
G01 X28.3167 Y44.2553
G01 X28.3111 Y44.0588
G01 X28.3052 Y43.8954
G01 X28.2991 Y43.7684
G01 X28.2502 Y42.9203
G01 X27.7162 Y42.3941
G01 X27.5856 Y42.2663
G01 X27.2867 Y41.9753
G01 X27.1199 Y41.8135
G01 X26.7552 Y41.4609
G01 X26.3541 Y41.0745
G01 X25.9228 Y40.6602
G01 X25.2320 Y39.9988
G01 X24.5070 Y39.3069
G01 X24.0146 Y38.8384
G01 X22.0300 Y36.9524
G00 Z2.0000
G00 X22.5520 Y38.5844
G01 F60.00
G01 Z-0.2500
G01 F120.00
G01 X22.4424 Y38.5686
G01 X22.4238 Y38.9220
G01 X22.4252 Y39.3570
G01 X23.5980 Y40.3176
G01 X23.9007 Y40.5647
G01 X24.1921 Y40.8017
G01 X24.4718 Y41.0284
G01 X24.7396 Y41.2447
G01 X24.9952 Y41.4504
G01 X25.2385 Y41.6453
G01 X25.4691 Y41.8291
G01 X25.6869 Y42.0018
G01 X25.8917 Y42.1631
G01 X26.0830 Y42.3128
G01 X26.2608 Y42.4508
G01 X26.4248 Y42.5768
G01 X26.5748 Y42.6906
G01 X26.7105 Y42.7922
G01 X26.8316 Y42.8812
G01 X27.2409 Y43.1874
G01 X27.4964 Y43.3984
G01 X27.5884 Y43.5053
G01 X27.5072 Y43.4991
G01 X27.3833 Y43.7752
G01 X27.3040 Y43.9655
G01 X27.2717 Y43.6289
G01 X27.2678 Y43.4307
G01 X27.1288 Y43.2485
G01 X26.9411 Y43.0721
G01 X26.9411 Y43.4184
G01 X26.8615 Y43.7646
G01 X26.8021 Y43.3846
G01 X26.7866 Y43.0458
G01 X26.6409 Y42.8572
G01 X26.4596 Y42.7098
G01 X26.4130 Y43.1076
G01 X26.4037 Y43.4693
G01 X26.5611 Y43.6701
G01 X26.7368 Y43.8196
G01 X26.8855 Y43.9478
G01 X27.0847 Y44.0610
G01 X27.3995 Y44.2853
G01 X27.6448 Y44.5097
G01 X27.6877 Y43.1513
G01 X27.1107 Y42.6152
G01 X26.9980 Y42.5115
G01 X26.8530 Y42.3799
G01 X26.6801 Y42.2241
G01 X26.4837 Y42.0481
G01 X26.2680 Y41.8556
G01 X26.0374 Y41.6506
G01 X25.7961 Y41.4369
G01 X25.5487 Y41.2183
G01 X25.2992 Y40.9988
G01 X25.0521 Y40.7820
G01 X23.5705 Y39.4849
G01 X23.5478 Y39.7728
G01 X23.4544 Y40.0523
G01 X23.3853 Y39.7061
G01 X23.3662 Y39.4507
G01 X23.2688 Y39.2598
G01 X23.0335 Y39.0166
G01 X22.7469 Y38.7516
G01 X22.5520 Y38.5844
G00 Z2.0000
G00 X22.4779 Y39.5451
G01 F60.00
G01 Z-0.2500
G01 F120.00
G01 X22.4779 Y39.5451
G00 Z2.0000
G00 X22.4779 Y39.5451
G01 F60.00
G01 Z-0.2500
G01 F120.00
G01 X22.4779 Y39.5451
G00 Z2.0000
G00 X22.4779 Y39.5451
G01 F60.00
G01 Z-0.2500
G01 F120.00
G01 X22.4386 Y39.7235
G01 X22.4223 Y40.1564
G01 X22.4223 Y40.7707
G01 X23.3483 Y41.4805
G01 X23.3922 Y40.3203
G01 X22.9628 Y39.9341
G01 X22.6433 Y39.6606
G01 X22.4779 Y39.5451
G00 Z2.0000
G00 X23.5323 Y40.4311
G01 F60.00
G01 Z-0.2500
G01 F120.00
G01 X23.5323 Y40.4311
G00 Z2.0000
G00 X23.5323 Y40.4311
G01 F60.00
G01 Z-0.2500
G01 F120.00
G01 X23.4804 Y40.5901
G01 X23.4594 Y40.9840
G01 X23.4594 Y41.5370
G01 X24.0150 Y41.9152
G01 X24.0374 Y41.3769
G01 X24.0427 Y40.9973
G01 X23.9880 Y40.7991
G01 X23.8326 Y40.6348
G01 X23.5323 Y40.4311
G00 Z2.0000
G00 X23.5323 Y40.4311
G01 F60.00
G01 Z-0.2500
G01 F120.00
G01 X23.5323 Y40.4311
G00 Z2.0000
G00 X24.1692 Y40.9497
G01 F60.00
G01 Z-0.2500
G01 F120.00
G01 X24.1388 Y41.0983
G01 X24.1261 Y41.4558
G01 X24.1377 Y41.8187
G01 X24.2142 Y42.0126
G01 X24.4181 Y42.1966
G01 X24.6439 Y42.3623
G01 X24.7768 Y42.4312
G01 X24.8284 Y42.2933
G01 X24.8588 Y41.9615
G01 X24.8740 Y41.4919
G01 X24.5431 Y41.2208
G01 X24.2968 Y41.0293
G01 X24.1692 Y40.9497
G00 Z2.0000
G00 X23.5520 Y41.7369
G01 F60.00
G01 Z-0.2500
G01 F120.00
G01 X23.4794 Y41.7963
G01 X23.4594 Y42.1577
G01 X23.4708 Y42.4990
G01 X23.5480 Y42.6741
G01 X23.7557 Y42.8299
G01 X24.0520 Y43.0260
G01 X24.0520 Y42.5573
G01 X24.0391 Y42.2637
G01 X23.9758 Y42.0691
G01 X23.8256 Y41.9135
G01 X23.5520 Y41.7369
G00 Z2.0000
G00 X23.5520 Y41.7369
G01 F60.00
G01 Z-0.2500
G01 F120.00
G01 X23.5520 Y41.7369
G00 Z2.0000
G00 X24.2045 Y42.2090
G01 F60.00
G01 Z-0.2500
G01 F120.00
G01 X24.1483 Y42.3223
G01 X24.1261 Y42.6102
G01 X24.1407 Y42.8948
G01 X24.2219 Y43.0677
G01 X24.4259 Y43.2488
G01 X24.7492 Y43.4587
G01 X24.8207 Y43.0554
G01 X24.8422 Y42.7840
G01 X24.7779 Y42.6235
G01 X24.5758 Y42.4443
G01 X24.3459 Y42.2781
G01 X24.2045 Y42.2090
G00 Z2.0000
G00 X24.9859 Y41.6164
G01 F60.00
G01 Z-0.2500
G01 F120.00
G01 X24.9542 Y41.7552
G01 X24.9410 Y42.0891
G01 X24.9529 Y42.4214
G01 X25.0214 Y42.6009
G01 X25.1953 Y42.7558
G01 X25.5287 Y42.9498
G01 X25.5858 Y42.8286
G01 X25.6077 Y42.5115
G01 X25.5944 Y42.2004
G01 X25.5171 Y42.0217
G01 X25.3192 Y41.8448
G01 X24.9859 Y41.6164
G00 Z2.0000
G00 X25.7390 Y42.2090
G01 F60.00
G01 Z-0.2500
G01 F120.00
G01 X25.6986 Y42.3370
G01 X25.6818 Y42.6447
G01 X25.6947 Y42.9508
G01 X25.7663 Y43.1235
G01 X25.9459 Y43.2818
G01 X26.2529 Y43.4404
G01 X26.3304 Y43.0377
G01 X26.3198 Y42.6956
G01 X26.0806 Y42.4434
G01 X25.7390 Y42.2090
G00 Z2.0000
G00 X24.9410 Y43.0178
G01 F60.00
G01 Z-0.2500
G01 F120.00
G01 X24.9047 Y43.3326
G01 X24.9232 Y43.5093
G01 X25.0985 Y43.6705
G01 X25.3717 Y43.8818
G01 X25.5406 Y43.9868
G01 X25.5664 Y43.5750
G01 X25.5261 Y43.2028
G01 X25.3442 Y42.9852
G01 X25.0330 Y42.8135
G01 X24.9410 Y43.0178
G00 Z2.0000
G00 X24.9600 Y43.7646
G01 F60.00
G01 Z-0.2500
G01 F120.00
G01 X24.9080 Y43.9621
G01 X24.9162 Y44.3488
G01 X24.9780 Y44.6162
G01 X25.2337 Y44.8257
G01 X25.4760 Y44.9499
G01 X25.5164 Y44.8248
G01 X25.5327 Y44.5240
G01 X25.4949 Y44.1353
G01 X25.2745 Y43.9313
G01 X24.9600 Y43.7646
G00 Z2.0000
G00 X24.2042 Y44.2832
G01 F60.00
G01 Z-0.2500
G01 F120.00
G01 X24.1475 Y44.4224
G01 X24.1261 Y44.7919
G01 X24.1261 Y45.3006
G01 X24.4209 Y45.4956
G01 X24.7542 Y45.6907
G01 X24.7815 Y45.5438
G01 X24.7928 Y45.1907
G01 X24.7812 Y44.8379
G01 X24.7129 Y44.6496
G01 X24.5375 Y44.4869
G01 X24.2042 Y44.2832
G00 Z2.0000
G00 X23.4975 Y43.8387
G01 F60.00
G01 Z-0.2500
G01 F120.00
G01 X23.4708 Y43.9965
G01 X23.4603 Y44.3758
G01 X23.4711 Y44.7577
G01 X23.5387 Y44.9419
G01 X23.7186 Y45.0795
G01 X24.0140 Y45.2462
G01 X24.0406 Y45.0885
G01 X24.0511 Y44.7091
G01 X24.0403 Y44.3272
G01 X23.9728 Y44.1431
G01 X23.7929 Y44.0054
G01 X23.4975 Y43.8387
G00 Z2.0000
G00 X24.1646 Y43.2461
G01 F60.00
G01 Z-0.2500
G01 F120.00
G01 X24.1261 Y43.6411
G01 X24.1409 Y43.9202
G01 X24.2206 Y44.0921
G01 X24.4181 Y44.2708
G01 X24.7514 Y44.5054
G01 X24.7807 Y44.3751
G01 X24.7928 Y44.0619
G01 X24.7809 Y43.7453
G01 X24.7034 Y43.5799
G01 X24.4980 Y43.4322
G01 X24.1646 Y43.2461
G00 Z2.0000
G00 X22.4585 Y43.0979
G01 F60.00
G01 Z-0.2500
G01 F120.00
G01 X22.4330 Y43.2600
G01 X22.4223 Y43.6498
G01 X22.4327 Y44.0390
G01 X22.4966 Y44.2330
G01 X22.6631 Y44.3807
G01 X23.0112 Y44.6263
G01 X23.2311 Y44.7479
G01 X23.3357 Y44.7526
G01 X23.3708 Y44.5813
G01 X23.3853 Y44.2391
G01 X23.3853 Y43.7752
G01 X22.9400 Y43.4366
G01 X22.6149 Y43.1974
G01 X22.4585 Y43.0979
G00 Z2.0000
G00 X22.4585 Y43.0979
G01 F60.00
G01 Z-0.2500
G01 F120.00
G01 X22.4585 Y43.0979
G00 Z2.0000
G00 X22.4585 Y43.0979
G01 F60.00
G01 Z-0.2500
G01 F120.00
G01 X22.4585 Y43.0979
G01 X22.4585 Y43.0979
G00 Z2.0000
G00 X22.2742 Y43.3943
G01 F60.00
G01 Z-0.2500
G01 F120.00
G01 X22.3112 Y46.9871
G01 X22.9779 Y47.3209
G01 X23.2935 Y47.4785
G01 X23.6188 Y47.6402
G01 X23.9508 Y47.8045
G01 X24.2865 Y47.9700
G01 X24.6231 Y48.1352
G01 X24.9574 Y48.2988
G01 X25.2865 Y48.4592
G01 X25.6074 Y48.6151
G01 X25.9171 Y48.7650
G01 X26.2126 Y48.9074
G01 X26.4910 Y49.0409
G01 X26.7493 Y49.1642
G01 X26.9844 Y49.2756
G01 X27.1934 Y49.3739
G01 X27.3733 Y49.4575
G01 X27.5211 Y49.5251
G01 X27.6338 Y49.5751
G01 X27.7085 Y49.6062
G01 X27.7421 Y49.6168
G01 X27.7546 Y49.5973
G01 X27.7666 Y49.5399
G01 X27.7779 Y49.4464
G01 X27.7886 Y49.3186
G01 X27.7986 Y49.1581
G01 X27.8078 Y48.9667
G01 X27.8164 Y48.7462
G01 X27.8241 Y48.4983
G01 X27.8310 Y48.2248
G01 X27.8371 Y47.9274
G01 X27.8423 Y47.6078
G01 X27.8466 Y47.2679
G01 X27.8500 Y46.9093
G01 X27.8524 Y46.5338
G01 X27.8537 Y46.1432
G01 X27.8541 Y45.7391
G01 X27.8534 Y45.3234
G01 X27.8515 Y44.8978
G01 X27.8486 Y44.4641
G01 X27.8445 Y44.0239
G01 X27.8334 Y42.9868
G01 X27.4461 Y42.6535
G01 X27.3611 Y42.5797
G01 X27.2367 Y42.4712
G01 X26.8873 Y42.1649
G01 X26.4332 Y41.7656
G01 X25.9096 Y41.3042
G01 X23.7480 Y39.3948
G01 X22.8677 Y38.6182
G01 X22.6222 Y38.4023
G01 X22.4654 Y38.2654
G01 X22.3668 Y38.1802
G01 X22.2034 Y38.0406
G01 X22.2222 Y39.0294
G01 X22.2269 Y39.3443
G01 X22.2328 Y39.7751
G01 X22.2431 Y40.5982
G01 X22.2545 Y41.5787
G01 X22.2742 Y43.3943
G00 Z2.0000
G00 X22.4675 Y44.4314
G01 F60.00
G01 Z-0.2500
G01 F120.00
G01 X22.4675 Y44.4314
G00 Z2.0000
G00 X22.4675 Y44.4314
G01 F60.00
G01 Z-0.2500
G01 F120.00
G01 X22.4286 Y44.5652
G01 X22.4260 Y44.8883
G01 X22.4521 Y45.2831
G01 X22.4990 Y45.6318
G01 X22.5590 Y45.8168
G01 X22.7887 Y45.9748
G01 X23.0998 Y46.1391
G01 X23.2757 Y46.1954
G01 X23.2975 Y46.0516
G01 X23.3144 Y45.7413
G01 X23.3237 Y45.3763
G01 X23.3224 Y45.0684
G01 X23.3078 Y44.9296
G01 X23.0351 Y44.7513
G01 X22.6719 Y44.5359
G01 X22.4675 Y44.4314
G00 Z2.0000
G00 X22.4675 Y44.4314
G01 F60.00
G01 Z-0.2500
G01 F120.00
G01 X22.4675 Y44.4314
G00 Z2.0000
G00 X23.5206 Y45.0983
G01 F60.00
G01 Z-0.2500
G01 F120.00
G01 X23.5206 Y45.0983
G00 Z2.0000
G00 X23.5206 Y45.0983
G01 F60.00
G01 Z-0.2500
G01 F120.00
G01 X23.4787 Y45.2227
G01 X23.4532 Y45.5220
G01 X23.4463 Y45.8848
G01 X23.4600 Y46.1995
G01 X23.4965 Y46.3547
G01 X23.8251 Y46.5416
G01 X24.0783 Y46.6406
G01 X24.0797 Y46.4428
G01 X24.0656 Y46.0009
G01 X24.0383 Y45.5680
G01 X23.9695 Y45.3672
G01 X23.8055 Y45.2419
G01 X23.5206 Y45.0983
G00 Z2.0000
G00 X23.5206 Y45.0983
G01 F60.00
G01 Z-0.2500
G01 F120.00
G01 X23.5206 Y45.0983
G00 Z2.0000
G00 X24.2234 Y45.5688
G01 F60.00
G01 Z-0.2500
G01 F120.00
G01 X24.2234 Y45.5688
G00 Z2.0000
G00 X24.2234 Y45.5688
G01 F60.00
G01 Z-0.2500
G01 F120.00
G01 X24.1827 Y45.7413
G01 X24.1636 Y46.0669
G01 X24.1688 Y46.4091
G01 X24.2012 Y46.6313
G01 X24.4459 Y46.8791
G01 X24.7521 Y47.0241
G01 X24.7809 Y46.8522
G01 X24.7928 Y46.4388
G01 X24.7928 Y45.8535
G01 X24.5242 Y45.6950
G01 X24.2234 Y45.5688
G00 Z2.0000
G00 X24.2234 Y45.5688
G01 F60.00
G01 Z-0.2500
G01 F120.00
G01 X24.2234 Y45.5688
G00 Z2.0000
G00 X24.9346 Y46.0689
G01 F60.00
G01 Z-0.2500
G01 F120.00
G01 X24.8880 Y46.2757
G01 X24.8680 Y46.6279
G01 X24.8785 Y46.9500
G01 X24.9480 Y47.1119
G01 X25.1304 Y47.2390
G01 X25.4638 Y47.3945
G01 X25.5131 Y47.2331
G01 X25.5336 Y46.8449
G01 X25.5336 Y46.2954
G01 X25.2668 Y46.1305
G01 X24.9346 Y46.0689
G00 Z2.0000
G00 X25.8855 Y46.5307
G01 F60.00
G01 Z-0.2500
G01 F120.00
G01 X25.6077 Y46.3552
G01 X25.6077 Y46.9130
G01 X25.6174 Y47.3078
G01 X25.6806 Y47.4927
G01 X25.8484 Y47.6175
G01 X26.1480 Y47.7646
G01 X26.1831 Y47.6093
G01 X26.1850 Y47.2356
G01 X26.1588 Y46.8591
G01 X26.0802 Y46.6744
G01 X25.8855 Y46.5307
G00 Z2.0000
G00 X26.3533 Y46.8759
G01 F60.00
G01 Z-0.2500
G01 F120.00
G01 X26.3533 Y46.8759
G00 Z2.0000
G00 X26.3533 Y46.8759
G01 F60.00
G01 Z-0.2500
G01 F120.00
G01 X26.2958 Y47.0140
G01 X26.2744 Y47.3855
G01 X26.2837 Y47.7461
G01 X26.3466 Y47.9045
G01 X26.5152 Y47.9924
G01 X26.7937 Y48.1437
G01 X27.0344 Y48.2485
G01 X27.2374 Y48.2995
G01 X27.2374 Y47.8512
G01 X27.2073 Y47.4637
G01 X27.0728 Y47.2876
G01 X26.8383 Y47.2032
G01 X26.7929 Y47.5841
G01 X26.7159 Y47.9482
G01 X26.6721 Y47.7993
G01 X26.6876 Y47.4696
G01 X26.7034 Y47.0960
G01 X26.5843 Y46.9573
G01 X26.3533 Y46.8759
G00 Z2.0000
G00 X26.3533 Y46.8759
G01 F60.00
G01 Z-0.2500
G01 F120.00
G01 X26.3533 Y46.8759
G00 Z2.0000
G00 X26.8856 Y46.0634
G01 F60.00
G01 Z-0.2500
G01 F120.00
G01 X26.8151 Y46.1724
G01 X26.7930 Y46.5248
G01 X26.8210 Y46.9175
G01 X26.9401 Y47.0804
G01 X27.1844 Y47.1350
G01 X27.2374 Y46.7174
G01 X27.2015 Y46.3466
G01 X27.0873 Y46.1345
G01 X26.8856 Y46.0634
G00 Z2.0000
G00 X27.3535 Y46.3574
G01 F60.00
G01 Z-0.2500
G01 F120.00
G01 X27.3239 Y46.4981
G01 X27.3116 Y46.8363
G01 X27.3386 Y47.2393
G01 X27.4549 Y47.3919
G01 X27.6514 Y47.4264
G01 X27.6820 Y46.9897
G01 X27.6550 Y46.5866
G01 X27.5387 Y46.4341
G01 X27.3535 Y46.3574
G00 Z2.0000
G00 X27.3970 Y45.3203
G01 F60.00
G01 Z-0.2500
G01 F120.00
G01 X27.3549 Y45.4494
G01 X27.3247 Y45.7598
G01 X27.3333 Y46.1348
G01 X27.4505 Y46.2784
G01 X27.6401 Y46.3574
G01 X27.6697 Y46.2183
G01 X27.6820 Y45.8838
G01 X27.6593 Y45.5352
G01 X27.5733 Y45.3651
G01 X27.3970 Y45.3203
G00 Z2.0000
G00 X26.9158 Y45.0240
G01 F60.00
G01 Z-0.2500
G01 F120.00
G01 X26.9158 Y45.0240
G00 Z2.0000
G00 X26.9158 Y45.0240
G01 F60.00
G01 Z-0.2500
G01 F120.00
G01 X26.8836 Y45.1463
G01 X26.8554 Y45.4403
G01 X26.8620 Y45.7980
G01 X26.9761 Y45.9588
G01 X27.1944 Y46.0255
G01 X27.2374 Y45.6192
G01 X27.2097 Y45.2480
G01 X27.0941 Y45.1007
G01 X26.9158 Y45.0240
G00 Z2.0000
G00 X26.9158 Y45.0240
G01 F60.00
G01 Z-0.2500
G01 F120.00
G01 X26.9158 Y45.0240
G01 X26.9158 Y45.0240
G00 Z2.0000
G00 X26.4086 Y44.6536
G01 F60.00
G01 Z-0.2500
G01 F120.00
G01 X26.3661 Y44.7829
G01 X26.3485 Y45.0939
G01 X26.3788 Y45.4743
G01 X26.5131 Y45.6494
G01 X26.7293 Y45.7648
G01 X26.7645 Y45.6432
G01 X26.7771 Y45.3511
G01 X26.7420 Y44.9947
G01 X26.6210 Y44.7955
G01 X26.4086 Y44.6536
G00 Z2.0000
G00 X25.6196 Y44.5346
G01 F60.00
G01 Z-0.2500
G01 F120.00
G01 X25.5867 Y44.9239
G01 X25.6957 Y45.0767
G01 X25.9680 Y45.2878
G01 X26.1936 Y45.3944
G01 X26.2522 Y45.2830
G01 X26.2744 Y44.9896
G01 X26.2611 Y44.7048
G01 X26.1863 Y44.5445
G01 X25.9979 Y44.3970
G01 X25.6673 Y44.2091
G01 X25.6196 Y44.5346
G00 Z2.0000
G00 X25.6646 Y45.2462
G01 F60.00
G01 Z-0.2500
G01 F120.00
G01 X25.6646 Y45.2462
G00 Z2.0000
G00 X25.6646 Y45.2462
G01 F60.00
G01 Z-0.2500
G01 F120.00
G01 X25.6244 Y45.3866
G01 X25.6077 Y45.7243
G01 X25.6127 Y46.0256
G01 X25.6765 Y46.2129
G01 X25.8726 Y46.3886
G01 X26.2744 Y46.6551
G01 X26.5262 Y46.8095
G01 X26.6633 Y46.8746
G01 X26.7026 Y46.7353
G01 X26.7189 Y46.3986
G01 X26.6893 Y45.9851
G01 X26.5522 Y45.8040
G01 X26.4011 Y45.7554
G01 X26.3424 Y46.1146
G01 X26.2993 Y46.5426
G01 X26.2869 Y46.0823
G01 X26.2658 Y45.7574
G01 X26.1885 Y45.5840
G01 X25.9979 Y45.4341
G01 X25.6646 Y45.2462
G00 Z2.0000
G00 X25.6646 Y45.2462
G01 F60.00
G01 Z-0.2500
G01 F120.00
G01 X25.6646 Y45.2462
G00 Z2.0000
G00 X24.9487 Y44.8340
G01 F60.00
G01 Z-0.2500
G01 F120.00
G01 X24.9062 Y44.9892
G01 X24.8813 Y45.3145
G01 X24.8842 Y45.6324
G01 X24.9536 Y45.7995
G01 X25.1444 Y45.9480
G01 X25.4767 Y46.1352
G01 X25.5169 Y45.9850
G01 X25.5336 Y45.6239
G01 X25.5234 Y45.2597
G01 X25.4543 Y45.0856
G01 X25.2687 Y44.9564
G01 X24.9487 Y44.8340
G00 Z2.0000
G00 X25.9781 Y43.4401
G01 F60.00
G01 Z-0.2500
G01 F120.00
G01 X25.6818 Y43.2440
G01 X25.6818 Y43.6437
G01 X25.7211 Y44.0116
G01 X25.9361 Y44.2374
G01 X26.2324 Y44.4314
G01 X26.2744 Y44.0338
G01 X26.2608 Y43.7520
G01 X26.1814 Y43.5929
G01 X25.9781 Y43.4401
G00 Z2.0000
G00 X26.4538 Y43.7647
G01 F60.00
G01 Z-0.2500
G01 F120.00
G01 X26.4538 Y43.7647
G00 Z2.0000
G00 X26.4538 Y43.7647
G01 F60.00
G01 Z-0.2500
G01 F120.00
G01 X26.4538 Y43.7647
G00 Z2.0000
G00 X26.4538 Y43.7647
G01 F60.00
G01 Z-0.2500
G01 F120.00
G01 X26.3700 Y44.1330
G01 X26.3881 Y44.4529
G01 X26.5161 Y44.6144
G01 X26.7724 Y44.7277
G01 X26.8670 Y44.8055
G01 X27.1078 Y44.9913
G01 X27.3268 Y45.1026
G01 X27.5152 Y45.2188
G01 X27.6610 Y45.2776
G01 X27.6819 Y44.9738
G01 X27.6184 Y44.5766
G01 X27.4448 Y44.4314
G01 X27.3856 Y44.6492
G01 X27.3002 Y44.9198
G01 X27.2562 Y44.6643
G01 X27.2605 Y44.3928
G01 X27.1399 Y44.2455
G01 X26.9199 Y44.1534
G01 X26.8469 Y44.4128
G01 X26.8202 Y44.6013
G01 X26.8054 Y44.3502
G01 X26.7494 Y44.0549
G01 X26.6232 Y43.8447
G01 X26.4538 Y43.7647
G00 Z2.0000
G00 X28.9226 Y44.8034
G01 F60.00
G01 Z-0.2500
G01 F120.00
G01 X28.5708 Y44.8017
G01 X28.5800 Y45.1906
G01 X28.5865 Y45.3645
G01 X28.5990 Y45.5300
G01 X28.6208 Y45.7010
G01 X28.6549 Y45.8912
G01 X28.7044 Y46.1146
G01 X28.7722 Y46.3850
G01 X28.8616 Y46.7162
G01 X28.9754 Y47.1222
G01 X29.2038 Y47.9199
G01 X29.2913 Y48.2281
G01 X29.3770 Y48.5327
G01 X29.4587 Y48.8250
G01 X29.5339 Y49.0967
G01 X29.6002 Y49.3391
G01 X29.6553 Y49.5436
G01 X29.6968 Y49.7018
G01 X29.8610 Y50.3424
G01 X30.7530 Y50.5715
G01 X31.0134 Y50.6379
G01 X31.2937 Y50.7088
G01 X31.5788 Y50.7802
G01 X31.8537 Y50.8485
G01 X32.1030 Y50.9097
G01 X32.3117 Y50.9603
G01 X32.6564 Y51.0530
G01 X32.9362 Y51.1548
G01 X33.1863 Y51.2810
G01 X33.4421 Y51.4468
G01 X33.6156 Y51.5726
G01 X33.8092 Y51.7194
G01 X34.0178 Y51.8829
G01 X34.2363 Y52.0589
G01 X34.4598 Y52.2434
G01 X34.6832 Y52.4321
G01 X34.9014 Y52.6209
G01 X35.1095 Y52.8056
G01 X35.3022 Y52.9821
G01 X35.6259 Y53.2837
G01 X35.5740 Y52.9874
G01 X35.5443 Y52.8466
G01 X35.4930 Y52.6334
G01 X35.4253 Y52.3684
G01 X35.3465 Y52.0721
G01 X35.1989 Y51.5388
G01 X35.1311 Y51.2900
G01 X35.0592 Y51.0215
G01 X34.9838 Y50.7359
G01 X34.9056 Y50.4361
G01 X34.8252 Y50.1247
G01 X34.7434 Y49.8045
G01 X34.6607 Y49.4782
G01 X34.5779 Y49.1486
G01 X34.4957 Y48.8184
G01 X34.4147 Y48.4904
G01 X34.3357 Y48.1673
G01 X34.2592 Y47.8518
G01 X34.1859 Y47.5467
G01 X34.1167 Y47.2546
G01 X34.0520 Y46.9785
G01 X33.9926 Y46.7209
G01 X33.9392 Y46.4847
G01 X33.8924 Y46.2725
G01 X33.8530 Y46.0872
G01 X33.8215 Y45.9314
G01 X33.6451 Y45.0240
G01 X33.3859 Y45.0220
G01 X33.2945 Y45.0194
G01 X33.1332 Y45.0127
G01 X32.9111 Y45.0025
G01 X32.6370 Y44.9890
G01 X32.3199 Y44.9728
G01 X31.9689 Y44.9544
G01 X31.5928 Y44.9341
G01 X30.8065 Y44.8909
G01 X30.4250 Y44.8706
G01 X30.0653 Y44.8522
G01 X29.7369 Y44.8361
G01 X29.4491 Y44.8227
G01 X29.2113 Y44.8125
G01 X29.0326 Y44.8059
G01 X28.9226 Y44.8034
G00 Z2.0000
G00 X28.6263 Y46.3578
G01 F60.00
G01 Z-0.2500
G01 F120.00
G01 X28.6263 Y46.3578
G00 Z2.0000
G00 X28.6263 Y46.3578
G01 F60.00
G01 Z-0.2500
G01 F120.00
G01 X28.6113 Y46.4194
G01 X28.5993 Y46.5908
G01 X28.5902 Y46.8512
G01 X28.5842 Y47.1801
G01 X28.5810 Y47.5567
G01 X28.5806 Y47.9603
G01 X28.5830 Y48.3705
G01 X28.5882 Y48.7664
G01 X28.5960 Y49.1274
G01 X28.6065 Y49.4329
G01 X28.6195 Y49.6622
G01 X28.6351 Y49.7946
G01 X28.7546 Y49.9959
G01 X29.1634 Y50.1438
G01 X29.5175 Y50.2396
G01 X29.6927 Y50.2809
G01 X29.7125 Y50.2661
G01 X29.7087 Y50.1926
G01 X29.6719 Y50.0221
G01 X29.5926 Y49.7160
G01 X29.4615 Y49.2357
G01 X29.1721 Y48.1923
G01 X29.0764 Y47.8450
G01 X28.9869 Y47.5174
G01 X28.9080 Y47.2264
G01 X28.8443 Y46.9886
G01 X28.8003 Y46.8208
G01 X28.7004 Y46.4939
G01 X28.6263 Y46.3578
G00 Z2.0000
G00 X28.6263 Y46.3578
G01 F60.00
G01 Z-0.2500
G01 F120.00
G01 X28.6263 Y46.3578
G00 Z2.0000
G00 X27.3601 Y47.4686
G01 F60.00
G01 Z-0.2500
G01 F120.00
G01 X27.3277 Y47.6007
G01 X27.2996 Y47.9185
G01 X27.3054 Y48.2938
G01 X27.3915 Y48.4741
G01 X27.5678 Y48.5791
G01 X27.6572 Y48.4643
G01 X27.6820 Y48.1008
G01 X27.6550 Y47.6978
G01 X27.5387 Y47.5453
G01 X27.3601 Y47.4686
G00 Z2.0000
G00 X26.7653 Y48.3358
G01 F60.00
G01 Z-0.2500
G01 F120.00
G01 X26.7189 Y48.6636
G01 X26.8622 Y49.0216
G01 X27.1555 Y49.0872
G01 X27.2374 Y48.8039
G01 X27.1986 Y48.5431
G01 X27.0246 Y48.3994
G01 X26.7653 Y48.3358
G00 Z2.0000
G00 X26.4596 Y48.0747
G01 F60.00
G01 Z-0.2500
G01 F120.00
G01 X26.2976 Y48.0507
G01 X26.2744 Y48.3882
G01 X26.3005 Y48.7076
G01 X26.3916 Y48.8311
G01 X26.6009 Y48.8403
G01 X26.6448 Y48.5176
G01 X26.6123 Y48.2071
G01 X26.4596 Y48.0747
G00 Z2.0000
G00 X25.6414 Y47.6329
G01 F60.00
G01 Z-0.2500
G01 F120.00
G01 X25.5851 Y48.0022
G01 X25.5841 Y48.3062
G01 X25.7080 Y48.4522
G01 X26.0451 Y48.6012
G01 X26.1437 Y48.3339
G01 X26.1498 Y47.9501
G01 X25.8992 Y47.7489
G01 X25.6414 Y47.6329
G00 Z2.0000
G00 X24.9014 Y47.2463
G01 F60.00
G01 Z-0.2500
G01 F120.00
G01 X24.8669 Y47.6378
G01 X24.9016 Y47.9866
G01 X25.0821 Y48.1563
G01 X25.3278 Y48.2704
G01 X25.4356 Y48.1943
G01 X25.4595 Y47.8897
G01 X25.4228 Y47.5337
G01 X25.1977 Y47.3712
G01 X24.9014 Y47.2463
G00 Z2.0000
G00 X22.8072 Y46.0899
G01 F60.00
G01 Z-0.2500
G01 F120.00
G01 X22.4964 Y45.9045
G01 X22.4964 Y46.8754
G01 X23.6261 Y47.4312
G01 X23.9831 Y47.6063
G01 X24.2957 Y47.7588
G01 X24.5447 Y47.8794
G01 X24.7106 Y47.9585
G01 X24.7743 Y47.9870
G01 X24.7928 Y47.5812
G01 X24.7539 Y47.2087
G01 X24.4965 Y47.0241
G01 X24.2002 Y46.8729
G01 X24.2002 Y47.2492
G01 X24.1261 Y47.5797
G01 X24.0738 Y47.4330
G01 X24.0520 Y47.1446
G01 X24.0151 Y46.7925
G01 X23.7903 Y46.6304
G01 X23.4939 Y46.5055
G01 X23.4594 Y46.8803
G01 X23.3766 Y47.2039
G01 X23.3384 Y46.8274
G01 X23.3530 Y46.6048
G01 X23.2959 Y46.4445
G01 X23.1272 Y46.2912
G01 X22.8072 Y46.0899
G00 Z2.0000
G00 X21.1815 Y47.5989
G01 F60.00
G01 Z-0.2500
G01 F120.00
G01 X20.8460 Y47.6111
G01 X20.8405 Y47.7500
G01 X21.1637 Y48.0478
G01 X21.2758 Y48.1334
G01 X21.3986 Y48.2206
G01 X21.5319 Y48.3093
G01 X21.6755 Y48.3993
G01 X21.8291 Y48.4905
G01 X21.9924 Y48.5829
G01 X22.1652 Y48.6764
G01 X22.3472 Y48.7709
G01 X22.5381 Y48.8662
G01 X22.7377 Y48.9624
G01 X22.9458 Y49.0592
G01 X23.1620 Y49.1567
G01 X23.3861 Y49.2547
G01 X23.6179 Y49.3531
G01 X23.8571 Y49.4518
G01 X24.1033 Y49.5508
G01 X24.3565 Y49.6499
G01 X24.6162 Y49.7491
G01 X24.8824 Y49.8482
G01 X25.1545 Y49.9472
G01 X25.4326 Y50.0460
G01 X25.7161 Y50.1445
G01 X26.0050 Y50.2426
G01 X26.2990 Y50.3401
G01 X26.5977 Y50.4371
G01 X26.9009 Y50.5334
G01 X27.2084 Y50.6289
G01 X27.5199 Y50.7236
G01 X27.8352 Y50.8173
G01 X28.1539 Y50.9099
G01 X28.4758 Y51.0014
G01 X28.8007 Y51.0916
G01 X29.1284 Y51.1805
G01 X29.4584 Y51.2680
G01 X29.7907 Y51.3540
G01 X30.1248 Y51.4383
G01 X30.4606 Y51.5210
G01 X30.7979 Y51.6019
G01 X31.1362 Y51.6808
G01 X31.4755 Y51.7578
G01 X31.8153 Y51.8327
G01 X32.1031 Y51.9042
G01 X32.3725 Y51.9871
G01 X32.5948 Y52.0718
G01 X32.7413 Y52.1484
G01 X32.8699 Y52.2406
G01 X33.0339 Y52.3619
G01 X33.2293 Y52.5089
G01 X33.4521 Y52.6785
G01 X33.6981 Y52.8674
G01 X33.9633 Y53.0724
G01 X34.2435 Y53.2902
G01 X34.5346 Y53.5176
G01 X34.8327 Y53.7514
G01 X35.1335 Y53.9883
G01 X35.4331 Y54.2251
G01 X35.7273 Y54.4585
G01 X36.0120 Y54.6854
G01 X36.2831 Y54.9024
G01 X36.5366 Y55.1064
G01 X36.7684 Y55.2941
G01 X36.9744 Y55.4622
G01 X37.1504 Y55.6076
G01 X37.2925 Y55.7269
G01 X37.3965 Y55.8171
G01 X37.4583 Y55.8747
G01 X37.4739 Y55.8966
G01 X37.4400 Y55.9038
G01 X37.3985 Y55.8998
G01 X37.3416 Y55.8789
G01 X37.2613 Y55.8354
G01 X37.1497 Y55.7636
G01 X36.9991 Y55.6579
G01 X36.8014 Y55.5126
G01 X36.5488 Y55.3219
G01 X36.2334 Y55.0803
G01 X35.8474 Y54.7820
G01 X35.3828 Y54.4213
G01 X34.8318 Y53.9926
G01 X34.4332 Y53.6835
G01 X34.0674 Y53.4023
G01 X33.7347 Y53.1492
G01 X33.4351 Y52.9242
G01 X33.1688 Y52.7274
G01 X32.9358 Y52.5590
G01 X32.7363 Y52.4189
G01 X32.5705 Y52.3074
G01 X32.4385 Y52.2244
G01 X32.3403 Y52.1701
G01 X32.2761 Y52.1445
G01 X31.8723 Y52.0488
G01 X31.4792 Y51.9546
G01 X31.0967 Y51.8618
G01 X30.7245 Y51.7705
G01 X30.3623 Y51.6806
G01 X30.0099 Y51.5919
G01 X29.6671 Y51.5044
G01 X29.3337 Y51.4180
G01 X29.0093 Y51.3327
G01 X28.6938 Y51.2484
G01 X28.3868 Y51.1649
G01 X28.0883 Y51.0822
G01 X27.7978 Y51.0003
G01 X27.5152 Y50.9191
G01 X27.2402 Y50.8385
G01 X26.9727 Y50.7583
G01 X26.7122 Y50.6787
G01 X26.4587 Y50.5993
G01 X26.2118 Y50.5203
G01 X25.9713 Y50.4415
G01 X25.7370 Y50.3629
G01 X25.5087 Y50.2843
G01 X25.2860 Y50.2057
G01 X25.0688 Y50.1270
G01 X24.8568 Y50.0482
G01 X24.6497 Y49.9691
G01 X24.4473 Y49.8897
G01 X24.2495 Y49.8100
G01 X24.0558 Y49.7298
G01 X23.8662 Y49.6490
G01 X23.6802 Y49.5677
G01 X23.4978 Y49.4856
G01 X23.3187 Y49.4029
G01 X23.1426 Y49.3192
G01 X22.7788 Y49.1578
G01 X22.6091 Y49.1091
G01 X22.6143 Y49.1275
G01 X22.6506 Y49.1670
G01 X22.7220 Y49.2306
G01 X22.8325 Y49.3214
G01 X22.9862 Y49.4425
G01 X23.1871 Y49.5970
G01 X23.4391 Y49.7880
G01 X23.7463 Y50.0185
G01 X24.1127 Y50.2917
G01 X24.5424 Y50.6107
G01 X25.0394 Y50.9785
G01 X25.3637 Y51.2180
G01 X25.6499 Y51.4278
G01 X25.9039 Y51.6115
G01 X26.1320 Y51.7724
G01 X26.3402 Y51.9140
G01 X26.5347 Y52.0399
G01 X26.7217 Y52.1533
G01 X26.9073 Y52.2579
G01 X27.0976 Y52.3570
G01 X27.2987 Y52.4541
G01 X27.5168 Y52.5528
G01 X27.7581 Y52.6563
G01 X28.0286 Y52.7682
G01 X28.3345 Y52.8920
G01 X28.6820 Y53.0311
G01 X29.0799 Y53.1896
G01 X29.4705 Y53.3443
G01 X29.8536 Y53.4951
G01 X30.2292 Y53.6420
G01 X30.5971 Y53.7850
G01 X30.9573 Y53.9241
G01 X31.3097 Y54.0591
G01 X31.6542 Y54.1902
G01 X31.9907 Y54.3172
G01 X32.3191 Y54.4401
G01 X32.6394 Y54.5589
G01 X32.9514 Y54.6736
G01 X33.2551 Y54.7841
G01 X33.5504 Y54.8904
G01 X33.8371 Y54.9925
G01 X34.1153 Y55.0903
G01 X34.3848 Y55.1839
G01 X34.6455 Y55.2731
G01 X34.8973 Y55.3580
G01 X35.1402 Y55.4386
G01 X35.3741 Y55.5147
G01 X35.5988 Y55.5863
G01 X35.8144 Y55.6536
G01 X36.0206 Y55.7163
G01 X36.2175 Y55.7745
G01 X36.4049 Y55.8281
G01 X36.5828 Y55.8772
G01 X36.7510 Y55.9216
G01 X36.9094 Y55.9614
G01 X37.0581 Y55.9965
G01 X37.1969 Y56.0269
G01 X37.3256 Y56.0526
G01 X37.4443 Y56.0735
G01 X37.5528 Y56.0896
G01 X37.8306 Y56.1264
G01 X37.8306 Y55.8471
G01 X37.8187 Y55.7064
G01 X37.7601 Y55.5718
G01 X37.6204 Y55.4014
G01 X37.3652 Y55.1533
G01 X36.9602 Y54.7856
G01 X36.7113 Y54.5628
G01 X36.4542 Y54.3345
G01 X36.1913 Y54.1026
G01 X35.9251 Y53.8693
G01 X35.6580 Y53.6367
G01 X35.3925 Y53.4067
G01 X35.1311 Y53.1816
G01 X34.8761 Y52.9634
G01 X34.6300 Y52.7541
G01 X34.3953 Y52.5559
G01 X34.1744 Y52.3708
G01 X33.9698 Y52.2010
G01 X33.7838 Y52.0484
G01 X33.6191 Y51.9152
G01 X33.4780 Y51.8035
G01 X33.3629 Y51.7153
G01 X33.2763 Y51.6527
G01 X33.1682 Y51.5838
G01 X33.0478 Y51.5194
G01 X32.9046 Y51.4562
G01 X32.7284 Y51.3908
G01 X32.5088 Y51.3199
G01 X32.2355 Y51.2402
G01 X31.8981 Y51.1483
G01 X31.4864 Y51.0409
G01 X30.6577 Y50.8304
G01 X30.3336 Y50.7470
G01 X30.0172 Y50.6645
G01 X29.7081 Y50.5826
G01 X29.4060 Y50.5014
G01 X29.1106 Y50.4206
G01 X28.8214 Y50.3402
G01 X28.5382 Y50.2600
G01 X28.2606 Y50.1799
G01 X27.9882 Y50.0999
G01 X27.7208 Y50.0197
G01 X27.4579 Y49.9393
G01 X27.1992 Y49.8586
G01 X26.9444 Y49.7774
G01 X26.6931 Y49.6957
G01 X26.4450 Y49.6132
G01 X26.1997 Y49.5300
G01 X25.9569 Y49.4458
G01 X25.7163 Y49.3606
G01 X25.4774 Y49.2742
G01 X25.2400 Y49.1865
G01 X25.0036 Y49.0975
G01 X24.7681 Y49.0069
G01 X24.5329 Y48.9147
G01 X24.2978 Y48.8208
G01 X24.0623 Y48.7251
G01 X23.8263 Y48.6273
G01 X23.5892 Y48.5275
G01 X23.3509 Y48.4255
G01 X23.1108 Y48.3211
G01 X22.8688 Y48.2143
G01 X22.6243 Y48.1050
G01 X22.2179 Y47.9273
G01 X21.8769 Y47.7901
G01 X21.5948 Y47.6911
G01 X21.3652 Y47.6282
G01 X21.1815 Y47.5989
G00 Z2.0000
G00 X22.4964 Y42.0608
G01 F60.00
G01 Z-0.2500
G01 F120.00
G01 X22.4440 Y42.1883
G01 X22.4223 Y42.4964
G01 X22.4223 Y42.9320
G01 X22.8266 Y43.2372
G01 X23.1336 Y43.4528
G01 X23.3040 Y43.5424
G01 X23.4050 Y43.1905
G01 X23.4327 Y42.8387
G01 X23.4461 Y43.2586
G01 X23.4951 Y43.6384
G01 X23.7089 Y43.8327
G01 X24.0052 Y43.9869
G01 X24.0383 Y43.8616
G01 X24.0520 Y43.5602
G01 X24.0315 Y43.2323
G01 X23.9040 Y43.0426
G01 X23.5705 Y42.8439
G01 X23.2688 Y42.6625
G01 X22.9412 Y42.4395
G01 X22.6783 Y42.2396
G01 X22.5705 Y42.1277
G01 X22.4964 Y42.0608
G00 Z2.0000
G00 X22.4593 Y40.9497
G01 F60.00
G01 Z-0.2500
G01 F120.00
G01 X22.4334 Y41.0966
G01 X22.4232 Y41.4497
G01 X22.4241 Y41.9497
G01 X22.8243 Y42.2275
G01 X23.1305 Y42.4237
G01 X23.3049 Y42.5053
G01 X23.3634 Y42.3872
G01 X23.3853 Y42.0727
G01 X23.3853 Y41.6401
G01 X22.9408 Y41.2949
G01 X22.6159 Y41.0511
G01 X22.4593 Y40.9497
G00 Z2.0000
G00 X22.4593 Y40.9497
G01 F60.00
G01 Z-0.2500
G01 F120.00
G01 X22.4593 Y40.9497
G00 Z2.0000
G00 X22.4593 Y40.9497
G01 F60.00
G01 Z-0.2500
G01 F120.00
G01 X22.4593 Y40.9497
G00 Z2.0000
G00 X27.6361 Y39.7644
G01 F60.00
G01 Z-0.2500
G01 F120.00
G01 X27.2373 Y39.7644
G01 X27.2373 Y40.0484
G01 X27.2706 Y40.3656
G01 X27.2995 Y40.4784
G01 X27.3433 Y40.7424
G01 X27.3926 Y41.1002
G01 X27.4815 Y41.8016
G01 X27.9788 Y42.3021
G01 X28.1856 Y42.5177
G01 X28.3376 Y42.7049
G01 X28.4433 Y42.8894
G01 X28.5109 Y43.0970
G01 X28.5490 Y43.3536
G01 X28.5659 Y43.6848
G01 X28.5701 Y44.1165
G01 X28.5760 Y44.4969
G01 X28.5893 Y44.6573
G01 X28.6580 Y44.6619
G01 X29.1246 Y44.6896
G01 X31.0533 Y44.8006
G01 X32.0218 Y44.8580
G01 X32.5595 Y44.8910
G01 X32.7739 Y44.9045
G01 X33.7209 Y44.9678
G01 X33.9295 Y45.9404
G01 X33.9679 Y46.1164
G01 X34.0112 Y46.3103
G01 X34.0592 Y46.5207
G01 X34.1115 Y46.7464
G01 X34.1678 Y46.9859
G01 X34.2277 Y47.2380
G01 X34.2910 Y47.5014
G01 X34.3573 Y47.7748
G01 X34.4263 Y48.0568
G01 X34.4977 Y48.3462
G01 X34.5711 Y48.6416
G01 X34.6462 Y48.9417
G01 X34.7226 Y49.2452
G01 X34.8001 Y49.5508
G01 X34.8784 Y49.8571
G01 X34.9570 Y50.1630
G01 X35.0357 Y50.4670
G01 X35.1141 Y50.7678
G01 X35.1919 Y51.0642
G01 X35.2689 Y51.3547
G01 X35.3445 Y51.6382
G01 X35.4187 Y51.9133
G01 X35.5665 Y52.4497
G01 X35.6857 Y52.8583
G01 X35.7830 Y53.1572
G01 X35.8646 Y53.3649
G01 X35.9372 Y53.4997
G01 X36.0072 Y53.5800
G01 X36.1687 Y53.7192
G01 X36.4216 Y53.9415
G01 X36.7112 Y54.1988
G01 X37.0832 Y54.5185
G01 X37.2379 Y54.6262
G01 X37.2073 Y54.4900
G01 X37.1272 Y54.1745
G01 X37.0149 Y53.7481
G01 X36.8843 Y53.2549
G01 X36.8146 Y52.9892
G01 X36.7426 Y52.7127
G01 X36.5929 Y52.1335
G01 X36.5160 Y51.8337
G01 X36.3599 Y51.2213
G01 X36.2815 Y50.9115
G01 X36.1257 Y50.2925
G01 X35.9738 Y49.6840
G01 X35.9003 Y49.3874
G01 X35.7599 Y48.8170
G01 X35.6938 Y48.5461
G01 X35.5716 Y48.0404
G01 X35.5163 Y47.8086
G01 X35.3064 Y46.9155
G01 X35.2127 Y46.5371
G01 X35.1335 Y46.2454
G01 X35.0645 Y46.0264
G01 X35.0014 Y45.8661
G01 X34.9396 Y45.7507
G01 X34.8748 Y45.6662
G01 X34.7068 Y45.5047
G01 X34.4785 Y45.3149
G01 X34.2067 Y45.1081
G01 X33.9085 Y44.8955
G01 X33.6007 Y44.6880
G01 X33.3003 Y44.4968
G01 X33.0244 Y44.3330
G01 X32.7898 Y44.2078
G01 X32.6134 Y44.1323
G01 X32.5124 Y44.1175
G01 X32.4264 Y44.1247
G01 X32.2509 Y44.1230
G01 X32.0012 Y44.1135
G01 X31.6924 Y44.0974
G01 X31.3396 Y44.0758
G01 X30.9579 Y44.0498
G01 X30.5624 Y44.0207
G01 X30.1684 Y43.9896
G01 X29.7910 Y43.9576
G01 X29.4452 Y43.9259
G01 X29.1463 Y43.8956
G01 X28.9093 Y43.8680
G01 X28.7495 Y43.8441
G01 X28.6819 Y43.8251
G01 X28.9411 Y43.7946
G01 X29.1291 Y43.8157
G01 X29.3779 Y43.8400
G01 X29.6747 Y43.8663
G01 X30.0065 Y43.8938
G01 X30.3604 Y43.9216
G01 X30.7235 Y43.9488
G01 X31.0829 Y43.9744
G01 X31.4256 Y43.9976
G01 X31.7388 Y44.0173
G01 X32.0095 Y44.0327
G01 X32.2248 Y44.0428
G01 X32.3718 Y44.0468
G01 X32.4376 Y44.0437
G01 X32.4477 Y44.0238
G01 X32.4155 Y43.9858
G01 X32.3428 Y43.9306
G01 X32.2312 Y43.8591
G01 X32.0824 Y43.7720
G01 X31.8981 Y43.6703
G01 X31.6799 Y43.5547
G01 X31.4295 Y43.4262
G01 X31.1486 Y43.2856
G01 X30.8389 Y43.1337
G01 X30.5021 Y42.9715
G01 X30.1398 Y42.7996
G01 X29.7537 Y42.6190
G01 X29.3455 Y42.4306
G01 X28.9169 Y42.2352
G01 X28.4695 Y42.0336
G01 X28.0349 Y41.8389
G01 X28.0867 Y41.3551
G01 X28.1027 Y41.1236
G01 X28.1081 Y40.8509
G01 X28.1027 Y40.5710
G01 X28.0866 Y40.3179
G01 X28.0348 Y39.7644
G01 X27.6361 Y39.7644
G00 Z2.0000
G00 X29.2055 Y39.9496
G01 F60.00
G01 Z-0.2500
G01 F120.00
G01 X29.3565 Y40.2645
G01 X29.4934 Y40.5604
G01 X29.6073 Y40.8174
G01 X29.6894 Y41.0155
G01 X29.7309 Y41.1349
G01 X29.7863 Y41.3571
G01 X29.8141 Y41.0994
G01 X29.8069 Y40.9330
G01 X29.7424 Y40.7124
G01 X29.6059 Y40.3982
G01 X29.3826 Y39.9512
G01 X29.1992 Y39.6000
G01 X29.0395 Y39.3019
G01 X28.9204 Y39.0886
G01 X28.8594 Y38.9915
G01 X28.7773 Y38.9362
G01 X28.8053 Y39.0708
G01 X28.9468 Y39.4053
G01 X29.2055 Y39.9496
G00 Z2.0000
G00 X29.5787 Y39.2829
G01 F60.00
G01 Z-0.2500
G01 F120.00
G01 X29.7540 Y39.5182
G01 X29.9144 Y39.7568
G01 X30.0592 Y39.9970
G01 X30.1876 Y40.2375
G01 X30.2989 Y40.4766
G01 X30.3923 Y40.7128
G01 X30.4671 Y40.9447
G01 X30.5224 Y41.1707
G01 X30.6206 Y41.5566
G01 X30.6917 Y41.6563
G01 X30.7190 Y41.4469
G01 X30.6965 Y41.2412
G01 X30.6338 Y40.9825
G01 X30.5379 Y40.6901
G01 X30.4157 Y40.3832
G01 X30.2743 Y40.0810
G01 X30.1206 Y39.8029
G01 X29.9428 Y39.5520
G01 X29.6935 Y39.2461
G01 X29.4380 Y38.9582
G01 X29.2412 Y38.7618
G01 X29.1682 Y38.7301
G01 X29.2909 Y38.9066
G01 X29.5787 Y39.2829
G00 Z2.0000
G00 X30.9114 Y39.2459
G01 F60.00
G01 Z-0.2500
G01 F120.00
G01 X31.0243 Y39.5122
G01 X31.1671 Y39.6604
G01 X31.3145 Y39.8498
G01 X31.4626 Y40.0726
G01 X31.6079 Y40.3213
G01 X31.7465 Y40.5882
G01 X31.8747 Y40.8658
G01 X31.9888 Y41.1463
G01 X32.0850 Y41.4221
G01 X32.1596 Y41.6857
G01 X32.2089 Y41.9294
G01 X32.2743 Y42.3136
G01 X32.3477 Y42.5754
G01 X32.4560 Y42.7614
G01 X32.6265 Y42.9181
G01 X32.8862 Y43.0919
G01 X33.0678 Y43.2081
G01 X33.2904 Y43.3529
G01 X33.5350 Y43.5137
G01 X33.7827 Y43.6782
G01 X34.0145 Y43.8339
G01 X34.3506 Y44.0542
G01 X34.5981 Y44.2037
G01 X34.7034 Y44.2498
G01 X34.6936 Y44.1633
G01 X34.6341 Y43.9649
G01 X34.5375 Y43.6881
G01 X34.4164 Y43.3664
G01 X34.2834 Y43.0336
G01 X34.1512 Y42.7230
G01 X34.0325 Y42.4683
G01 X33.9255 Y42.2660
G01 X33.7956 Y42.0394
G01 X33.6483 Y41.7969
G01 X33.4894 Y41.5469
G01 X33.3243 Y41.2978
G01 X33.1586 Y41.0582
G01 X32.9981 Y40.8365
G01 X32.8482 Y40.6411
G01 X32.7146 Y40.4805
G01 X32.5551 Y40.3246
G01 X32.3291 Y40.1365
G01 X32.0603 Y39.9324
G01 X31.7727 Y39.7288
G01 X31.4902 Y39.5420
G01 X31.2365 Y39.3884
G01 X31.0356 Y39.2842
G01 X30.9114 Y39.2459
G00 Z2.0000
G00 X33.5612 Y38.5133
G01 F60.00
G01 Z-0.2500
G01 F120.00
G01 X33.4712 Y38.6734
G01 X33.6637 Y38.8290
G01 X33.8186 Y38.9220
G01 X34.0185 Y39.0616
G01 X34.2517 Y39.2379
G01 X34.5065 Y39.4412
G01 X34.7710 Y39.6617
G01 X35.0335 Y39.8894
G01 X35.2823 Y40.1147
G01 X35.5054 Y40.3277
G01 X35.6913 Y40.5186
G01 X36.1817 Y41.0490
G01 X37.0617 Y41.0326
G01 X37.2386 Y41.0311
G01 X37.4171 Y41.0334
G01 X37.5997 Y41.0399
G01 X37.7886 Y41.0509
G01 X37.9861 Y41.0667
G01 X38.1945 Y41.0878
G01 X38.4162 Y41.1144
G01 X38.6534 Y41.1469
G01 X38.9085 Y41.1857
G01 X39.1837 Y41.2310
G01 X39.4814 Y41.2834
G01 X39.8038 Y41.3430
G01 X40.1533 Y41.4104
G01 X40.5321 Y41.4857
G01 X40.9427 Y41.5694
G01 X41.3871 Y41.6618
G01 X41.8679 Y41.7632
G01 X43.2637 Y42.0601
G01 X43.7835 Y42.1699
G01 X44.2015 Y42.2566
G01 X44.5308 Y42.3222
G01 X44.7839 Y42.3686
G01 X44.9739 Y42.3977
G01 X45.1135 Y42.4116
G01 X45.2156 Y42.4123
G01 X45.2929 Y42.4016
G01 X45.3583 Y42.3816
G01 X45.5047 Y42.3214
G01 X45.7567 Y42.1998
G01 X46.0045 Y42.0340
G01 X46.2332 Y41.8368
G01 X46.4278 Y41.6211
G01 X46.5736 Y41.3996
G01 X46.7168 Y41.2587
G01 X46.6686 Y41.4157
G01 X46.5334 Y41.6239
G01 X46.3351 Y41.8555
G01 X46.0975 Y42.0828
G01 X45.8444 Y42.2779
G01 X45.5654 Y42.5126
G01 X45.6565 Y42.5631
G01 X46.0801 Y42.4085
G01 X46.2896 Y42.2962
G01 X46.4816 Y42.1540
G01 X46.6766 Y41.9643
G01 X46.8949 Y41.7096
G01 X47.1053 Y41.4378
G01 X47.2554 Y41.2222
G01 X47.3127 Y41.1096
G01 X47.1090 Y40.9774
G01 X46.9587 Y40.9253
G01 X46.7448 Y40.8300
G01 X46.4862 Y40.7014
G01 X46.2016 Y40.5496
G01 X45.9098 Y40.3846
G01 X45.6295 Y40.2163
G01 X45.3795 Y40.0549
G01 X45.1131 Y39.9066
G01 X44.7709 Y39.7557
G01 X44.4260 Y39.6291
G01 X44.1519 Y39.5537
G01 X44.0219 Y39.5565
G01 X43.8445 Y39.8172
G01 X43.6623 Y40.0699
G01 X43.4823 Y40.3056
G01 X43.3117 Y40.5152
G01 X43.1578 Y40.6894
G01 X43.0277 Y40.8193
G01 X42.7294 Y41.0888
G01 X42.1135 Y40.9017
G01 X41.7682 Y40.7956
G01 X41.4585 Y40.6977
G01 X41.1784 Y40.6056
G01 X40.9218 Y40.5171
G01 X40.6827 Y40.4299
G01 X40.4550 Y40.3418
G01 X40.2328 Y40.2505
G01 X40.0100 Y40.1537
G01 X39.7806 Y40.0493
G01 X39.5386 Y39.9348
G01 X38.6908 Y39.5277
G01 X38.2052 Y39.7333
G01 X37.8179 Y39.8922
G01 X37.4656 Y40.0265
G01 X37.1540 Y40.1344
G01 X36.8887 Y40.2140
G01 X36.6752 Y40.2635
G01 X36.5192 Y40.2810
G01 X36.3670 Y40.2686
G01 X36.1994 Y40.2278
G01 X36.0139 Y40.1573
G01 X35.8079 Y40.0554
G01 X35.5791 Y39.9209
G01 X35.3247 Y39.7520
G01 X35.0423 Y39.5475
G01 X34.7293 Y39.3057
G01 X34.3833 Y39.0252
G01 X34.0264 Y38.7378
G01 X33.7891 Y38.5683
G01 X33.6434 Y38.4993
G01 X33.5612 Y38.5133
G00 Z2.0000
G00 X34.2718 Y37.2574
G01 F60.00
G01 Z-0.2500
G01 F120.00
G01 X34.0411 Y37.7418
G01 X33.9475 Y37.9908
G01 X33.9586 Y38.0900
G01 X34.0481 Y38.1041
G01 X34.2703 Y38.1163
G01 X34.5996 Y38.1260
G01 X35.0105 Y38.1324
G01 X35.4775 Y38.1347
G01 X36.1929 Y38.1333
G01 X36.6259 Y38.1244
G01 X36.8438 Y38.1006
G01 X36.9135 Y38.0545
G01 X36.9022 Y37.9788
G01 X37.0639 Y37.9636
G01 X37.2491 Y38.0514
G01 X37.5220 Y38.0847
G01 X37.9973 Y38.0774
G01 X38.3611 Y38.0560
G01 X38.6206 Y38.0258
G01 X38.7196 Y37.9934
G01 X38.6561 Y37.8978
G01 X38.4898 Y37.7018
G01 X38.2566 Y37.4479
G01 X37.7936 Y36.9594
G01 X36.2668 Y36.9190
G01 X35.8578 Y36.9067
G01 X35.4815 Y36.8924
G01 X35.1536 Y36.8771
G01 X34.8903 Y36.8615
G01 X34.7075 Y36.8466
G01 X34.6213 Y36.8331
G01 X34.4784 Y36.8990
G01 X34.2718 Y37.2574
G00 Z2.0000
G00 X34.6733 Y36.1346
G01 F60.00
G01 Z-0.2500
G01 F120.00
G01 X34.5795 Y36.4814
G01 X34.6072 Y36.6569
G01 X34.8137 Y36.7195
G01 X35.2564 Y36.7275
G01 X35.5158 Y36.7301
G01 X35.8243 Y36.7372
G01 X36.1565 Y36.7478
G01 X36.4864 Y36.7613
G01 X36.7883 Y36.7767
G01 X37.6350 Y36.8254
G01 X37.3894 Y36.4834
G01 X37.2184 Y36.2489
G01 X37.0768 Y36.0811
G01 X36.9358 Y35.9682
G01 X36.7667 Y35.8983
G01 X36.5405 Y35.8595
G01 X36.2285 Y35.8399
G01 X35.8019 Y35.8276
G01 X34.7732 Y35.8012
G01 X34.6733 Y36.1346
G00 Z2.0000
G00 X34.9769 Y34.5211
G01 F60.00
G01 Z-0.2500
G01 F120.00
G01 X34.9483 Y34.6919
G01 X34.9059 Y35.0734
G01 X34.8536 Y35.6049
G01 X35.1754 Y35.6443
G01 X35.4964 Y35.6772
G01 X35.8411 Y35.7024
G01 X36.1742 Y35.7184
G01 X36.4604 Y35.7242
G01 X36.6642 Y35.7184
G01 X36.7505 Y35.6998
G01 X36.6801 Y35.5124
G01 X36.4671 Y35.1327
G01 X36.1525 Y34.6160
G01 X35.5740 Y34.5581
G01 X35.1600 Y34.5234
G01 X34.9769 Y34.5211
G00 Z2.0000
G00 X34.6912 Y31.6298
G01 F60.00
G01 Z-0.2500
G01 F120.00
G01 X34.4335 Y31.6669
G01 X34.4911 Y31.8525
G01 X34.6150 Y32.2146
G01 X34.7060 Y32.5016
G01 X34.7849 Y32.8068
G01 X34.8499 Y33.1192
G01 X34.8989 Y33.4281
G01 X34.9300 Y33.7226
G01 X34.9410 Y33.9917
G01 X34.9416 Y34.3304
G01 X35.4769 Y34.4132
G01 X35.8611 Y34.4656
G01 X36.0331 Y34.4751
G01 X35.9788 Y34.3100
G01 X35.7286 Y33.7356
G01 X35.6196 Y33.4686
G01 X35.5010 Y33.1650
G01 X35.3818 Y32.8482
G01 X35.2714 Y32.5418
G01 X34.9593 Y31.6528
G01 X34.6912 Y31.6298
G00 Z2.0000
G00 X34.0842 Y30.2683
G01 F60.00
G01 Z-0.2500
G01 F120.00
G01 X33.7180 Y30.1861
G01 X33.5533 Y30.1644
G01 X33.6746 Y30.3670
G01 X33.7827 Y30.5201
G01 X33.9289 Y30.7473
G01 X34.0816 Y30.9993
G01 X34.2664 Y31.2873
G01 X34.4158 Y31.4312
G01 X34.5882 Y31.4873
G01 X34.8609 Y31.4963
G01 X34.8547 Y31.3483
G01 X34.7986 Y31.0448
G01 X34.7209 Y30.7191
G01 X34.6500 Y30.5046
G01 X34.4606 Y30.3894
G01 X34.0842 Y30.2683
G00 Z2.0000
G00 X31.1636 Y32.0973
G01 F60.00
G01 Z-0.2500
G01 F120.00
G01 X31.2377 Y32.0276
G01 X31.1636 Y31.9121
G01 X31.0895 Y31.9818
G01 X31.1636 Y32.0973
G00 Z2.0000
G00 X30.9341 Y31.8244
G01 F60.00
G01 Z-0.2500
G01 F120.00
G01 X30.8001 Y32.0704
G01 X30.9367 Y32.3669
G01 X31.2095 Y32.4627
G01 X31.4335 Y32.2156
G01 X31.2839 Y31.9217
G01 X31.0851 Y31.7538
G01 X30.9341 Y31.8244
G00 Z2.0000
G00 X30.7561 Y34.5048
G01 F60.00
G01 Z-0.2500
G01 F120.00
G01 X30.8673 Y34.4308
G01 X30.7561 Y34.3567
G01 X30.6450 Y34.4308
G01 X30.7561 Y34.5048
G00 Z2.0000
G00 X28.8152 Y35.6609
G01 F60.00
G01 Z-0.2500
G01 F120.00
G01 X28.8152 Y35.6609
G00 Z2.0000
G00 X28.8152 Y35.6609
G01 F60.00
G01 Z-0.2500
G01 F120.00
G01 X28.7268 Y35.8968
G01 X28.8757 Y36.0878
G01 X29.1081 Y36.1662
G01 X29.2809 Y36.0719
G01 X29.3487 Y35.8298
G01 X29.1301 Y35.5541
G01 X28.8152 Y35.6609
G00 Z2.0000
G00 X29.0644 Y36.0049
G01 F60.00
G01 Z-0.2500
G01 F120.00
G01 X29.0644 Y35.8197
G01 X29.0270 Y35.9123
G01 X29.0644 Y36.0049
G00 Z2.0000
G00 X28.6634 Y36.1480
G01 F60.00
G01 Z-0.2500
G01 F120.00
G01 X28.8439 Y36.2765
G01 X29.0780 Y36.3091
G01 X29.3230 Y36.2398
G01 X29.5140 Y36.0356
G01 X29.5197 Y35.7552
G01 X29.3388 Y35.4575
G01 X29.1437 Y35.2539
G01 X28.8586 Y35.4905
G01 X28.6410 Y35.7247
G01 X28.5765 Y35.9419
G01 X28.6634 Y36.1480
G00 Z2.0000
G00 X28.1766 Y38.0255
G01 F60.00
G01 Z-0.2500
G01 F120.00
G01 X27.8123 Y37.8908
G01 X27.6456 Y37.8499
G01 X27.7309 Y38.0237
G01 X27.8676 Y38.2358
G01 X28.0126 Y38.5099
G01 X28.1506 Y38.8121
G01 X28.2659 Y39.1086
G01 X28.3433 Y39.3656
G01 X28.3709 Y39.5249
G01 X28.3936 Y39.7398
G01 X28.4109 Y39.9973
G01 X28.4225 Y40.2842
G01 X28.4280 Y40.5875
G01 X28.4270 Y40.8941
G01 X28.4192 Y41.1911
G01 X28.4042 Y41.4652
G01 X28.4123 Y41.6523
G01 X28.5437 Y41.7757
G01 X28.9041 Y41.9345
G01 X29.1025 Y42.0185
G01 X29.3258 Y42.1173
G01 X29.5703 Y42.2292
G01 X29.8324 Y42.3522
G01 X30.1084 Y42.4846
G01 X30.3946 Y42.6244
G01 X30.6874 Y42.7698
G01 X30.9832 Y42.9189
G01 X31.2782 Y43.0699
G01 X31.5689 Y43.2208
G01 X31.8514 Y43.3700
G01 X32.1223 Y43.5154
G01 X32.3778 Y43.6553
G01 X32.6143 Y43.7877
G01 X32.8280 Y43.9108
G01 X33.0154 Y44.0228
G01 X33.3876 Y44.2517
G01 X33.7001 Y44.4474
G01 X33.9634 Y44.6174
G01 X34.1879 Y44.7694
G01 X34.3842 Y44.9108
G01 X34.5627 Y45.0492
G01 X34.7338 Y45.1921
G01 X34.9081 Y45.3471
G01 X35.0960 Y45.5218
G01 X35.5945 Y45.9920
G01 X35.7495 Y45.7744
G01 X35.8548 Y45.6057
G01 X35.8942 Y45.4343
G01 X35.8708 Y45.1751
G01 X35.7878 Y44.7431
G01 X35.7251 Y44.4622
G01 X35.6522 Y44.1808
G01 X35.5694 Y43.9001
G01 X35.4775 Y43.6215
G01 X35.3770 Y43.3463
G01 X35.2685 Y43.0759
G01 X35.1526 Y42.8116
G01 X35.0299 Y42.5548
G01 X34.9010 Y42.3069
G01 X34.7665 Y42.0691
G01 X34.6269 Y41.8428
G01 X34.4829 Y41.6293
G01 X34.3350 Y41.4301
G01 X34.2081 Y41.2864
G01 X34.0298 Y41.1105
G01 X33.8141 Y40.9140
G01 X33.5749 Y40.7086
G01 X33.3263 Y40.5060
G01 X33.0822 Y40.3180
G01 X32.8566 Y40.1561
G01 X32.6636 Y40.0323
G01 X32.7025 Y40.2505
G01 X32.8653 Y40.4369
G01 X33.0352 Y40.6472
G01 X33.2091 Y40.8771
G01 X33.3841 Y41.1220
G01 X33.5572 Y41.3775
G01 X33.7256 Y41.6391
G01 X33.8862 Y41.9023
G01 X34.0361 Y42.1627
G01 X34.1724 Y42.4158
G01 X34.2921 Y42.6571
G01 X34.4240 Y42.9561
G01 X34.5589 Y43.2947
G01 X34.6869 Y43.6433
G01 X34.7979 Y43.9721
G01 X34.8818 Y44.2515
G01 X34.9287 Y44.4517
G01 X34.9285 Y44.5431
G01 X34.8172 Y44.5048
G01 X34.5658 Y44.3640
G01 X34.2287 Y44.1511
G01 X33.5739 Y43.7197
G01 X32.9230 Y43.2918
G01 X32.5864 Y43.0586
G01 X32.3269 Y42.8560
G01 X32.2007 Y42.7278
G01 X32.1483 Y42.5437
G01 X32.1265 Y42.2958
G01 X32.1112 Y42.0988
G01 X32.0679 Y41.8636
G01 X32.0002 Y41.6020
G01 X31.9119 Y41.3255
G01 X31.8068 Y41.0458
G01 X31.6885 Y40.7747
G01 X31.5608 Y40.5238
G01 X31.4237 Y40.2976
G01 X31.2552 Y40.0531
G01 X31.0661 Y39.8028
G01 X30.8669 Y39.5592
G01 X30.6683 Y39.3349
G01 X30.4811 Y39.1425
G01 X30.3159 Y38.9946
G01 X30.1834 Y38.9037
G01 X30.0124 Y38.8651
G01 X30.2771 Y39.2459
G01 X30.4168 Y39.4412
G01 X30.5531 Y39.6593
G01 X30.6846 Y39.8966
G01 X30.8098 Y40.1496
G01 X30.9272 Y40.4148
G01 X31.0353 Y40.6888
G01 X31.1327 Y40.9679
G01 X31.2179 Y41.2488
G01 X31.2894 Y41.5278
G01 X31.3458 Y41.8016
G01 X31.3715 Y42.0287
G01 X31.3306 Y42.0143
G01 X31.2388 Y41.7866
G01 X31.1115 Y41.3739
G01 X31.0257 Y41.0987
G01 X30.9214 Y40.8114
G01 X30.8021 Y40.5194
G01 X30.6715 Y40.2298
G01 X30.5330 Y39.9499
G01 X30.3904 Y39.6870
G01 X30.2471 Y39.4482
G01 X30.1067 Y39.2409
G01 X29.9729 Y39.0722
G01 X29.8233 Y38.9201
G01 X29.6452 Y38.7731
G01 X29.4342 Y38.6286
G01 X29.1862 Y38.4840
G01 X28.8968 Y38.3370
G01 X28.5617 Y38.1850
G01 X28.1766 Y38.0255
G00 Z2.0000
G00 X27.1250 Y37.9608
G01 F60.00
G01 Z-0.2500
G01 F120.00
G01 X26.9124 Y37.7404
G01 X26.8234 Y37.7215
G01 X26.8403 Y37.9584
G01 X26.9451 Y38.5051
G01 X27.0527 Y39.0508
G01 X27.1303 Y39.3627
G01 X27.2174 Y39.5055
G01 X27.3532 Y39.5438
G01 X27.5772 Y39.5422
G01 X27.9224 Y39.5185
G01 X27.9363 Y39.3755
G01 X27.8499 Y39.1420
G01 X27.7323 Y38.8873
G01 X27.5923 Y38.6266
G01 X27.4386 Y38.3751
G01 X27.2799 Y38.1481
G01 X27.1250 Y37.9608
G00 Z2.0000
G00 X26.5522 Y36.0208
G01 F60.00
G01 Z-0.2500
G01 F120.00
G01 X26.4320 Y36.0711
G01 X26.4849 Y36.3399
G01 X26.5859 Y36.7210
G01 X26.6938 Y37.0713
G01 X26.7680 Y37.2478
G01 X26.8622 Y37.2979
G01 X27.0729 Y37.3905
G01 X27.3689 Y37.5124
G01 X27.9771 Y37.7517
G01 X28.2530 Y37.8627
G01 X28.5317 Y37.9773
G01 X28.7986 Y38.0894
G01 X29.0388 Y38.1928
G01 X29.2375 Y38.2814
G01 X29.4323 Y38.3701
G01 X29.9107 Y38.5865
G01 X30.4163 Y38.8138
G01 X30.6450 Y38.9161
G01 X30.9122 Y39.0383
G01 X31.1869 Y39.1692
G01 X31.4487 Y39.2988
G01 X31.6774 Y39.4170
G01 X31.8528 Y39.5138
G01 X32.1660 Y39.6932
G01 X32.3373 Y39.7533
G01 X32.3842 Y39.6591
G01 X32.3243 Y39.3755
G01 X32.1751 Y38.8673
G01 X32.0122 Y38.3199
G01 X31.1069 Y37.8677
G01 X30.8463 Y37.7390
G01 X30.5833 Y37.6122
G01 X30.3189 Y37.4876
G01 X30.0538 Y37.3655
G01 X29.7888 Y37.2463
G01 X29.5247 Y37.1304
G01 X29.2623 Y37.0179
G01 X29.0024 Y36.9094
G01 X28.7459 Y36.8050
G01 X28.4934 Y36.7053
G01 X28.2458 Y36.6104
G01 X28.0040 Y36.5208
G01 X27.7687 Y36.4367
G01 X27.5406 Y36.3586
G01 X27.1969 Y36.2430
G01 X26.8960 Y36.1408
G01 X26.6703 Y36.0630
G01 X26.5522 Y36.0208
G00 Z2.0000
G00 X26.0953 Y34.3276
G01 F60.00
G01 Z-0.2500
G01 F120.00
G01 X25.9886 Y34.4943
G01 X26.0368 Y34.7041
G01 X26.1373 Y35.0435
G01 X26.2507 Y35.3863
G01 X26.3372 Y35.6063
G01 X26.4465 Y35.6813
G01 X26.6830 Y35.7806
G01 X26.9953 Y35.8826
G01 X27.2000 Y35.9435
G01 X27.4049 Y36.0082
G01 X27.6119 Y36.0776
G01 X27.8228 Y36.1524
G01 X28.0395 Y36.2334
G01 X28.2639 Y36.3213
G01 X28.4976 Y36.4168
G01 X28.7426 Y36.5208
G01 X29.0007 Y36.6340
G01 X29.2737 Y36.7572
G01 X29.5634 Y36.8911
G01 X29.8718 Y37.0366
G01 X30.2005 Y37.1942
G01 X30.9699 Y37.5689
G01 X31.3497 Y37.7527
G01 X31.6751 Y37.9086
G01 X31.9302 Y38.0292
G01 X32.0996 Y38.1071
G01 X32.1673 Y38.1347
G01 X32.2306 Y38.0577
G01 X32.3410 Y37.8534
G01 X32.4806 Y37.5618
G01 X32.6316 Y37.2227
G01 X32.7764 Y36.8760
G01 X32.8971 Y36.5617
G01 X32.9759 Y36.3198
G01 X33.0345 Y36.0602
G01 X33.0819 Y35.7653
G01 X33.1174 Y35.4480
G01 X33.1403 Y35.1210
G01 X33.1500 Y34.7971
G01 X33.1458 Y34.4891
G01 X33.1271 Y34.2099
G01 X33.0933 Y33.9723
G01 X33.0324 Y33.7040
G01 X32.9532 Y33.4264
G01 X32.8575 Y33.1436
G01 X32.7469 Y32.8595
G01 X32.6230 Y32.5780
G01 X32.4875 Y32.3031
G01 X32.3419 Y32.0387
G01 X32.1881 Y31.7889
G01 X32.0208 Y31.5475
G01 X31.8295 Y31.2960
G01 X31.6239 Y31.0451
G01 X31.4134 Y30.8053
G01 X31.2079 Y30.5874
G01 X31.0170 Y30.4019
G01 X30.8503 Y30.2594
G01 X30.7175 Y30.1706
G01 X30.5980 Y30.1303
G01 X30.3782 Y30.0764
G01 X30.0811 Y30.0138
G01 X29.7297 Y29.9473
G01 X29.3470 Y29.8819
G01 X28.9133 Y29.8122
G01 X28.4923 Y29.7459
G01 X28.0940 Y29.6843
G01 X27.7285 Y29.6290
G01 X27.4058 Y29.5815
G01 X27.1357 Y29.5432
G01 X26.9283 Y29.5155
G01 X26.7936 Y29.5000
G01 X26.7416 Y29.4981
G01 X26.8027 Y29.8399
G01 X26.8461 Y30.0439
G01 X26.8847 Y30.2550
G01 X26.9190 Y30.4768
G01 X26.9491 Y30.7128
G01 X26.9756 Y30.9667
G01 X26.9985 Y31.2419
G01 X27.0184 Y31.5422
G01 X27.0356 Y31.8711
G01 X27.0503 Y32.2321
G01 X27.0629 Y32.6289
G01 X27.1030 Y34.0495
G01 X26.8776 Y34.1660
G01 X26.6538 Y34.2484
G01 X26.4323 Y34.2826
G01 X26.0953 Y34.3276
G00 Z2.0000
G00 X27.3184 Y34.1842
G01 F60.00
G01 Z-0.2500
G01 F120.00
G01 X27.5893 Y34.1355
G01 X27.6819 Y34.0732
G01 X27.4569 Y34.0465
G01 X27.1879 Y34.1547
G01 X27.3184 Y34.1842
G00 Z2.0000
G00 X27.8301 Y33.4012
G01 F60.00
G01 Z-0.2500
G01 F120.00
G01 X27.7965 Y33.5543
G01 X27.8125 Y33.6847
G01 X27.9130 Y33.8724
G01 X28.0798 Y34.0969
G01 X28.2946 Y34.3377
G01 X28.5391 Y34.5743
G01 X28.7951 Y34.7862
G01 X29.0443 Y34.9531
G01 X29.3158 Y35.0879
G01 X29.5697 Y35.1534
G01 X29.8887 Y35.1709
G01 X30.2580 Y35.1386
G01 X30.5727 Y35.0463
G01 X30.8262 Y34.9027
G01 X31.0123 Y34.7165
G01 X31.1245 Y34.4964
G01 X31.1564 Y34.2511
G01 X31.1017 Y33.9893
G01 X30.9541 Y33.7196
G01 X30.7611 Y33.4774
G01 X30.5548 Y33.2641
G01 X30.3351 Y33.0798
G01 X30.1023 Y32.9246
G01 X29.8564 Y32.7986
G01 X29.5976 Y32.7018
G01 X29.3260 Y32.6344
G01 X29.0417 Y32.5963
G01 X28.5775 Y32.5591
G01 X28.2038 Y32.9529
G01 X27.9398 Y33.2471
G01 X27.8301 Y33.4012
G00 Z2.0000
G00 X28.4746 Y33.3312
G01 F60.00
G01 Z-0.2500
G01 F120.00
G01 X28.7096 Y33.5128
G01 X28.9834 Y33.6765
G01 X29.1855 Y33.7923
G01 X29.4256 Y33.9507
G01 X29.6517 Y34.1174
G01 X30.0049 Y34.3807
G01 X30.2586 Y34.5311
G01 X30.4302 Y34.5789
G01 X30.3659 Y34.4890
G01 X30.0832 Y34.2727
G01 X29.8329 Y34.0937
G01 X29.5979 Y33.9188
G01 X29.4291 Y33.7857
G01 X29.1925 Y33.6244
G01 X28.9270 Y33.4905
G01 X28.6946 Y33.3663
G01 X28.5377 Y33.2285
G01 X28.3508 Y33.1090
G01 X28.4746 Y33.3312
G00 Z2.0000
G00 X28.1691 Y32.0149
G01 F60.00
G01 Z-0.2500
G01 F120.00
G01 X27.9330 Y31.7701
G01 X27.8330 Y31.6899
G01 X27.8997 Y31.8708
G01 X28.0609 Y32.1583
G01 X28.2385 Y32.4246
G01 X28.3542 Y32.5418
G01 X28.4653 Y32.4825
G01 X28.4033 Y32.3061
G01 X28.1691 Y32.0149
G00 Z2.0000
G00 X27.4200 Y31.4976
G01 F60.00
G01 Z-0.2500
G01 F120.00
G01 X27.5992 Y31.6814
G01 X27.8050 Y31.9584
G01 X27.9992 Y32.2679
G01 X28.1438 Y32.5491
G01 X28.2004 Y32.7411
G01 X28.0427 Y32.9933
G01 X27.8787 Y33.1756
G01 X27.7061 Y33.4158
G01 X27.5319 Y33.6338
G01 X27.3639 Y33.7629
G01 X27.3152 Y33.8334
G01 X27.5239 Y33.7455
G01 X27.7199 Y33.8011
G01 X27.9274 Y34.0881
G01 X28.1272 Y34.3339
G01 X28.3278 Y34.5474
G01 X28.5375 Y34.7376
G01 X28.7651 Y34.9136
G01 X29.0173 Y35.0841
G01 X29.2248 Y35.1902
G01 X29.4379 Y35.2520
G01 X29.7070 Y35.2896
G01 X30.0530 Y35.3104
G01 X30.3069 Y35.2677
G01 X30.6071 Y35.1382
G01 X30.8647 Y34.9922
G01 X31.0404 Y34.8385
G01 X31.1653 Y34.6497
G01 X31.2687 Y34.4123
G01 X31.3117 Y34.2448
G01 X31.2706 Y34.0608
G01 X31.1545 Y33.8317
G01 X30.9742 Y33.5753
G01 X30.7404 Y33.3092
G01 X30.4072 Y32.9654
G01 X30.6079 Y32.7401
G01 X30.8035 Y32.5686
G01 X30.9802 Y32.5931
G01 X31.1629 Y32.6241
G01 X31.3800 Y32.5089
G01 X31.5691 Y32.3097
G01 X31.5799 Y32.0845
G01 X31.4141 Y31.7960
G01 X31.2240 Y31.5919
G01 X31.0565 Y31.5630
G01 X30.8382 Y31.6969
G01 X30.6862 Y31.8678
G01 X30.6859 Y32.0916
G01 X30.6822 Y32.3303
G01 X30.5332 Y32.5661
G01 X30.3401 Y32.7547
G01 X30.1431 Y32.7791
G01 X29.8197 Y32.6545
G01 X29.5959 Y32.5763
G01 X29.3387 Y32.5252
G01 X29.0738 Y32.5064
G01 X28.7678 Y32.4920
G01 X28.5971 Y32.4001
G01 X28.4170 Y32.1529
G01 X28.2673 Y31.9683
G01 X28.0543 Y31.7552
G01 X27.8115 Y31.5413
G01 X27.5720 Y31.3542
G01 X27.3692 Y31.2217
G01 X27.2364 Y31.1713
G01 X27.1796 Y31.2623
G01 X27.4200 Y31.4976
G00 Z2.0000
G00 X27.1633 Y30.5787
G01 F60.00
G01 Z-0.2500
G01 F120.00
G01 X27.2363 Y30.9083
G01 X27.3195 Y31.0448
G01 X27.3182 Y30.7025
G01 X27.1576 Y30.4305
G01 X27.1633 Y30.5787
G00 Z2.0000
G00 X25.2539 Y30.3002
G01 F60.00
G01 Z-0.2500
G01 F120.00
G01 X25.2539 Y30.3002
G00 Z2.0000
G00 X25.2539 Y30.3002
G01 F60.00
G01 Z-0.2500
G01 F120.00
G01 X25.2539 Y30.3002
G00 Z2.0000
G00 X25.2539 Y30.3002
G01 F60.00
G01 Z-0.2500
G01 F120.00
G01 X25.1809 Y30.3685
G01 X25.1794 Y30.6051
G01 X25.2499 Y30.9491
G01 X25.3974 Y31.2766
G01 X25.4522 Y31.0195
G01 X25.4225 Y30.6565
G01 X25.3549 Y30.4113
G01 X25.2539 Y30.3002
G00 Z2.0000
G00 X26.5558 Y28.4767
G01 F60.00
G01 Z-0.2500
G01 F120.00
G01 X26.5893 Y28.8158
G01 X26.6292 Y28.8468
G01 X26.7056 Y28.8838
G01 X26.8197 Y28.9273
G01 X26.9725 Y28.9776
G01 X27.1650 Y29.0349
G01 X27.3985 Y29.0995
G01 X27.6739 Y29.1717
G01 X27.9924 Y29.2519
G01 X28.3551 Y29.3403
G01 X28.7631 Y29.4371
G01 X29.2173 Y29.5428
G01 X29.7191 Y29.6575
G01 X30.0826 Y29.7468
G01 X30.4152 Y29.8407
G01 X30.6801 Y29.9281
G01 X30.8405 Y29.9978
G01 X30.9717 Y30.0944
G01 X31.1396 Y30.2464
G01 X31.3340 Y30.4423
G01 X31.5446 Y30.6706
G01 X31.7611 Y30.9198
G01 X31.9731 Y31.1782
G01 X32.1703 Y31.4344
G01 X32.3425 Y31.6769
G01 X32.5079 Y31.9330
G01 X32.6561 Y32.1855
G01 X32.7876 Y32.4361
G01 X32.9029 Y32.6868
G01 X33.0026 Y32.9393
G01 X33.0873 Y33.1955
G01 X33.1574 Y33.4572
G01 X33.2136 Y33.7262
G01 X33.2563 Y34.0044
G01 X33.2862 Y34.2936
G01 X33.3037 Y34.5956
G01 X33.3095 Y34.9123
G01 X33.3057 Y35.2350
G01 X33.2932 Y35.5268
G01 X33.2701 Y35.7948
G01 X33.2349 Y36.0463
G01 X33.1857 Y36.2886
G01 X33.1210 Y36.5287
G01 X33.0389 Y36.7740
G01 X32.9378 Y37.0316
G01 X32.8160 Y37.3088
G01 X32.6718 Y37.6128
G01 X32.2577 Y38.4614
G01 X32.6033 Y39.8378
G01 X33.0667 Y40.1088
G01 X33.2927 Y40.2490
G01 X33.5109 Y40.4005
G01 X33.7211 Y40.5631
G01 X33.9232 Y40.7365
G01 X34.1171 Y40.9206
G01 X34.3025 Y41.1150
G01 X34.4794 Y41.3195
G01 X34.6476 Y41.5339
G01 X34.8070 Y41.7580
G01 X34.9573 Y41.9915
G01 X35.0985 Y42.2341
G01 X35.2304 Y42.4857
G01 X35.3529 Y42.7459
G01 X35.4658 Y43.0146
G01 X35.5689 Y43.2915
G01 X35.6622 Y43.5764
G01 X35.7455 Y43.8690
G01 X35.8186 Y44.1691
G01 X35.8813 Y44.4764
G01 X35.9337 Y44.7908
G01 X36.0026 Y45.1912
G01 X36.0742 Y45.5039
G01 X36.1331 Y45.6612
G01 X36.2374 Y45.7554
G01 X36.3413 Y45.7448
G01 X36.4721 Y45.5992
G01 X36.6565 Y45.2887
G01 X36.9218 Y44.7830
G01 X37.0620 Y44.4960
G01 X37.1323 Y44.2889
G01 X37.1482 Y44.0889
G01 X37.1251 Y43.8232
G01 X37.0862 Y43.5551
G01 X37.0320 Y43.2900
G01 X36.9626 Y43.0278
G01 X36.8779 Y42.7684
G01 X36.7780 Y42.5120
G01 X36.6628 Y42.2585
G01 X36.5323 Y42.0078
G01 X36.3865 Y41.7601
G01 X36.2255 Y41.5152
G01 X36.0492 Y41.2733
G01 X35.8577 Y41.0342
G01 X35.6509 Y40.7980
G01 X35.4288 Y40.5646
G01 X35.2440 Y40.3856
G01 X35.0331 Y40.1942
G01 X34.8036 Y39.9963
G01 X34.5629 Y39.7978
G01 X34.3185 Y39.6046
G01 X34.0779 Y39.4227
G01 X33.8486 Y39.2579
G01 X33.6381 Y39.1162
G01 X33.4537 Y39.0034
G01 X33.1842 Y38.7532
G01 X33.2206 Y38.5668
G01 X33.2975 Y38.4914
G01 X33.4153 Y38.3245
G01 X33.5618 Y38.0863
G01 X33.7252 Y37.7972
G01 X33.8935 Y37.4778
G01 X34.0547 Y37.1482
G01 X34.1748 Y36.8778
G01 X34.2832 Y36.6050
G01 X34.3798 Y36.3300
G01 X34.4645 Y36.0534
G01 X34.5375 Y35.7754
G01 X34.5986 Y35.4966
G01 X34.6479 Y35.2173
G01 X34.6853 Y34.9379
G01 X34.7109 Y34.6588
G01 X34.7245 Y34.3805
G01 X34.7263 Y34.1032
G01 X34.7162 Y33.8276
G01 X34.6942 Y33.5538
G01 X34.6603 Y33.2825
G01 X34.6145 Y33.0138
G01 X34.5566 Y32.7483
G01 X34.4869 Y32.4864
G01 X34.4052 Y32.2284
G01 X34.3115 Y31.9748
G01 X34.2058 Y31.7260
G01 X34.0867 Y31.4838
G01 X33.9437 Y31.2270
G01 X33.7824 Y30.9636
G01 X33.6082 Y30.7016
G01 X33.4267 Y30.4489
G01 X33.2433 Y30.2135
G01 X33.0636 Y30.0034
G01 X32.8931 Y29.8265
G01 X32.7113 Y29.6582
G01 X32.5537 Y29.5475
G01 X32.3623 Y29.4710
G01 X32.0788 Y29.4057
G01 X31.6451 Y29.3283
G01 X30.4570 Y29.1225
G01 X29.7202 Y28.9935
G01 X28.9649 Y28.8599
G01 X28.0558 Y28.6978
G01 X27.5986 Y28.6184
G01 X27.1948 Y28.5530
G01 X26.8696 Y28.5051
G01 X26.6482 Y28.4784
G01 X26.5558 Y28.4767
G00 Z2.0000
G00 X27.1346 Y27.4814
G01 F60.00
G01 Z-0.2500
G01 F120.00
G01 X27.0920 Y27.8058
G01 X27.1448 Y27.9341
G01 X27.3418 Y27.8835
G01 X27.7375 Y27.7185
G01 X28.2745 Y27.4719
G01 X28.2745 Y26.7987
G01 X27.9967 Y26.9168
G01 X27.7214 Y27.0325
G01 X27.4495 Y27.1448
G01 X27.2282 Y27.2797
G01 X27.1346 Y27.4814
G00 Z2.0000
G00 X27.6450 Y27.9172
G01 F60.00
G01 Z-0.2500
G01 F120.00
G01 X27.2603 Y28.1422
G01 X27.1746 Y28.2979
G01 X27.4040 Y28.3552
G01 X27.6611 Y28.3243
G01 X27.9411 Y28.2515
G01 X28.1872 Y28.1255
G01 X28.2606 Y27.9193
G01 X28.2052 Y27.6896
G01 X28.0082 Y27.7565
G01 X27.6450 Y27.9172
G00 Z2.0000
G00 X28.2636 Y28.3633
G01 F60.00
G01 Z-0.2500
G01 F120.00
G01 X28.1369 Y28.3495
G01 X28.1233 Y28.4656
G01 X28.2636 Y28.3633
G00 Z2.0000
G00 X28.8032 Y28.4589
G01 F60.00
G01 Z-0.2500
G01 F120.00
G01 X28.5633 Y28.4083
G01 X28.7848 Y28.5786
G01 X28.9741 Y28.5786
G01 X28.8032 Y28.4589
G00 Z2.0000
G00 X28.5781 Y27.3933
G01 F60.00
G01 Z-0.2500
G01 F120.00
G01 X28.4967 Y27.7671
G01 X28.4967 Y28.1409
G01 X29.1078 Y28.4314
G01 X29.3199 Y28.5278
G01 X29.5236 Y28.6084
G01 X29.7377 Y28.6784
G01 X29.9813 Y28.7426
G01 X30.2734 Y28.8062
G01 X30.6331 Y28.8742
G01 X31.4457 Y29.0147
G01 X31.7871 Y29.0759
G01 X32.0887 Y29.1323
G01 X32.3355 Y29.1811
G01 X32.5127 Y29.2193
G01 X32.6055 Y29.2443
G01 X32.8011 Y29.3805
G01 X33.0385 Y29.6194
G01 X33.1995 Y29.7906
G01 X33.3606 Y29.9038
G01 X33.5783 Y29.9885
G01 X33.9091 Y30.0744
G01 X34.3471 Y30.1636
G01 X34.5526 Y30.1774
G01 X34.5615 Y30.0287
G01 X34.5233 Y29.7281
G01 X34.4573 Y29.3772
G01 X34.3825 Y29.0778
G01 X34.3181 Y28.9316
G01 X34.0309 Y28.8760
G01 X33.8899 Y28.8685
G01 X33.7115 Y28.8480
G01 X33.5002 Y28.8156
G01 X33.2602 Y28.7724
G01 X32.9958 Y28.7194
G01 X32.7114 Y28.6578
G01 X32.4111 Y28.5887
G01 X32.0994 Y28.5132
G01 X31.7804 Y28.4323
G01 X31.4586 Y28.3471
G01 X31.1382 Y28.2587
G01 X30.8234 Y28.1683
G01 X30.5187 Y28.0768
G01 X30.2282 Y27.9855
G01 X29.9564 Y27.8953
G01 X29.7074 Y27.8074
G01 X29.4856 Y27.7228
G01 X29.0584 Y27.5569
G01 X28.7324 Y27.4385
G01 X28.5781 Y27.3933
G00 Z2.0000
G00 X28.5787 Y25.8377
G01 F60.00
G01 Z-0.2500
G01 F120.00
G01 X28.5465 Y26.2901
G01 X28.5202 Y26.6731
G01 X28.5025 Y26.9463
G01 X28.4961 Y27.0693
G01 X28.5406 Y27.1207
G01 X28.6654 Y27.1968
G01 X28.8589 Y27.2926
G01 X29.1092 Y27.4034
G01 X29.4044 Y27.5242
G01 X29.7326 Y27.6503
G01 X30.0821 Y27.7768
G01 X30.4410 Y27.8989
G01 X30.7975 Y28.0116
G01 X30.9900 Y28.0676
G01 X31.2096 Y28.1274
G01 X31.4527 Y28.1901
G01 X31.7159 Y28.2550
G01 X31.9956 Y28.3212
G01 X32.2882 Y28.3881
G01 X32.5903 Y28.4547
G01 X32.8983 Y28.5204
G01 X33.2087 Y28.5842
G01 X33.5179 Y28.6454
G01 X33.8224 Y28.7033
G01 X34.1187 Y28.7570
G01 X34.3700 Y28.8013
G01 X34.3204 Y28.3381
G01 X34.2975 Y28.1048
G01 X34.2719 Y27.8121
G01 X34.2468 Y27.4974
G01 X34.2251 Y27.1980
G01 X34.1795 Y26.5212
G01 X33.5419 Y26.3544
G01 X33.2232 Y26.2692
G01 X32.9071 Y26.1811
G01 X32.5946 Y26.0906
G01 X32.2864 Y25.9977
G01 X31.9835 Y25.9030
G01 X31.6868 Y25.8066
G01 X31.3970 Y25.7090
G01 X31.1150 Y25.6103
G01 X30.8417 Y25.5109
G01 X30.5779 Y25.4111
G01 X30.3246 Y25.3113
G01 X30.0825 Y25.2117
G01 X29.8526 Y25.1126
G01 X29.6356 Y25.0143
G01 X29.4325 Y24.9172
G01 X29.2442 Y24.8215
G01 X28.8930 Y24.6627
G01 X28.7156 Y24.6309
G01 X28.6881 Y24.7442
G01 X28.6532 Y25.0095
G01 X28.6152 Y25.3872
G01 X28.5787 Y25.8377
G00 Z2.0000
G00 X27.1324 Y25.6400
G01 F60.00
G01 Z-0.2500
G01 F120.00
G01 X27.1022 Y25.9097
G01 X27.0903 Y26.2676
G01 X27.0955 Y26.6319
G01 X27.1165 Y26.9211
G01 X27.1524 Y27.0533
G01 X27.3565 Y27.0176
G01 X27.7236 Y26.8763
G01 X28.0860 Y26.7021
G01 X28.2760 Y26.5673
G01 X28.3166 Y26.3917
G01 X28.3511 Y26.0764
G01 X28.3760 Y25.6979
G01 X28.3874 Y25.3327
G01 X28.3817 Y25.0575
G01 X28.3550 Y24.9487
G01 X28.2658 Y24.9706
G01 X28.0808 Y25.0395
G01 X27.7874 Y25.1603
G01 X27.3732 Y25.3381
G01 X27.1324 Y25.6400
G00 Z2.0000
G00 X27.2279 Y24.4775
G01 F60.00
G01 Z-0.2500
G01 F120.00
G01 X27.1778 Y24.7583
G01 X27.1739 Y25.0870
G01 X27.2188 Y25.2452
G01 X27.3789 Y25.1950
G01 X27.6755 Y25.0725
G01 X28.0134 Y24.9204
G01 X28.2976 Y24.7817
G01 X28.4328 Y24.6991
G01 X28.4965 Y24.4590
G01 X28.5508 Y24.0846
G01 X28.5532 Y23.8694
G01 X28.3936 Y23.8944
G01 X28.0708 Y24.0184
G01 X27.6954 Y24.1907
G01 X27.3776 Y24.3606
G01 X27.2279 Y24.4775
G00 Z2.0000
G00 X27.3753 Y23.3117
G01 F60.00
G01 Z-0.2500
G01 F120.00
G01 X27.3247 Y23.5600
G01 X27.2739 Y23.9850
G01 X27.2683 Y24.2067
G01 X27.4448 Y24.1427
G01 X27.7666 Y24.0090
G01 X28.1315 Y23.8501
G01 X28.4369 Y23.7106
G01 X28.5805 Y23.6352
G01 X28.6425 Y23.4708
G01 X28.6956 Y23.1712
G01 X28.7141 Y22.8437
G01 X28.6010 Y22.8317
G01 X28.4587 Y22.8859
G01 X28.2216 Y22.9743
G01 X27.9411 Y23.0775
G01 X27.5610 Y23.2246
G01 X27.3753 Y23.3117
G00 Z2.0000
G00 X27.6215 Y21.8745
G01 F60.00
G01 Z-0.2500
G01 F120.00
G01 X27.5112 Y22.3814
G01 X27.4408 Y22.7494
G01 X27.4083 Y22.9936
G01 X27.4116 Y23.1291
G01 X27.4487 Y23.1708
G01 X27.5640 Y23.1075
G01 X27.7610 Y23.0019
G01 X28.1796 Y22.8369
G01 X28.5916 Y22.6870
G01 X28.7730 Y22.6177
G01 X28.8301 Y22.4605
G01 X28.9207 Y22.1157
G01 X29.0152 Y21.7098
G01 X29.0842 Y21.3693
G01 X29.0983 Y21.2206
G01 X28.7930 Y21.1794
G01 X28.5228 Y21.1461
G01 X28.2374 Y21.0943
G01 X27.8563 Y21.1185
G01 X27.7930 Y21.2548
G01 X27.7086 Y21.5264
G01 X27.6215 Y21.8745
G00 Z2.0000
G00 X29.2303 Y21.7634
G01 F60.00
G01 Z-0.2500
G01 F120.00
G01 X29.1163 Y22.2048
G01 X29.1132 Y22.4037
G01 X29.2190 Y22.4812
G01 X29.4141 Y22.5538
G01 X29.7011 Y22.6632
G01 X29.8895 Y22.7309
G01 X30.1221 Y22.8070
G01 X30.3919 Y22.8896
G01 X30.6920 Y22.9770
G01 X31.0153 Y23.0674
G01 X31.3549 Y23.1591
G01 X31.7038 Y23.2503
G01 X32.0549 Y23.3394
G01 X32.4014 Y23.4245
G01 X32.7362 Y23.5039
G01 X33.0523 Y23.5759
G01 X33.3427 Y23.6388
G01 X33.6005 Y23.6907
G01 X33.8187 Y23.7299
G01 X33.9903 Y23.7548
G01 X34.1082 Y23.7634
G01 X34.1786 Y23.6664
G01 X34.2046 Y23.3746
G01 X34.2142 Y23.1098
G01 X34.2356 Y22.7897
G01 X34.2642 Y22.4834
G01 X34.2890 Y22.0513
G01 X34.1678 Y21.9486
G01 X34.0839 Y21.9340
G01 X33.9217 Y21.9086
G01 X33.6922 Y21.8741
G01 X33.4064 Y21.8320
G01 X32.7105 Y21.7312
G01 X31.9223 Y21.6188
G01 X31.1303 Y21.5074
G01 X30.4231 Y21.4095
G01 X30.1289 Y21.3695
G01 X29.8890 Y21.3375
G01 X29.7146 Y21.3152
G01 X29.6166 Y21.3041
G01 X29.3806 Y21.3456
G01 X29.2303 Y21.7634
G00 Z2.0000
G00 X28.9862 Y22.7382
G01 F60.00
G01 Z-0.2500
G01 F120.00
G01 X28.9079 Y23.1756
G01 X28.9216 Y23.3800
G01 X29.0360 Y23.4811
G01 X29.2117 Y23.5719
G01 X29.4301 Y23.6743
G01 X29.6833 Y23.7851
G01 X29.9637 Y23.9013
G01 X30.2634 Y24.0197
G01 X30.5747 Y24.1371
G01 X30.8897 Y24.2504
G01 X31.2006 Y24.3564
G01 X31.4921 Y24.4497
G01 X31.8146 Y24.5475
G01 X32.1561 Y24.6467
G01 X32.5048 Y24.7442
G01 X32.8487 Y24.8369
G01 X33.1759 Y24.9218
G01 X33.4745 Y24.9957
G01 X33.7327 Y25.0556
G01 X33.9385 Y25.0984
G01 X34.0799 Y25.1210
G01 X34.1452 Y25.1203
G01 X34.1894 Y24.9245
G01 X34.1994 Y24.5365
G01 X34.1781 Y24.1477
G01 X34.1282 Y23.9496
G01 X34.0026 Y23.9116
G01 X33.7431 Y23.8551
G01 X33.4059 Y23.7923
G01 X33.1614 Y23.7474
G01 X32.8992 Y23.6947
G01 X32.6227 Y23.6350
G01 X32.3349 Y23.5692
G01 X32.0391 Y23.4982
G01 X31.7382 Y23.4228
G01 X31.4355 Y23.3438
G01 X31.1342 Y23.2623
G01 X30.8373 Y23.1789
G01 X30.5480 Y23.0946
G01 X30.2695 Y23.0103
G01 X30.0048 Y22.9268
G01 X29.7572 Y22.8450
G01 X29.5298 Y22.7657
G01 X29.3257 Y22.6899
G01 X29.1480 Y22.6183
G01 X28.9862 Y22.7382
G00 Z2.0000
G00 X28.8337 Y23.6263
G01 F60.00
G01 Z-0.2500
G01 F120.00
G01 X28.7593 Y24.0282
G01 X28.7087 Y24.4041
G01 X29.4731 Y24.7601
G01 X29.7144 Y24.8707
G01 X29.9552 Y24.9776
G01 X30.1962 Y25.0809
G01 X30.4380 Y25.1810
G01 X30.6812 Y25.2780
G01 X30.9267 Y25.3722
G01 X31.1749 Y25.4639
G01 X31.4266 Y25.5533
G01 X31.6824 Y25.6406
G01 X31.9429 Y25.7261
G01 X32.2089 Y25.8100
G01 X32.4810 Y25.8926
G01 X32.7599 Y25.9741
G01 X33.3824 Y26.1526
G01 X33.7877 Y26.2574
G01 X34.0231 Y26.2849
G01 X34.1363 Y26.2315
G01 X34.1746 Y26.0937
G01 X34.1855 Y25.8679
G01 X34.1781 Y25.5100
G01 X34.1114 Y25.3424
G01 X34.0041 Y25.2972
G01 X33.7826 Y25.2292
G01 X33.4794 Y25.1476
G01 X33.1267 Y25.0615
G01 X32.8455 Y24.9944
G01 X32.5677 Y24.9244
G01 X32.2931 Y24.8517
G01 X32.0218 Y24.7762
G01 X31.7539 Y24.6979
G01 X31.4893 Y24.6169
G01 X31.2281 Y24.5331
G01 X30.9703 Y24.4465
G01 X30.7159 Y24.3572
G01 X30.4649 Y24.2652
G01 X30.2174 Y24.1704
G01 X29.9734 Y24.0728
G01 X29.7328 Y23.9726
G01 X29.2887 Y23.7886
G01 X28.9657 Y23.6641
G01 X28.8337 Y23.6263
G00 Z2.0000
G00 X29.0152 Y19.7927
G01 F60.00
G01 Z-0.2500
G01 F120.00
G01 X28.6105 Y20.1845
G01 X28.3493 Y20.4498
G01 X28.2086 Y20.6159
G01 X28.1650 Y20.7103
G01 X28.1955 Y20.7603
G01 X28.3300 Y20.7749
G01 X28.4468 Y20.7719
G01 X28.6997 Y20.7969
G01 X29.0340 Y20.8446
G01 X29.6824 Y20.9485
G01 X30.4785 Y20.1242
G01 X30.6809 Y19.9177
G01 X30.8883 Y19.7122
G01 X31.1001 Y19.5081
G01 X31.3157 Y19.3058
G01 X31.5346 Y19.1057
G01 X31.7562 Y18.9083
G01 X31.9800 Y18.7140
G01 X32.2055 Y18.5233
G01 X32.4321 Y18.3365
G01 X32.6592 Y18.1540
