(G-CODE GENERATED BY FLATCAM v8.991 - www.flatcam.org - Version Date: 2019/12/27)

(Name: 0)
(Type: G-code from Geometry)
(Units: MM)

(Created on Sunday, 16 July 2023 at 16:23)

(TOOL DIAMETER: 0.2804 mm)
(Feedrate: 120.0 mm/min)
(Feedrate_Z: 60.0 mm/min)
(Feedrate rapids 1500.0 mm/min)

(Z_Cut: -0.15 mm)
(DepthPerCut: 0.08 mm <=>2 passes)
(Z_Move: 2.0 mm)
(Z Toolchange: 15.0 mm)
(X,Y Toolchange: 0.0000, 0.0000 mm)
(Z Start: None mm)
(Z End: 5.0 mm)
(Steps per circle: 64)
(Preprocessor Geometry: default)

(X range:    3.0599 ...   70.8541  mm)
(Y range:    2.5519 ...   46.3431  mm)

(Spindle Speed: None RPM)
G21
G90
G94

(Acceleration settings)
M204 P144000 T144000

(Rapid speed)
G00 F2400.00

(Auto leveling map probing)
G29 L3 R71 F2 B47 N31 N20

(Acceleration settings)
M204 P36000 T36000

(Rapid speed)
G00 F1200.00

(Tool change)
M06

(Probing new tool)
G30

(Give chance for removing probing wires)
M06

(Zeroing Z-axis after probing)
G92 X0 Y0 Z0


G01 F120.00
G00 Z2.0000

M03
G00 X11.8974 Y10.8546
G01 F60.00
G01 Z-0.0800
G01 F120.00
G01 X11.8910 Y10.8573
G01 X11.8217 Y10.8820
G01 X11.8086 Y10.8860
G01 X11.7372 Y10.9039
G01 X11.7238 Y10.9066
G01 X11.6510 Y10.9174
G01 X11.6373 Y10.9187
G01 X11.5639 Y10.9223
G01 X11.5501 Y10.9223
G01 X11.4767 Y10.9187
G01 X11.4630 Y10.9174
G01 X11.3902 Y10.9066
G01 X11.3768 Y10.9039
G01 X11.3054 Y10.8860
G01 X11.2923 Y10.8820
G01 X11.2230 Y10.8573
G01 X11.2103 Y10.8520
G01 X11.1438 Y10.8206
G01 X11.1317 Y10.8141
G01 X11.0686 Y10.7763
G01 X11.0572 Y10.7686
G01 X10.9981 Y10.7248
G01 X10.9875 Y10.7161
G01 X10.9330 Y10.6667
G01 X10.9233 Y10.6570
G01 X10.8739 Y10.6025
G01 X10.8652 Y10.5919
G01 X10.8214 Y10.5328
G01 X10.8137 Y10.5214
G01 X10.7759 Y10.4583
G01 X10.7694 Y10.4462
G01 X10.7380 Y10.3797
G01 X10.7327 Y10.3670
G01 X10.7080 Y10.2977
G01 X10.7040 Y10.2846
G01 X10.6861 Y10.2132
G01 X10.6834 Y10.1998
G01 X10.6726 Y10.1270
G01 X10.6713 Y10.1133
G01 X10.6677 Y10.0399
G01 X10.6677 Y10.0261
G01 X10.6713 Y9.9527
G01 X10.6726 Y9.9390
G01 X10.6834 Y9.8662
G01 X10.6861 Y9.8528
G01 X10.7040 Y9.7814
G01 X10.7080 Y9.7683
G01 X10.7327 Y9.6990
G01 X10.7380 Y9.6863
G01 X10.7694 Y9.6198
G01 X10.7759 Y9.6077
G01 X10.8137 Y9.5446
G01 X10.8214 Y9.5332
G01 X10.8652 Y9.4741
G01 X10.8739 Y9.4635
G01 X10.9233 Y9.4090
G01 X10.9330 Y9.3993
G01 X10.9875 Y9.3499
G01 X10.9981 Y9.3412
G01 X11.0572 Y9.2974
G01 X11.0686 Y9.2897
G01 X11.1317 Y9.2519
G01 X11.1438 Y9.2454
G01 X11.2103 Y9.2140
G01 X11.2230 Y9.2087
G01 X11.2923 Y9.1840
G01 X11.3054 Y9.1800
G01 X11.3768 Y9.1621
G01 X11.3902 Y9.1594
G01 X11.4630 Y9.1486
G01 X11.4767 Y9.1473
G01 X11.5501 Y9.1437
G01 X11.5639 Y9.1437
G01 X11.6373 Y9.1473
G01 X11.6510 Y9.1486
G01 X11.7238 Y9.1594
G01 X11.7372 Y9.1621
G01 X11.8086 Y9.1800
G01 X11.8217 Y9.1840
G01 X11.8910 Y9.2087
G01 X11.9037 Y9.2140
G01 X11.9702 Y9.2454
G01 X11.9823 Y9.2519
G01 X12.0454 Y9.2897
G01 X12.0568 Y9.2974
G01 X12.1159 Y9.3412
G01 X12.1265 Y9.3499
G01 X12.1810 Y9.3993
G01 X12.1907 Y9.4090
G01 X12.2401 Y9.4635
G01 X12.2488 Y9.4741
G01 X12.2926 Y9.5332
G01 X12.3003 Y9.5446
G01 X12.3381 Y9.6077
G01 X12.3446 Y9.6198
G01 X12.3760 Y9.6863
G01 X12.3813 Y9.6990
G01 X12.4060 Y9.7683
G01 X12.4100 Y9.7814
G01 X12.4279 Y9.8528
G01 X12.4306 Y9.8662
G01 X12.4414 Y9.9390
G01 X12.4427 Y9.9527
G01 X12.4463 Y10.0261
G01 X12.4463 Y10.0399
G01 X12.4427 Y10.1133
G01 X12.4414 Y10.1270
G01 X12.4306 Y10.1998
G01 X12.4279 Y10.2132
G01 X12.4100 Y10.2846
G01 X12.4060 Y10.2977
G01 X12.3813 Y10.3670
G01 X12.3786 Y10.3734
G01 X21.4770 Y19.4717
G01 X34.2950 Y19.4717
G01 X34.2950 Y19.2349
G01 X34.2964 Y19.2035
G01 X34.2977 Y19.1898
G01 X34.3013 Y19.1655
G01 X34.3040 Y19.1521
G01 X34.3100 Y19.1283
G01 X34.3140 Y19.1151
G01 X34.3222 Y19.0920
G01 X34.3275 Y19.0793
G01 X34.3380 Y19.0571
G01 X34.3445 Y19.0450
G01 X34.3571 Y19.0239
G01 X34.3647 Y19.0125
G01 X34.3794 Y18.9928
G01 X34.3881 Y18.9821
G01 X34.4046 Y18.9640
G01 X34.4143 Y18.9542
G01 X34.4325 Y18.9378
G01 X34.4431 Y18.9290
G01 X34.4628 Y18.9144
G01 X34.4743 Y18.9068
G01 X34.4953 Y18.8942
G01 X34.5074 Y18.8877
G01 X34.5296 Y18.8772
G01 X34.5423 Y18.8719
G01 X34.5654 Y18.8637
G01 X34.5786 Y18.8597
G01 X34.6024 Y18.8537
G01 X34.6159 Y18.8510
G01 X34.6401 Y18.8474
G01 X34.6538 Y18.8461
G01 X34.6783 Y18.8449
G01 X34.6921 Y18.8449
G01 X34.7166 Y18.8461
G01 X34.7303 Y18.8474
G01 X34.7546 Y18.8510
G01 X34.7681 Y18.8537
G01 X34.7919 Y18.8597
G01 X34.8050 Y18.8637
G01 X34.8281 Y18.8719
G01 X34.8408 Y18.8772
G01 X34.8630 Y18.8877
G01 X34.8751 Y18.8942
G01 X34.8962 Y18.9068
G01 X34.9076 Y18.9144
G01 X34.9273 Y18.9290
G01 X34.9380 Y18.9378
G01 X34.9561 Y18.9542
G01 X34.9659 Y18.9640
G01 X34.9824 Y18.9821
G01 X34.9911 Y18.9928
G01 X35.0057 Y19.0125
G01 X35.0133 Y19.0239
G01 X35.0260 Y19.0450
G01 X35.0324 Y19.0571
G01 X35.0429 Y19.0793
G01 X35.0482 Y19.0920
G01 X35.0565 Y19.1151
G01 X35.0605 Y19.1283
G01 X35.0664 Y19.1521
G01 X35.0691 Y19.1655
G01 X35.0727 Y19.1898
G01 X35.0740 Y19.2035
G01 X35.0754 Y19.2349
G01 X35.0754 Y20.5349
G01 X35.0740 Y20.5663
G01 X35.0727 Y20.5800
G01 X35.0691 Y20.6042
G01 X35.0664 Y20.6177
G01 X35.0605 Y20.6415
G01 X35.0565 Y20.6547
G01 X35.0482 Y20.6778
G01 X35.0429 Y20.6905
G01 X35.0324 Y20.7127
G01 X35.0260 Y20.7248
G01 X35.0133 Y20.7459
G01 X35.0057 Y20.7573
G01 X34.9911 Y20.7770
G01 X34.9824 Y20.7876
G01 X34.9659 Y20.8058
G01 X34.9561 Y20.8155
G01 X34.9380 Y20.8320
G01 X34.9273 Y20.8408
G01 X34.9076 Y20.8554
G01 X34.8962 Y20.8630
G01 X34.8751 Y20.8756
G01 X34.8630 Y20.8821
G01 X34.8408 Y20.8926
G01 X34.8281 Y20.8979
G01 X34.8050 Y20.9061
G01 X34.7919 Y20.9101
G01 X34.7681 Y20.9161
G01 X34.7546 Y20.9188
G01 X34.7303 Y20.9224
G01 X34.7166 Y20.9237
G01 X34.6921 Y20.9249
G01 X34.6783 Y20.9249
G01 X34.6538 Y20.9237
G01 X34.6401 Y20.9224
G01 X34.6159 Y20.9188
G01 X34.6024 Y20.9161
G01 X34.5786 Y20.9101
G01 X34.5654 Y20.9061
G01 X34.5423 Y20.8979
G01 X34.5296 Y20.8926
G01 X34.5074 Y20.8821
G01 X34.4953 Y20.8756
G01 X34.4743 Y20.8630
G01 X34.4628 Y20.8554
G01 X34.4431 Y20.8408
G01 X34.4325 Y20.8320
G01 X34.4143 Y20.8155
G01 X34.4046 Y20.8058
G01 X34.3881 Y20.7876
G01 X34.3794 Y20.7770
G01 X34.3647 Y20.7573
G01 X34.3571 Y20.7459
G01 X34.3445 Y20.7248
G01 X34.3380 Y20.7127
G01 X34.3275 Y20.6905
G01 X34.3222 Y20.6778
G01 X34.3140 Y20.6547
G01 X34.3100 Y20.6415
G01 X34.3040 Y20.6177
G01 X34.3013 Y20.6042
G01 X34.2977 Y20.5800
G01 X34.2964 Y20.5663
G01 X34.2950 Y20.5349
G01 X34.2950 Y20.1523
G01 X21.3360 Y20.1523
G01 X21.3095 Y20.1512
G01 X21.2958 Y20.1498
G01 X21.2764 Y20.1469
G01 X21.2629 Y20.1443
G01 X21.2438 Y20.1395
G01 X21.2307 Y20.1355
G01 X21.2122 Y20.1289
G01 X21.1995 Y20.1236
G01 X21.1817 Y20.1152
G01 X21.1696 Y20.1087
G01 X21.1528 Y20.0986
G01 X21.1413 Y20.0910
G01 X21.1255 Y20.0793
G01 X21.1149 Y20.0706
G01 X21.0954 Y20.0526
G01 X11.8974 Y10.8546
G00 X11.8974 Y10.8546
G01 F60.00
G01 Z-0.1500
G01 F120.00
G01 X11.8910 Y10.8573
G01 X11.8217 Y10.8820
G01 X11.8086 Y10.8860
G01 X11.7372 Y10.9039
G01 X11.7238 Y10.9066
G01 X11.6510 Y10.9174
G01 X11.6373 Y10.9187
G01 X11.5639 Y10.9223
G01 X11.5501 Y10.9223
G01 X11.4767 Y10.9187
G01 X11.4630 Y10.9174
G01 X11.3902 Y10.9066
G01 X11.3768 Y10.9039
G01 X11.3054 Y10.8860
G01 X11.2923 Y10.8820
G01 X11.2230 Y10.8573
G01 X11.2103 Y10.8520
G01 X11.1438 Y10.8206
G01 X11.1317 Y10.8141
G01 X11.0686 Y10.7763
G01 X11.0572 Y10.7686
G01 X10.9981 Y10.7248
G01 X10.9875 Y10.7161
G01 X10.9330 Y10.6667
G01 X10.9233 Y10.6570
G01 X10.8739 Y10.6025
G01 X10.8652 Y10.5919
G01 X10.8214 Y10.5328
G01 X10.8137 Y10.5214
G01 X10.7759 Y10.4583
G01 X10.7694 Y10.4462
G01 X10.7380 Y10.3797
G01 X10.7327 Y10.3670
G01 X10.7080 Y10.2977
G01 X10.7040 Y10.2846
G01 X10.6861 Y10.2132
G01 X10.6834 Y10.1998
G01 X10.6726 Y10.1270
G01 X10.6713 Y10.1133
G01 X10.6677 Y10.0399
G01 X10.6677 Y10.0261
G01 X10.6713 Y9.9527
G01 X10.6726 Y9.9390
G01 X10.6834 Y9.8662
G01 X10.6861 Y9.8528
G01 X10.7040 Y9.7814
G01 X10.7080 Y9.7683
G01 X10.7327 Y9.6990
G01 X10.7380 Y9.6863
G01 X10.7694 Y9.6198
G01 X10.7759 Y9.6077
G01 X10.8137 Y9.5446
G01 X10.8214 Y9.5332
G01 X10.8652 Y9.4741
G01 X10.8739 Y9.4635
G01 X10.9233 Y9.4090
G01 X10.9330 Y9.3993
G01 X10.9875 Y9.3499
G01 X10.9981 Y9.3412
G01 X11.0572 Y9.2974
G01 X11.0686 Y9.2897
G01 X11.1317 Y9.2519
G01 X11.1438 Y9.2454
G01 X11.2103 Y9.2140
G01 X11.2230 Y9.2087
G01 X11.2923 Y9.1840
G01 X11.3054 Y9.1800
G01 X11.3768 Y9.1621
G01 X11.3902 Y9.1594
G01 X11.4630 Y9.1486
G01 X11.4767 Y9.1473
G01 X11.5501 Y9.1437
G01 X11.5639 Y9.1437
G01 X11.6373 Y9.1473
G01 X11.6510 Y9.1486
G01 X11.7238 Y9.1594
G01 X11.7372 Y9.1621
G01 X11.8086 Y9.1800
G01 X11.8217 Y9.1840
G01 X11.8910 Y9.2087
G01 X11.9037 Y9.2140
G01 X11.9702 Y9.2454
G01 X11.9823 Y9.2519
G01 X12.0454 Y9.2897
G01 X12.0568 Y9.2974
G01 X12.1159 Y9.3412
G01 X12.1265 Y9.3499
G01 X12.1810 Y9.3993
G01 X12.1907 Y9.4090
G01 X12.2401 Y9.4635
G01 X12.2488 Y9.4741
G01 X12.2926 Y9.5332
G01 X12.3003 Y9.5446
G01 X12.3381 Y9.6077
G01 X12.3446 Y9.6198
G01 X12.3760 Y9.6863
G01 X12.3813 Y9.6990
G01 X12.4060 Y9.7683
G01 X12.4100 Y9.7814
G01 X12.4279 Y9.8528
G01 X12.4306 Y9.8662
G01 X12.4414 Y9.9390
G01 X12.4427 Y9.9527
G01 X12.4463 Y10.0261
G01 X12.4463 Y10.0399
G01 X12.4427 Y10.1133
G01 X12.4414 Y10.1270
G01 X12.4306 Y10.1998
G01 X12.4279 Y10.2132
G01 X12.4100 Y10.2846
G01 X12.4060 Y10.2977
G01 X12.3813 Y10.3670
G01 X12.3786 Y10.3734
G01 X21.4770 Y19.4717
G01 X34.2950 Y19.4717
G01 X34.2950 Y19.2349
G01 X34.2964 Y19.2035
G01 X34.2977 Y19.1898
G01 X34.3013 Y19.1655
G01 X34.3040 Y19.1521
G01 X34.3100 Y19.1283
G01 X34.3140 Y19.1151
G01 X34.3222 Y19.0920
G01 X34.3275 Y19.0793
G01 X34.3380 Y19.0571
G01 X34.3445 Y19.0450
G01 X34.3571 Y19.0239
G01 X34.3647 Y19.0125
G01 X34.3794 Y18.9928
G01 X34.3881 Y18.9821
G01 X34.4046 Y18.9640
G01 X34.4143 Y18.9542
G01 X34.4325 Y18.9378
G01 X34.4431 Y18.9290
G01 X34.4628 Y18.9144
G01 X34.4743 Y18.9068
G01 X34.4953 Y18.8942
G01 X34.5074 Y18.8877
G01 X34.5296 Y18.8772
G01 X34.5423 Y18.8719
G01 X34.5654 Y18.8637
G01 X34.5786 Y18.8597
G01 X34.6024 Y18.8537
G01 X34.6159 Y18.8510
G01 X34.6401 Y18.8474
G01 X34.6538 Y18.8461
G01 X34.6783 Y18.8449
G01 X34.6921 Y18.8449
G01 X34.7166 Y18.8461
G01 X34.7303 Y18.8474
G01 X34.7546 Y18.8510
G01 X34.7681 Y18.8537
G01 X34.7919 Y18.8597
G01 X34.8050 Y18.8637
G01 X34.8281 Y18.8719
G01 X34.8408 Y18.8772
G01 X34.8630 Y18.8877
G01 X34.8751 Y18.8942
G01 X34.8962 Y18.9068
G01 X34.9076 Y18.9144
G01 X34.9273 Y18.9290
G01 X34.9380 Y18.9378
G01 X34.9561 Y18.9542
G01 X34.9659 Y18.9640
G01 X34.9824 Y18.9821
G01 X34.9911 Y18.9928
G01 X35.0057 Y19.0125
G01 X35.0133 Y19.0239
G01 X35.0260 Y19.0450
G01 X35.0324 Y19.0571
G01 X35.0429 Y19.0793
G01 X35.0482 Y19.0920
G01 X35.0565 Y19.1151
G01 X35.0605 Y19.1283
G01 X35.0664 Y19.1521
G01 X35.0691 Y19.1655
G01 X35.0727 Y19.1898
G01 X35.0740 Y19.2035
G01 X35.0754 Y19.2349
G01 X35.0754 Y20.5349
G01 X35.0740 Y20.5663
G01 X35.0727 Y20.5800
G01 X35.0691 Y20.6042
G01 X35.0664 Y20.6177
G01 X35.0605 Y20.6415
G01 X35.0565 Y20.6547
G01 X35.0482 Y20.6778
G01 X35.0429 Y20.6905
G01 X35.0324 Y20.7127
G01 X35.0260 Y20.7248
G01 X35.0133 Y20.7459
G01 X35.0057 Y20.7573
G01 X34.9911 Y20.7770
G01 X34.9824 Y20.7876
G01 X34.9659 Y20.8058
G01 X34.9561 Y20.8155
G01 X34.9380 Y20.8320
G01 X34.9273 Y20.8408
G01 X34.9076 Y20.8554
G01 X34.8962 Y20.8630
G01 X34.8751 Y20.8756
G01 X34.8630 Y20.8821
G01 X34.8408 Y20.8926
G01 X34.8281 Y20.8979
G01 X34.8050 Y20.9061
G01 X34.7919 Y20.9101
G01 X34.7681 Y20.9161
G01 X34.7546 Y20.9188
G01 X34.7303 Y20.9224
G01 X34.7166 Y20.9237
G01 X34.6921 Y20.9249
G01 X34.6783 Y20.9249
G01 X34.6538 Y20.9237
G01 X34.6401 Y20.9224
G01 X34.6159 Y20.9188
G01 X34.6024 Y20.9161
G01 X34.5786 Y20.9101
G01 X34.5654 Y20.9061
G01 X34.5423 Y20.8979
G01 X34.5296 Y20.8926
G01 X34.5074 Y20.8821
G01 X34.4953 Y20.8756
G01 X34.4743 Y20.8630
G01 X34.4628 Y20.8554
G01 X34.4431 Y20.8408
G01 X34.4325 Y20.8320
G01 X34.4143 Y20.8155
G01 X34.4046 Y20.8058
G01 X34.3881 Y20.7876
G01 X34.3794 Y20.7770
G01 X34.3647 Y20.7573
G01 X34.3571 Y20.7459
G01 X34.3445 Y20.7248
G01 X34.3380 Y20.7127
G01 X34.3275 Y20.6905
G01 X34.3222 Y20.6778
G01 X34.3140 Y20.6547
G01 X34.3100 Y20.6415
G01 X34.3040 Y20.6177
G01 X34.3013 Y20.6042
G01 X34.2977 Y20.5800
G01 X34.2964 Y20.5663
G01 X34.2950 Y20.5349
G01 X34.2950 Y20.1523
G01 X21.3360 Y20.1523
G01 X21.3095 Y20.1512
G01 X21.2958 Y20.1498
G01 X21.2764 Y20.1469
G01 X21.2629 Y20.1443
G01 X21.2438 Y20.1395
G01 X21.2307 Y20.1355
G01 X21.2122 Y20.1289
G01 X21.1995 Y20.1236
G01 X21.1817 Y20.1152
G01 X21.1696 Y20.1087
G01 X21.1528 Y20.0986
G01 X21.1413 Y20.0910
G01 X21.1255 Y20.0793
G01 X21.1149 Y20.0706
G01 X21.0954 Y20.0526
G01 X11.8974 Y10.8546
G00 Z2.0000
G00 X14.4374 Y10.8546
G01 F60.00
G01 Z-0.0800
G01 F120.00
G01 X14.4310 Y10.8573
G01 X14.3617 Y10.8820
G01 X14.3486 Y10.8860
G01 X14.2772 Y10.9039
G01 X14.2638 Y10.9066
G01 X14.1910 Y10.9174
G01 X14.1773 Y10.9187
G01 X14.1039 Y10.9223
G01 X14.0901 Y10.9223
G01 X14.0167 Y10.9187
G01 X14.0030 Y10.9174
G01 X13.9302 Y10.9066
G01 X13.9168 Y10.9039
G01 X13.8454 Y10.8860
G01 X13.8323 Y10.8820
G01 X13.7630 Y10.8573
G01 X13.7503 Y10.8520
G01 X13.6838 Y10.8206
G01 X13.6717 Y10.8141
G01 X13.6086 Y10.7763
G01 X13.5972 Y10.7686
G01 X13.5381 Y10.7248
G01 X13.5275 Y10.7161
G01 X13.4730 Y10.6667
G01 X13.4633 Y10.6570
G01 X13.4139 Y10.6025
G01 X13.4052 Y10.5919
G01 X13.3614 Y10.5328
G01 X13.3537 Y10.5214
G01 X13.3159 Y10.4583
G01 X13.3094 Y10.4462
G01 X13.2780 Y10.3797
G01 X13.2727 Y10.3670
G01 X13.2480 Y10.2977
G01 X13.2440 Y10.2846
G01 X13.2261 Y10.2132
G01 X13.2234 Y10.1998
G01 X13.2126 Y10.1270
G01 X13.2113 Y10.1133
G01 X13.2077 Y10.0399
G01 X13.2077 Y10.0261
G01 X13.2113 Y9.9527
G01 X13.2126 Y9.9390
G01 X13.2234 Y9.8662
G01 X13.2261 Y9.8528
G01 X13.2440 Y9.7814
G01 X13.2480 Y9.7683
G01 X13.2727 Y9.6990
G01 X13.2780 Y9.6863
G01 X13.3094 Y9.6198
G01 X13.3159 Y9.6077
G01 X13.3537 Y9.5446
G01 X13.3614 Y9.5332
G01 X13.4052 Y9.4741
G01 X13.4139 Y9.4635
G01 X13.4633 Y9.4090
G01 X13.4730 Y9.3993
G01 X13.5275 Y9.3499
G01 X13.5381 Y9.3412
G01 X13.5972 Y9.2974
G01 X13.6086 Y9.2897
G01 X13.6717 Y9.2519
G01 X13.6838 Y9.2454
G01 X13.7503 Y9.2140
G01 X13.7630 Y9.2087
G01 X13.8323 Y9.1840
G01 X13.8454 Y9.1800
G01 X13.9168 Y9.1621
G01 X13.9302 Y9.1594
G01 X14.0030 Y9.1486
G01 X14.0167 Y9.1473
G01 X14.0901 Y9.1437
G01 X14.1039 Y9.1437
G01 X14.1773 Y9.1473
G01 X14.1910 Y9.1486
G01 X14.2638 Y9.1594
G01 X14.2772 Y9.1621
G01 X14.3486 Y9.1800
G01 X14.3617 Y9.1840
G01 X14.4310 Y9.2087
G01 X14.4437 Y9.2140
G01 X14.5102 Y9.2454
G01 X14.5223 Y9.2519
G01 X14.5854 Y9.2897
G01 X14.5968 Y9.2974
G01 X14.6559 Y9.3412
G01 X14.6665 Y9.3499
G01 X14.7210 Y9.3993
G01 X14.7307 Y9.4090
G01 X14.7801 Y9.4635
G01 X14.7888 Y9.4741
G01 X14.8326 Y9.5332
G01 X14.8403 Y9.5446
G01 X14.8781 Y9.6077
G01 X14.8846 Y9.6198
G01 X14.9160 Y9.6863
G01 X14.9213 Y9.6990
G01 X14.9460 Y9.7683
G01 X14.9500 Y9.7814
G01 X14.9679 Y9.8528
G01 X14.9706 Y9.8662
G01 X14.9814 Y9.9390
G01 X14.9827 Y9.9527
G01 X14.9863 Y10.0261
G01 X14.9863 Y10.0399
G01 X14.9827 Y10.1133
G01 X14.9814 Y10.1270
G01 X14.9706 Y10.1998
G01 X14.9679 Y10.2132
G01 X14.9500 Y10.2846
G01 X14.9460 Y10.2977
G01 X14.9213 Y10.3670
G01 X14.9186 Y10.3734
G01 X22.6895 Y18.1443
G01 X35.0159 Y18.1443
G01 X35.0424 Y18.1454
G01 X35.0561 Y18.1468
G01 X35.0755 Y18.1497
G01 X35.0890 Y18.1523
G01 X35.1081 Y18.1571
G01 X35.1212 Y18.1611
G01 X35.1397 Y18.1677
G01 X35.1524 Y18.1730
G01 X35.1702 Y18.1814
G01 X35.1823 Y18.1879
G01 X35.1992 Y18.1980
G01 X35.2106 Y18.2056
G01 X35.2264 Y18.2173
G01 X35.2370 Y18.2260
G01 X35.2566 Y18.2440
G01 X35.7259 Y18.7134
G01 X35.7439 Y18.7329
G01 X35.7526 Y18.7435
G01 X35.7643 Y18.7593
G01 X35.7720 Y18.7707
G01 X35.7820 Y18.7876
G01 X35.7885 Y18.7997
G01 X35.7969 Y18.8175
G01 X35.8022 Y18.8302
G01 X35.8088 Y18.8487
G01 X35.8128 Y18.8618
G01 X35.8176 Y18.8809
G01 X35.8203 Y18.8944
G01 X35.8231 Y18.9138
G01 X35.8245 Y18.9275
G01 X35.8256 Y18.9540
G01 X35.8256 Y19.0442
G01 X35.8325 Y19.0571
G01 X35.8430 Y19.0793
G01 X35.8483 Y19.0920
G01 X35.8566 Y19.1151
G01 X35.8606 Y19.1283
G01 X35.8665 Y19.1521
G01 X35.8692 Y19.1655
G01 X35.8728 Y19.1898
G01 X35.8741 Y19.2035
G01 X35.8755 Y19.2349
G01 X35.8755 Y20.5349
G01 X35.8741 Y20.5663
G01 X35.8728 Y20.5800
G01 X35.8692 Y20.6042
G01 X35.8665 Y20.6177
G01 X35.8606 Y20.6415
G01 X35.8566 Y20.6547
G01 X35.8483 Y20.6778
G01 X35.8430 Y20.6905
G01 X35.8325 Y20.7127
G01 X35.8261 Y20.7248
G01 X35.8134 Y20.7459
G01 X35.8058 Y20.7573
G01 X35.7912 Y20.7770
G01 X35.7825 Y20.7876
G01 X35.7660 Y20.8058
G01 X35.7562 Y20.8155
G01 X35.7381 Y20.8320
G01 X35.7274 Y20.8408
G01 X35.7077 Y20.8554
G01 X35.6963 Y20.8630
G01 X35.6752 Y20.8756
G01 X35.6631 Y20.8821
G01 X35.6409 Y20.8926
G01 X35.6282 Y20.8979
G01 X35.6051 Y20.9061
G01 X35.5920 Y20.9101
G01 X35.5682 Y20.9161
G01 X35.5547 Y20.9188
G01 X35.5304 Y20.9224
G01 X35.5167 Y20.9237
G01 X35.4922 Y20.9249
G01 X35.4784 Y20.9249
G01 X35.4539 Y20.9237
G01 X35.4402 Y20.9224
G01 X35.4160 Y20.9188
G01 X35.4025 Y20.9161
G01 X35.3787 Y20.9101
G01 X35.3655 Y20.9061
G01 X35.3424 Y20.8979
G01 X35.3297 Y20.8926
G01 X35.3075 Y20.8821
G01 X35.2954 Y20.8756
G01 X35.2744 Y20.8630
G01 X35.2629 Y20.8554
G01 X35.2432 Y20.8408
G01 X35.2326 Y20.8320
G01 X35.2144 Y20.8155
G01 X35.2047 Y20.8058
G01 X35.1882 Y20.7876
G01 X35.1795 Y20.7770
G01 X35.1648 Y20.7573
G01 X35.1572 Y20.7459
G01 X35.1446 Y20.7248
G01 X35.1381 Y20.7127
G01 X35.1276 Y20.6905
G01 X35.1223 Y20.6778
G01 X35.1141 Y20.6547
G01 X35.1101 Y20.6415
G01 X35.1041 Y20.6177
G01 X35.1014 Y20.6042
G01 X35.0978 Y20.5800
G01 X35.0965 Y20.5663
G01 X35.0951 Y20.5349
G01 X35.0951 Y19.2349
G01 X35.0965 Y19.2035
G01 X35.0978 Y19.1898
G01 X35.1014 Y19.1655
G01 X35.1041 Y19.1521
G01 X35.1101 Y19.1283
G01 X35.1141 Y19.1151
G01 X35.1223 Y19.0920
G01 X35.1282 Y19.0781
G01 X34.8750 Y18.8249
G01 X22.5486 Y18.8249
G01 X22.5221 Y18.8238
G01 X22.5084 Y18.8224
G01 X22.4890 Y18.8195
G01 X22.4755 Y18.8168
G01 X22.4564 Y18.8121
G01 X22.4433 Y18.8081
G01 X22.4248 Y18.8015
G01 X22.4121 Y18.7962
G01 X22.3943 Y18.7878
G01 X22.3822 Y18.7813
G01 X22.3653 Y18.7712
G01 X22.3539 Y18.7636
G01 X22.3381 Y18.7519
G01 X22.3275 Y18.7432
G01 X22.3080 Y18.7252
G01 X14.4374 Y10.8546
G00 X14.4374 Y10.8546
G01 F60.00
G01 Z-0.1500
G01 F120.00
G01 X14.4310 Y10.8573
G01 X14.3617 Y10.8820
G01 X14.3486 Y10.8860
G01 X14.2772 Y10.9039
G01 X14.2638 Y10.9066
G01 X14.1910 Y10.9174
G01 X14.1773 Y10.9187
G01 X14.1039 Y10.9223
G01 X14.0901 Y10.9223
G01 X14.0167 Y10.9187
G01 X14.0030 Y10.9174
G01 X13.9302 Y10.9066
G01 X13.9168 Y10.9039
G01 X13.8454 Y10.8860
G01 X13.8323 Y10.8820
G01 X13.7630 Y10.8573
G01 X13.7503 Y10.8520
G01 X13.6838 Y10.8206
G01 X13.6717 Y10.8141
G01 X13.6086 Y10.7763
G01 X13.5972 Y10.7686
G01 X13.5381 Y10.7248
G01 X13.5275 Y10.7161
G01 X13.4730 Y10.6667
G01 X13.4633 Y10.6570
G01 X13.4139 Y10.6025
G01 X13.4052 Y10.5919
G01 X13.3614 Y10.5328
G01 X13.3537 Y10.5214
G01 X13.3159 Y10.4583
G01 X13.3094 Y10.4462
G01 X13.2780 Y10.3797
G01 X13.2727 Y10.3670
G01 X13.2480 Y10.2977
G01 X13.2440 Y10.2846
G01 X13.2261 Y10.2132
G01 X13.2234 Y10.1998
G01 X13.2126 Y10.1270
G01 X13.2113 Y10.1133
G01 X13.2077 Y10.0399
G01 X13.2077 Y10.0261
G01 X13.2113 Y9.9527
G01 X13.2126 Y9.9390
G01 X13.2234 Y9.8662
G01 X13.2261 Y9.8528
G01 X13.2440 Y9.7814
G01 X13.2480 Y9.7683
G01 X13.2727 Y9.6990
G01 X13.2780 Y9.6863
G01 X13.3094 Y9.6198
G01 X13.3159 Y9.6077
G01 X13.3537 Y9.5446
G01 X13.3614 Y9.5332
G01 X13.4052 Y9.4741
G01 X13.4139 Y9.4635
G01 X13.4633 Y9.4090
G01 X13.4730 Y9.3993
G01 X13.5275 Y9.3499
G01 X13.5381 Y9.3412
G01 X13.5972 Y9.2974
G01 X13.6086 Y9.2897
G01 X13.6717 Y9.2519
G01 X13.6838 Y9.2454
G01 X13.7503 Y9.2140
G01 X13.7630 Y9.2087
G01 X13.8323 Y9.1840
G01 X13.8454 Y9.1800
G01 X13.9168 Y9.1621
G01 X13.9302 Y9.1594
G01 X14.0030 Y9.1486
G01 X14.0167 Y9.1473
G01 X14.0901 Y9.1437
G01 X14.1039 Y9.1437
G01 X14.1773 Y9.1473
G01 X14.1910 Y9.1486
G01 X14.2638 Y9.1594
G01 X14.2772 Y9.1621
G01 X14.3486 Y9.1800
G01 X14.3617 Y9.1840
G01 X14.4310 Y9.2087
G01 X14.4437 Y9.2140
G01 X14.5102 Y9.2454
G01 X14.5223 Y9.2519
G01 X14.5854 Y9.2897
G01 X14.5968 Y9.2974
G01 X14.6559 Y9.3412
G01 X14.6665 Y9.3499
G01 X14.7210 Y9.3993
G01 X14.7307 Y9.4090
G01 X14.7801 Y9.4635
G01 X14.7888 Y9.4741
G01 X14.8326 Y9.5332
G01 X14.8403 Y9.5446
G01 X14.8781 Y9.6077
G01 X14.8846 Y9.6198
G01 X14.9160 Y9.6863
G01 X14.9213 Y9.6990
G01 X14.9460 Y9.7683
G01 X14.9500 Y9.7814
G01 X14.9679 Y9.8528
G01 X14.9706 Y9.8662
G01 X14.9814 Y9.9390
G01 X14.9827 Y9.9527
G01 X14.9863 Y10.0261
G01 X14.9863 Y10.0399
G01 X14.9827 Y10.1133
G01 X14.9814 Y10.1270
G01 X14.9706 Y10.1998
G01 X14.9679 Y10.2132
G01 X14.9500 Y10.2846
G01 X14.9460 Y10.2977
G01 X14.9213 Y10.3670
G01 X14.9186 Y10.3734
G01 X22.6895 Y18.1443
G01 X35.0159 Y18.1443
G01 X35.0424 Y18.1454
G01 X35.0561 Y18.1468
G01 X35.0755 Y18.1497
G01 X35.0890 Y18.1523
G01 X35.1081 Y18.1571
G01 X35.1212 Y18.1611
G01 X35.1397 Y18.1677
G01 X35.1524 Y18.1730
G01 X35.1702 Y18.1814
G01 X35.1823 Y18.1879
G01 X35.1992 Y18.1980
G01 X35.2106 Y18.2056
G01 X35.2264 Y18.2173
G01 X35.2370 Y18.2260
G01 X35.2566 Y18.2440
G01 X35.7259 Y18.7134
G01 X35.7439 Y18.7329
G01 X35.7526 Y18.7435
G01 X35.7643 Y18.7593
G01 X35.7720 Y18.7707
G01 X35.7820 Y18.7876
G01 X35.7885 Y18.7997
G01 X35.7969 Y18.8175
G01 X35.8022 Y18.8302
G01 X35.8088 Y18.8487
G01 X35.8128 Y18.8618
G01 X35.8176 Y18.8809
G01 X35.8203 Y18.8944
G01 X35.8231 Y18.9138
G01 X35.8245 Y18.9275
G01 X35.8256 Y18.9540
G01 X35.8256 Y19.0442
G01 X35.8325 Y19.0571
G01 X35.8430 Y19.0793
G01 X35.8483 Y19.0920
G01 X35.8566 Y19.1151
G01 X35.8606 Y19.1283
G01 X35.8665 Y19.1521
G01 X35.8692 Y19.1655
G01 X35.8728 Y19.1898
G01 X35.8741 Y19.2035
G01 X35.8755 Y19.2349
G01 X35.8755 Y20.5349
G01 X35.8741 Y20.5663
G01 X35.8728 Y20.5800
G01 X35.8692 Y20.6042
G01 X35.8665 Y20.6177
G01 X35.8606 Y20.6415
G01 X35.8566 Y20.6547
G01 X35.8483 Y20.6778
G01 X35.8430 Y20.6905
G01 X35.8325 Y20.7127
G01 X35.8261 Y20.7248
G01 X35.8134 Y20.7459
G01 X35.8058 Y20.7573
G01 X35.7912 Y20.7770
G01 X35.7825 Y20.7876
G01 X35.7660 Y20.8058
G01 X35.7562 Y20.8155
G01 X35.7381 Y20.8320
G01 X35.7274 Y20.8408
G01 X35.7077 Y20.8554
G01 X35.6963 Y20.8630
G01 X35.6752 Y20.8756
G01 X35.6631 Y20.8821
G01 X35.6409 Y20.8926
G01 X35.6282 Y20.8979
G01 X35.6051 Y20.9061
G01 X35.5920 Y20.9101
G01 X35.5682 Y20.9161
G01 X35.5547 Y20.9188
G01 X35.5304 Y20.9224
G01 X35.5167 Y20.9237
G01 X35.4922 Y20.9249
G01 X35.4784 Y20.9249
G01 X35.4539 Y20.9237
G01 X35.4402 Y20.9224
G01 X35.4160 Y20.9188
G01 X35.4025 Y20.9161
G01 X35.3787 Y20.9101
G01 X35.3655 Y20.9061
G01 X35.3424 Y20.8979
G01 X35.3297 Y20.8926
G01 X35.3075 Y20.8821
G01 X35.2954 Y20.8756
G01 X35.2744 Y20.8630
G01 X35.2629 Y20.8554
G01 X35.2432 Y20.8408
G01 X35.2326 Y20.8320
G01 X35.2144 Y20.8155
G01 X35.2047 Y20.8058
G01 X35.1882 Y20.7876
G01 X35.1795 Y20.7770
G01 X35.1648 Y20.7573
G01 X35.1572 Y20.7459
G01 X35.1446 Y20.7248
G01 X35.1381 Y20.7127
G01 X35.1276 Y20.6905
G01 X35.1223 Y20.6778
G01 X35.1141 Y20.6547
G01 X35.1101 Y20.6415
G01 X35.1041 Y20.6177
G01 X35.1014 Y20.6042
G01 X35.0978 Y20.5800
G01 X35.0965 Y20.5663
G01 X35.0951 Y20.5349
G01 X35.0951 Y19.2349
G01 X35.0965 Y19.2035
G01 X35.0978 Y19.1898
G01 X35.1014 Y19.1655
G01 X35.1041 Y19.1521
G01 X35.1101 Y19.1283
G01 X35.1141 Y19.1151
G01 X35.1223 Y19.0920
G01 X35.1282 Y19.0781
G01 X34.8750 Y18.8249
G01 X22.5486 Y18.8249
G01 X22.5221 Y18.8238
G01 X22.5084 Y18.8224
G01 X22.4890 Y18.8195
G01 X22.4755 Y18.8168
G01 X22.4564 Y18.8121
G01 X22.4433 Y18.8081
G01 X22.4248 Y18.8015
G01 X22.4121 Y18.7962
G01 X22.3943 Y18.7878
G01 X22.3822 Y18.7813
G01 X22.3653 Y18.7712
G01 X22.3539 Y18.7636
G01 X22.3381 Y18.7519
G01 X22.3275 Y18.7432
G01 X22.3080 Y18.7252
G01 X14.4374 Y10.8546
G00 Z2.0000
G00 X16.9774 Y10.8546
G01 F60.00
G01 Z-0.0800
G01 F120.00
G01 X16.9710 Y10.8573
G01 X16.9017 Y10.8820
G01 X16.8886 Y10.8860
G01 X16.8172 Y10.9039
G01 X16.8038 Y10.9066
G01 X16.7310 Y10.9174
G01 X16.7173 Y10.9187
G01 X16.6439 Y10.9223
G01 X16.6301 Y10.9223
G01 X16.5567 Y10.9187
G01 X16.5430 Y10.9174
G01 X16.4702 Y10.9066
G01 X16.4568 Y10.9039
G01 X16.3854 Y10.8860
G01 X16.3723 Y10.8820
G01 X16.3030 Y10.8573
G01 X16.2903 Y10.8520
G01 X16.2238 Y10.8206
G01 X16.2117 Y10.8141
G01 X16.1486 Y10.7763
G01 X16.1372 Y10.7686
G01 X16.0781 Y10.7248
G01 X16.0675 Y10.7161
G01 X16.0130 Y10.6667
G01 X16.0033 Y10.6570
G01 X15.9539 Y10.6025
G01 X15.9452 Y10.5919
G01 X15.9014 Y10.5328
G01 X15.8937 Y10.5214
G01 X15.8559 Y10.4583
G01 X15.8494 Y10.4462
G01 X15.8180 Y10.3797
G01 X15.8127 Y10.3670
G01 X15.7880 Y10.2977
G01 X15.7840 Y10.2846
G01 X15.7661 Y10.2132
G01 X15.7634 Y10.1998
G01 X15.7526 Y10.1270
G01 X15.7513 Y10.1133
G01 X15.7477 Y10.0399
G01 X15.7477 Y10.0261
G01 X15.7513 Y9.9527
G01 X15.7526 Y9.9390
G01 X15.7634 Y9.8662
G01 X15.7661 Y9.8528
G01 X15.7840 Y9.7814
G01 X15.7880 Y9.7683
G01 X15.8127 Y9.6990
G01 X15.8180 Y9.6863
G01 X15.8494 Y9.6198
G01 X15.8559 Y9.6077
G01 X15.8937 Y9.5446
G01 X15.9014 Y9.5332
G01 X15.9452 Y9.4741
G01 X15.9539 Y9.4635
G01 X16.0033 Y9.4090
G01 X16.0130 Y9.3993
G01 X16.0675 Y9.3499
G01 X16.0781 Y9.3412
G01 X16.1372 Y9.2974
G01 X16.1486 Y9.2897
G01 X16.2117 Y9.2519
G01 X16.2238 Y9.2454
G01 X16.2903 Y9.2140
G01 X16.3030 Y9.2087
G01 X16.3723 Y9.1840
G01 X16.3854 Y9.1800
G01 X16.4568 Y9.1621
G01 X16.4702 Y9.1594
G01 X16.5430 Y9.1486
G01 X16.5567 Y9.1473
G01 X16.6301 Y9.1437
G01 X16.6439 Y9.1437
G01 X16.7173 Y9.1473
G01 X16.7310 Y9.1486
G01 X16.8038 Y9.1594
G01 X16.8172 Y9.1621
G01 X16.8886 Y9.1800
G01 X16.9017 Y9.1840
G01 X16.9710 Y9.2087
G01 X16.9837 Y9.2140
G01 X17.0502 Y9.2454
G01 X17.0623 Y9.2519
G01 X17.1254 Y9.2897
G01 X17.1368 Y9.2974
G01 X17.1959 Y9.3412
G01 X17.2065 Y9.3499
G01 X17.2610 Y9.3993
G01 X17.2707 Y9.4090
G01 X17.3201 Y9.4635
G01 X17.3288 Y9.4741
G01 X17.3726 Y9.5332
G01 X17.3803 Y9.5446
G01 X17.4181 Y9.6077
G01 X17.4246 Y9.6198
G01 X17.4560 Y9.6863
G01 X17.4613 Y9.6990
G01 X17.4860 Y9.7683
G01 X17.4900 Y9.7814
G01 X17.5079 Y9.8528
G01 X17.5106 Y9.8662
G01 X17.5214 Y9.9390
G01 X17.5227 Y9.9527
G01 X17.5263 Y10.0261
G01 X17.5263 Y10.0399
G01 X17.5227 Y10.1133
G01 X17.5214 Y10.1270
G01 X17.5106 Y10.1998
G01 X17.5079 Y10.2132
G01 X17.4900 Y10.2846
G01 X17.4860 Y10.2977
G01 X17.4613 Y10.3670
G01 X17.4586 Y10.3734
G01 X23.8900 Y16.8047
G01 X34.6466 Y16.8047
G01 X34.6731 Y16.8058
G01 X34.6868 Y16.8072
G01 X34.7062 Y16.8101
G01 X34.7197 Y16.8127
G01 X34.7388 Y16.8175
G01 X34.7519 Y16.8215
G01 X34.7704 Y16.8281
G01 X34.7831 Y16.8334
G01 X34.8009 Y16.8418
G01 X34.8130 Y16.8483
G01 X34.8299 Y16.8584
G01 X34.8413 Y16.8660
G01 X34.8571 Y16.8777
G01 X34.8677 Y16.8864
G01 X34.8872 Y16.9044
G01 X36.5258 Y18.5429
G01 X36.5437 Y18.5625
G01 X36.5524 Y18.5731
G01 X36.5641 Y18.5889
G01 X36.5718 Y18.6003
G01 X36.5819 Y18.6171
G01 X36.5884 Y18.6293
G01 X36.5968 Y18.6470
G01 X36.6020 Y18.6597
G01 X36.6086 Y18.6782
G01 X36.6126 Y18.6914
G01 X36.6174 Y18.7104
G01 X36.6201 Y18.7239
G01 X36.6230 Y18.7434
G01 X36.6243 Y18.7571
G01 X36.6255 Y18.7835
G01 X36.6255 Y19.0442
G01 X36.6324 Y19.0571
G01 X36.6429 Y19.0793
G01 X36.6481 Y19.0920
G01 X36.6564 Y19.1151
G01 X36.6604 Y19.1283
G01 X36.6664 Y19.1521
G01 X36.6690 Y19.1655
G01 X36.6726 Y19.1898
G01 X36.6740 Y19.2035
G01 X36.6754 Y19.2349
G01 X36.6752 Y20.5418
G01 X36.6740 Y20.5663
G01 X36.6726 Y20.5800
G01 X36.6690 Y20.6042
G01 X36.6664 Y20.6177
G01 X36.6604 Y20.6415
G01 X36.6564 Y20.6547
G01 X36.6481 Y20.6778
G01 X36.6429 Y20.6905
G01 X36.6324 Y20.7127
G01 X36.6259 Y20.7248
G01 X36.6133 Y20.7459
G01 X36.6056 Y20.7573
G01 X36.5910 Y20.7770
G01 X36.5823 Y20.7876
G01 X36.5658 Y20.8058
G01 X36.5561 Y20.8155
G01 X36.5379 Y20.8320
G01 X36.5273 Y20.8408
G01 X36.5076 Y20.8554
G01 X36.4961 Y20.8630
G01 X36.4751 Y20.8756
G01 X36.4630 Y20.8821
G01 X36.4408 Y20.8926
G01 X36.4281 Y20.8979
G01 X36.4050 Y20.9061
G01 X36.3918 Y20.9101
G01 X36.3680 Y20.9161
G01 X36.3545 Y20.9188
G01 X36.3302 Y20.9224
G01 X36.3165 Y20.9237
G01 X36.2920 Y20.9249
G01 X36.2783 Y20.9249
G01 X36.2538 Y20.9237
G01 X36.2401 Y20.9224
G01 X36.2158 Y20.9188
G01 X36.2023 Y20.9161
G01 X36.1785 Y20.9101
G01 X36.1654 Y20.9061
G01 X36.1423 Y20.8979
G01 X36.1295 Y20.8926
G01 X36.1074 Y20.8821
G01 X36.0952 Y20.8756
G01 X36.0742 Y20.8630
G01 X36.0628 Y20.8554
G01 X36.0430 Y20.8408
G01 X36.0324 Y20.8320
G01 X36.0142 Y20.8155
G01 X36.0045 Y20.8058
G01 X35.9880 Y20.7876
G01 X35.9793 Y20.7770
G01 X35.9647 Y20.7573
G01 X35.9570 Y20.7459
G01 X35.9444 Y20.7248
G01 X35.9379 Y20.7127
G01 X35.9275 Y20.6905
G01 X35.9222 Y20.6778
G01 X35.9139 Y20.6547
G01 X35.9099 Y20.6415
G01 X35.9040 Y20.6177
G01 X35.9013 Y20.6042
G01 X35.8977 Y20.5800
G01 X35.8963 Y20.5663
G01 X35.8950 Y20.5349
G01 X35.8951 Y19.2280
G01 X35.8963 Y19.2035
G01 X35.8977 Y19.1898
G01 X35.9013 Y19.1655
G01 X35.9040 Y19.1521
G01 X35.9099 Y19.1283
G01 X35.9139 Y19.1151
G01 X35.9222 Y19.0920
G01 X35.9275 Y19.0793
G01 X35.9379 Y19.0571
G01 X35.9449 Y19.0442
G01 X35.9449 Y18.9245
G01 X34.5057 Y17.4853
G01 X23.7490 Y17.4853
G01 X23.7225 Y17.4842
G01 X23.7088 Y17.4828
G01 X23.6894 Y17.4799
G01 X23.6759 Y17.4773
G01 X23.6568 Y17.4725
G01 X23.6437 Y17.4685
G01 X23.6252 Y17.4619
G01 X23.6125 Y17.4566
G01 X23.5947 Y17.4482
G01 X23.5826 Y17.4417
G01 X23.5658 Y17.4316
G01 X23.5543 Y17.4240
G01 X23.5385 Y17.4123
G01 X23.5279 Y17.4036
G01 X23.5084 Y17.3856
G01 X16.9774 Y10.8546
G00 X16.9774 Y10.8546
G01 F60.00
G01 Z-0.1500
G01 F120.00
G01 X16.9710 Y10.8573
G01 X16.9017 Y10.8820
G01 X16.8886 Y10.8860
G01 X16.8172 Y10.9039
G01 X16.8038 Y10.9066
G01 X16.7310 Y10.9174
G01 X16.7173 Y10.9187
G01 X16.6439 Y10.9223
G01 X16.6301 Y10.9223
G01 X16.5567 Y10.9187
G01 X16.5430 Y10.9174
G01 X16.4702 Y10.9066
G01 X16.4568 Y10.9039
G01 X16.3854 Y10.8860
G01 X16.3723 Y10.8820
G01 X16.3030 Y10.8573
G01 X16.2903 Y10.8520
G01 X16.2238 Y10.8206
G01 X16.2117 Y10.8141
G01 X16.1486 Y10.7763
G01 X16.1372 Y10.7686
G01 X16.0781 Y10.7248
G01 X16.0675 Y10.7161
G01 X16.0130 Y10.6667
G01 X16.0033 Y10.6570
G01 X15.9539 Y10.6025
G01 X15.9452 Y10.5919
G01 X15.9014 Y10.5328
G01 X15.8937 Y10.5214
G01 X15.8559 Y10.4583
G01 X15.8494 Y10.4462
G01 X15.8180 Y10.3797
G01 X15.8127 Y10.3670
G01 X15.7880 Y10.2977
G01 X15.7840 Y10.2846
G01 X15.7661 Y10.2132
G01 X15.7634 Y10.1998
G01 X15.7526 Y10.1270
G01 X15.7513 Y10.1133
G01 X15.7477 Y10.0399
G01 X15.7477 Y10.0261
G01 X15.7513 Y9.9527
G01 X15.7526 Y9.9390
G01 X15.7634 Y9.8662
G01 X15.7661 Y9.8528
G01 X15.7840 Y9.7814
G01 X15.7880 Y9.7683
G01 X15.8127 Y9.6990
G01 X15.8180 Y9.6863
G01 X15.8494 Y9.6198
G01 X15.8559 Y9.6077
G01 X15.8937 Y9.5446
G01 X15.9014 Y9.5332
G01 X15.9452 Y9.4741
G01 X15.9539 Y9.4635
G01 X16.0033 Y9.4090
G01 X16.0130 Y9.3993
G01 X16.0675 Y9.3499
G01 X16.0781 Y9.3412
G01 X16.1372 Y9.2974
G01 X16.1486 Y9.2897
G01 X16.2117 Y9.2519
G01 X16.2238 Y9.2454
G01 X16.2903 Y9.2140
G01 X16.3030 Y9.2087
G01 X16.3723 Y9.1840
G01 X16.3854 Y9.1800
G01 X16.4568 Y9.1621
G01 X16.4702 Y9.1594
G01 X16.5430 Y9.1486
G01 X16.5567 Y9.1473
G01 X16.6301 Y9.1437
G01 X16.6439 Y9.1437
G01 X16.7173 Y9.1473
G01 X16.7310 Y9.1486
G01 X16.8038 Y9.1594
G01 X16.8172 Y9.1621
G01 X16.8886 Y9.1800
G01 X16.9017 Y9.1840
G01 X16.9710 Y9.2087
G01 X16.9837 Y9.2140
G01 X17.0502 Y9.2454
G01 X17.0623 Y9.2519
G01 X17.1254 Y9.2897
G01 X17.1368 Y9.2974
G01 X17.1959 Y9.3412
G01 X17.2065 Y9.3499
G01 X17.2610 Y9.3993
G01 X17.2707 Y9.4090
G01 X17.3201 Y9.4635
G01 X17.3288 Y9.4741
G01 X17.3726 Y9.5332
G01 X17.3803 Y9.5446
G01 X17.4181 Y9.6077
G01 X17.4246 Y9.6198
G01 X17.4560 Y9.6863
G01 X17.4613 Y9.6990
G01 X17.4860 Y9.7683
G01 X17.4900 Y9.7814
G01 X17.5079 Y9.8528
G01 X17.5106 Y9.8662
G01 X17.5214 Y9.9390
G01 X17.5227 Y9.9527
G01 X17.5263 Y10.0261
G01 X17.5263 Y10.0399
G01 X17.5227 Y10.1133
G01 X17.5214 Y10.1270
G01 X17.5106 Y10.1998
G01 X17.5079 Y10.2132
G01 X17.4900 Y10.2846
G01 X17.4860 Y10.2977
G01 X17.4613 Y10.3670
G01 X17.4586 Y10.3734
G01 X23.8900 Y16.8047
G01 X34.6466 Y16.8047
G01 X34.6731 Y16.8058
G01 X34.6868 Y16.8072
G01 X34.7062 Y16.8101
G01 X34.7197 Y16.8127
G01 X34.7388 Y16.8175
G01 X34.7519 Y16.8215
G01 X34.7704 Y16.8281
G01 X34.7831 Y16.8334
G01 X34.8009 Y16.8418
G01 X34.8130 Y16.8483
G01 X34.8299 Y16.8584
G01 X34.8413 Y16.8660
G01 X34.8571 Y16.8777
G01 X34.8677 Y16.8864
G01 X34.8872 Y16.9044
G01 X36.5258 Y18.5429
G01 X36.5437 Y18.5625
G01 X36.5524 Y18.5731
G01 X36.5641 Y18.5889
G01 X36.5718 Y18.6003
G01 X36.5819 Y18.6171
G01 X36.5884 Y18.6293
G01 X36.5968 Y18.6470
G01 X36.6020 Y18.6597
G01 X36.6086 Y18.6782
G01 X36.6126 Y18.6914
G01 X36.6174 Y18.7104
G01 X36.6201 Y18.7239
G01 X36.6230 Y18.7434
G01 X36.6243 Y18.7571
G01 X36.6255 Y18.7835
G01 X36.6255 Y19.0442
G01 X36.6324 Y19.0571
G01 X36.6429 Y19.0793
G01 X36.6481 Y19.0920
G01 X36.6564 Y19.1151
G01 X36.6604 Y19.1283
G01 X36.6664 Y19.1521
G01 X36.6690 Y19.1655
G01 X36.6726 Y19.1898
G01 X36.6740 Y19.2035
G01 X36.6754 Y19.2349
G01 X36.6752 Y20.5418
G01 X36.6740 Y20.5663
G01 X36.6726 Y20.5800
G01 X36.6690 Y20.6042
G01 X36.6664 Y20.6177
G01 X36.6604 Y20.6415
G01 X36.6564 Y20.6547
G01 X36.6481 Y20.6778
G01 X36.6429 Y20.6905
G01 X36.6324 Y20.7127
G01 X36.6259 Y20.7248
G01 X36.6133 Y20.7459
G01 X36.6056 Y20.7573
G01 X36.5910 Y20.7770
G01 X36.5823 Y20.7876
G01 X36.5658 Y20.8058
G01 X36.5561 Y20.8155
G01 X36.5379 Y20.8320
G01 X36.5273 Y20.8408
G01 X36.5076 Y20.8554
G01 X36.4961 Y20.8630
G01 X36.4751 Y20.8756
G01 X36.4630 Y20.8821
G01 X36.4408 Y20.8926
G01 X36.4281 Y20.8979
G01 X36.4050 Y20.9061
G01 X36.3918 Y20.9101
G01 X36.3680 Y20.9161
G01 X36.3545 Y20.9188
G01 X36.3302 Y20.9224
G01 X36.3165 Y20.9237
G01 X36.2920 Y20.9249
G01 X36.2783 Y20.9249
G01 X36.2538 Y20.9237
G01 X36.2401 Y20.9224
G01 X36.2158 Y20.9188
G01 X36.2023 Y20.9161
G01 X36.1785 Y20.9101
G01 X36.1654 Y20.9061
G01 X36.1423 Y20.8979
G01 X36.1295 Y20.8926
G01 X36.1074 Y20.8821
G01 X36.0952 Y20.8756
G01 X36.0742 Y20.8630
G01 X36.0628 Y20.8554
G01 X36.0430 Y20.8408
G01 X36.0324 Y20.8320
G01 X36.0142 Y20.8155
G01 X36.0045 Y20.8058
G01 X35.9880 Y20.7876
G01 X35.9793 Y20.7770
G01 X35.9647 Y20.7573
G01 X35.9570 Y20.7459
G01 X35.9444 Y20.7248
G01 X35.9379 Y20.7127
G01 X35.9275 Y20.6905
G01 X35.9222 Y20.6778
G01 X35.9139 Y20.6547
G01 X35.9099 Y20.6415
G01 X35.9040 Y20.6177
G01 X35.9013 Y20.6042
G01 X35.8977 Y20.5800
G01 X35.8963 Y20.5663
G01 X35.8950 Y20.5349
G01 X35.8951 Y19.2280
G01 X35.8963 Y19.2035
G01 X35.8977 Y19.1898
G01 X35.9013 Y19.1655
G01 X35.9040 Y19.1521
G01 X35.9099 Y19.1283
G01 X35.9139 Y19.1151
G01 X35.9222 Y19.0920
G01 X35.9275 Y19.0793
G01 X35.9379 Y19.0571
G01 X35.9449 Y19.0442
G01 X35.9449 Y18.9245
G01 X34.5057 Y17.4853
G01 X23.7490 Y17.4853
G01 X23.7225 Y17.4842
G01 X23.7088 Y17.4828
G01 X23.6894 Y17.4799
G01 X23.6759 Y17.4773
G01 X23.6568 Y17.4725
G01 X23.6437 Y17.4685
G01 X23.6252 Y17.4619
G01 X23.6125 Y17.4566
G01 X23.5947 Y17.4482
G01 X23.5826 Y17.4417
G01 X23.5658 Y17.4316
G01 X23.5543 Y17.4240
G01 X23.5385 Y17.4123
G01 X23.5279 Y17.4036
G01 X23.5084 Y17.3856
G01 X16.9774 Y10.8546
G00 Z2.0000
G00 X18.1781 Y8.5528
G01 F60.00
G01 Z-0.0800
G01 F120.00
G01 X18.8366 Y9.2114
G01 X18.8430 Y9.2087
G01 X18.9123 Y9.1840
G01 X18.9254 Y9.1800
G01 X18.9968 Y9.1621
G01 X19.0102 Y9.1594
G01 X19.0830 Y9.1486
G01 X19.0967 Y9.1473
G01 X19.1701 Y9.1437
G01 X19.1839 Y9.1437
G01 X19.2573 Y9.1473
G01 X19.2710 Y9.1486
G01 X19.3438 Y9.1594
G01 X19.3572 Y9.1621
G01 X19.4286 Y9.1800
G01 X19.4417 Y9.1840
G01 X19.5110 Y9.2087
G01 X19.5237 Y9.2140
G01 X19.5902 Y9.2454
G01 X19.6023 Y9.2519
G01 X19.6654 Y9.2897
G01 X19.6768 Y9.2974
G01 X19.7359 Y9.3412
G01 X19.7465 Y9.3499
G01 X19.8010 Y9.3993
G01 X19.8107 Y9.4090
G01 X19.8601 Y9.4635
G01 X19.8688 Y9.4741
G01 X19.9126 Y9.5332
G01 X19.9203 Y9.5446
G01 X19.9581 Y9.6077
G01 X19.9646 Y9.6198
G01 X19.9960 Y9.6863
G01 X20.0013 Y9.6990
G01 X20.0260 Y9.7683
G01 X20.0300 Y9.7814
G01 X20.0479 Y9.8528
G01 X20.0506 Y9.8662
G01 X20.0614 Y9.9390
G01 X20.0627 Y9.9527
G01 X20.0663 Y10.0261
G01 X20.0663 Y10.0399
G01 X20.0627 Y10.1133
G01 X20.0614 Y10.1270
G01 X20.0506 Y10.1998
G01 X20.0479 Y10.2132
G01 X20.0300 Y10.2846
G01 X20.0260 Y10.2977
G01 X20.0013 Y10.3670
G01 X19.9960 Y10.3797
G01 X19.9646 Y10.4462
G01 X19.9581 Y10.4583
G01 X19.9203 Y10.5214
G01 X19.9126 Y10.5328
G01 X19.8688 Y10.5919
G01 X19.8601 Y10.6025
G01 X19.8107 Y10.6570
G01 X19.8010 Y10.6667
G01 X19.7465 Y10.7161
G01 X19.7359 Y10.7248
G01 X19.6768 Y10.7686
G01 X19.6654 Y10.7763
G01 X19.6023 Y10.8141
G01 X19.5902 Y10.8206
G01 X19.5237 Y10.8520
G01 X19.5110 Y10.8573
G01 X19.4417 Y10.8820
G01 X19.4286 Y10.8860
G01 X19.3572 Y10.9039
G01 X19.3438 Y10.9066
G01 X19.2710 Y10.9174
G01 X19.2573 Y10.9187
G01 X19.1839 Y10.9223
G01 X19.1701 Y10.9223
G01 X19.0967 Y10.9187
G01 X19.0830 Y10.9174
G01 X19.0102 Y10.9066
G01 X18.9968 Y10.9039
G01 X18.9254 Y10.8860
G01 X18.9123 Y10.8820
G01 X18.8430 Y10.8573
G01 X18.8303 Y10.8520
G01 X18.7638 Y10.8206
G01 X18.7517 Y10.8141
G01 X18.6886 Y10.7763
G01 X18.6772 Y10.7686
G01 X18.6181 Y10.7248
G01 X18.6075 Y10.7161
G01 X18.5530 Y10.6667
G01 X18.5433 Y10.6570
G01 X18.4939 Y10.6025
G01 X18.4852 Y10.5919
G01 X18.4414 Y10.5328
G01 X18.4337 Y10.5214
G01 X18.3959 Y10.4583
G01 X18.3894 Y10.4462
G01 X18.3580 Y10.3797
G01 X18.3527 Y10.3670
G01 X18.3280 Y10.2977
G01 X18.3240 Y10.2846
G01 X18.3061 Y10.2132
G01 X18.3034 Y10.1998
G01 X18.2926 Y10.1270
G01 X18.2913 Y10.1133
G01 X18.2877 Y10.0399
G01 X18.2877 Y10.0261
G01 X18.2913 Y9.9527
G01 X18.2926 Y9.9390
G01 X18.3034 Y9.8662
G01 X18.3061 Y9.8528
G01 X18.3240 Y9.7814
G01 X18.3280 Y9.7683
G01 X18.3527 Y9.6990
G01 X18.3554 Y9.6926
G01 X17.7965 Y9.1338
G01 X11.1054 Y9.1338
G01 X10.6288 Y9.6103
G01 X10.6288 Y10.5324
G01 X21.0291 Y20.9327
G01 X36.5211 Y20.9327
G01 X36.7391 Y20.7147
G01 X36.7276 Y20.6905
G01 X36.7223 Y20.6778
G01 X36.7140 Y20.6547
G01 X36.7100 Y20.6415
G01 X36.7041 Y20.6177
G01 X36.7014 Y20.6042
G01 X36.6978 Y20.5800
G01 X36.6964 Y20.5663
G01 X36.6951 Y20.5349
G01 X36.6951 Y19.2349
G01 X36.6964 Y19.2035
G01 X36.6978 Y19.1898
G01 X36.7014 Y19.1655
G01 X36.7041 Y19.1521
G01 X36.7100 Y19.1283
G01 X36.7140 Y19.1151
G01 X36.7223 Y19.0920
G01 X36.7276 Y19.0793
G01 X36.7381 Y19.0571
G01 X36.7445 Y19.0450
G01 X36.7571 Y19.0239
G01 X36.7648 Y19.0125
G01 X36.7794 Y18.9928
G01 X36.7881 Y18.9821
G01 X36.8046 Y18.9640
G01 X36.8143 Y18.9542
G01 X36.8325 Y18.9378
G01 X36.8432 Y18.9290
G01 X36.8629 Y18.9144
G01 X36.8743 Y18.9068
G01 X36.8953 Y18.8942
G01 X36.9075 Y18.8877
G01 X36.9297 Y18.8772
G01 X36.9424 Y18.8719
G01 X36.9655 Y18.8637
G01 X36.9786 Y18.8597
G01 X37.0024 Y18.8537
G01 X37.0159 Y18.8510
G01 X37.0402 Y18.8474
G01 X37.0539 Y18.8461
G01 X37.0784 Y18.8449
G01 X37.0921 Y18.8449
G01 X37.1167 Y18.8461
G01 X37.1303 Y18.8474
G01 X37.1546 Y18.8510
G01 X37.1681 Y18.8537
G01 X37.1919 Y18.8597
G01 X37.2051 Y18.8637
G01 X37.2282 Y18.8719
G01 X37.2409 Y18.8772
G01 X37.2631 Y18.8877
G01 X37.2752 Y18.8942
G01 X37.2962 Y18.9068
G01 X37.3077 Y18.9144
G01 X37.3274 Y18.9290
G01 X37.3380 Y18.9378
G01 X37.3562 Y18.9542
G01 X37.3659 Y18.9640
G01 X37.3824 Y18.9821
G01 X37.3911 Y18.9928
G01 X37.4057 Y19.0125
G01 X37.4134 Y19.0239
G01 X37.4260 Y19.0450
G01 X37.4325 Y19.0571
G01 X37.4430 Y19.0793
G01 X37.4482 Y19.0920
G01 X37.4565 Y19.1151
G01 X37.4605 Y19.1283
G01 X37.4665 Y19.1521
G01 X37.4691 Y19.1655
G01 X37.4727 Y19.1898
G01 X37.4741 Y19.2035
G01 X37.4755 Y19.2349
G01 X37.4755 Y20.5349
G01 X37.4741 Y20.5663
G01 X37.4727 Y20.5800
G01 X37.4691 Y20.6042
G01 X37.4665 Y20.6177
G01 X37.4605 Y20.6415
G01 X37.4565 Y20.6547
G01 X37.4482 Y20.6778
G01 X37.4430 Y20.6905
G01 X37.4325 Y20.7127
G01 X37.4256 Y20.7255
G01 X37.4254 Y20.8567
G01 X37.4244 Y20.8763
G01 X37.4231 Y20.8900
G01 X37.4202 Y20.9095
G01 X37.4175 Y20.9229
G01 X37.4128 Y20.9420
G01 X37.4088 Y20.9552
G01 X37.4021 Y20.9736
G01 X37.3969 Y20.9864
G01 X37.3885 Y21.0041
G01 X37.3820 Y21.0162
G01 X37.3719 Y21.0331
G01 X37.3643 Y21.0445
G01 X37.3526 Y21.0603
G01 X37.3438 Y21.0709
G01 X37.3259 Y21.0905
G01 X36.9027 Y21.5136
G01 X36.8832 Y21.5316
G01 X36.8726 Y21.5403
G01 X36.8568 Y21.5520
G01 X36.8453 Y21.5596
G01 X36.8285 Y21.5697
G01 X36.8164 Y21.5762
G01 X36.7986 Y21.5846
G01 X36.7859 Y21.5899
G01 X36.7674 Y21.5965
G01 X36.7543 Y21.6005
G01 X36.7352 Y21.6053
G01 X36.7217 Y21.6079
G01 X36.7023 Y21.6108
G01 X36.6886 Y21.6122
G01 X36.6690 Y21.6131
G01 X20.8882 Y21.6133
G01 X20.8617 Y21.6122
G01 X20.8480 Y21.6108
G01 X20.8286 Y21.6079
G01 X20.8151 Y21.6053
G01 X20.7960 Y21.6005
G01 X20.7829 Y21.5965
G01 X20.7644 Y21.5899
G01 X20.7517 Y21.5846
G01 X20.7339 Y21.5762
G01 X20.7218 Y21.5697
G01 X20.7049 Y21.5596
G01 X20.6935 Y21.5520
G01 X20.6777 Y21.5403
G01 X20.6671 Y21.5316
G01 X20.6476 Y21.5136
G01 X10.0479 Y10.9140
G01 X10.0300 Y10.8944
G01 X10.0212 Y10.8838
G01 X10.0095 Y10.8680
G01 X10.0019 Y10.8566
G01 X9.9918 Y10.8397
G01 X9.9853 Y10.8276
G01 X9.9769 Y10.8098
G01 X9.9716 Y10.7971
G01 X9.9650 Y10.7786
G01 X9.9610 Y10.7655
G01 X9.9563 Y10.7464
G01 X9.9536 Y10.7329
G01 X9.9507 Y10.7135
G01 X9.9494 Y10.6998
G01 X9.9482 Y10.6733
G01 X9.9482 Y9.4694
G01 X9.9494 Y9.4429
G01 X9.9507 Y9.4292
G01 X9.9536 Y9.4098
G01 X9.9563 Y9.3963
G01 X9.9610 Y9.3772
G01 X9.9650 Y9.3641
G01 X9.9716 Y9.3456
G01 X9.9769 Y9.3329
G01 X9.9853 Y9.3151
G01 X9.9918 Y9.3030
G01 X10.0019 Y9.2861
G01 X10.0095 Y9.2747
G01 X10.0212 Y9.2589
G01 X10.0300 Y9.2483
G01 X10.0431 Y9.2337
G01 X10.7238 Y8.5528
G01 X10.7433 Y8.5349
G01 X10.7539 Y8.5262
G01 X10.7697 Y8.5145
G01 X10.7812 Y8.5068
G01 X10.7980 Y8.4967
G01 X10.8101 Y8.4903
G01 X10.8279 Y8.4819
G01 X10.8406 Y8.4766
G01 X10.8591 Y8.4700
G01 X10.8723 Y8.4660
G01 X10.8913 Y8.4612
G01 X10.9048 Y8.4585
G01 X10.9242 Y8.4557
G01 X10.9379 Y8.4543
G01 X10.9644 Y8.4532
G01 X17.9375 Y8.4532
G01 X17.9640 Y8.4543
G01 X17.9777 Y8.4557
G01 X17.9971 Y8.4585
G01 X18.0106 Y8.4612
G01 X18.0296 Y8.4660
G01 X18.0428 Y8.4700
G01 X18.0613 Y8.4766
G01 X18.0740 Y8.4819
G01 X18.0917 Y8.4903
G01 X18.1039 Y8.4967
G01 X18.1207 Y8.5068
G01 X18.1322 Y8.5145
G01 X18.1479 Y8.5262
G01 X18.1586 Y8.5349
G01 X18.1781 Y8.5528
G00 X18.1781 Y8.5528
G01 F60.00
G01 Z-0.1500
G01 F120.00
G01 X18.8366 Y9.2114
G01 X18.8430 Y9.2087
G01 X18.9123 Y9.1840
G01 X18.9254 Y9.1800
G01 X18.9968 Y9.1621
G01 X19.0102 Y9.1594
G01 X19.0830 Y9.1486
G01 X19.0967 Y9.1473
G01 X19.1701 Y9.1437
G01 X19.1839 Y9.1437
G01 X19.2573 Y9.1473
G01 X19.2710 Y9.1486
G01 X19.3438 Y9.1594
G01 X19.3572 Y9.1621
G01 X19.4286 Y9.1800
G01 X19.4417 Y9.1840
G01 X19.5110 Y9.2087
G01 X19.5237 Y9.2140
G01 X19.5902 Y9.2454
G01 X19.6023 Y9.2519
G01 X19.6654 Y9.2897
G01 X19.6768 Y9.2974
G01 X19.7359 Y9.3412
G01 X19.7465 Y9.3499
G01 X19.8010 Y9.3993
G01 X19.8107 Y9.4090
G01 X19.8601 Y9.4635
G01 X19.8688 Y9.4741
G01 X19.9126 Y9.5332
G01 X19.9203 Y9.5446
G01 X19.9581 Y9.6077
G01 X19.9646 Y9.6198
G01 X19.9960 Y9.6863
G01 X20.0013 Y9.6990
G01 X20.0260 Y9.7683
G01 X20.0300 Y9.7814
G01 X20.0479 Y9.8528
G01 X20.0506 Y9.8662
G01 X20.0614 Y9.9390
G01 X20.0627 Y9.9527
G01 X20.0663 Y10.0261
G01 X20.0663 Y10.0399
G01 X20.0627 Y10.1133
G01 X20.0614 Y10.1270
G01 X20.0506 Y10.1998
G01 X20.0479 Y10.2132
G01 X20.0300 Y10.2846
G01 X20.0260 Y10.2977
G01 X20.0013 Y10.3670
G01 X19.9960 Y10.3797
G01 X19.9646 Y10.4462
G01 X19.9581 Y10.4583
G01 X19.9203 Y10.5214
G01 X19.9126 Y10.5328
G01 X19.8688 Y10.5919
G01 X19.8601 Y10.6025
G01 X19.8107 Y10.6570
G01 X19.8010 Y10.6667
G01 X19.7465 Y10.7161
G01 X19.7359 Y10.7248
G01 X19.6768 Y10.7686
G01 X19.6654 Y10.7763
G01 X19.6023 Y10.8141
G01 X19.5902 Y10.8206
G01 X19.5237 Y10.8520
G01 X19.5110 Y10.8573
G01 X19.4417 Y10.8820
G01 X19.4286 Y10.8860
G01 X19.3572 Y10.9039
G01 X19.3438 Y10.9066
G01 X19.2710 Y10.9174
G01 X19.2573 Y10.9187
G01 X19.1839 Y10.9223
G01 X19.1701 Y10.9223
G01 X19.0967 Y10.9187
G01 X19.0830 Y10.9174
G01 X19.0102 Y10.9066
G01 X18.9968 Y10.9039
G01 X18.9254 Y10.8860
G01 X18.9123 Y10.8820
G01 X18.8430 Y10.8573
G01 X18.8303 Y10.8520
G01 X18.7638 Y10.8206
G01 X18.7517 Y10.8141
G01 X18.6886 Y10.7763
G01 X18.6772 Y10.7686
G01 X18.6181 Y10.7248
G01 X18.6075 Y10.7161
G01 X18.5530 Y10.6667
G01 X18.5433 Y10.6570
G01 X18.4939 Y10.6025
G01 X18.4852 Y10.5919
G01 X18.4414 Y10.5328
G01 X18.4337 Y10.5214
G01 X18.3959 Y10.4583
G01 X18.3894 Y10.4462
G01 X18.3580 Y10.3797
G01 X18.3527 Y10.3670
G01 X18.3280 Y10.2977
G01 X18.3240 Y10.2846
G01 X18.3061 Y10.2132
G01 X18.3034 Y10.1998
G01 X18.2926 Y10.1270
G01 X18.2913 Y10.1133
G01 X18.2877 Y10.0399
G01 X18.2877 Y10.0261
G01 X18.2913 Y9.9527
G01 X18.2926 Y9.9390
G01 X18.3034 Y9.8662
G01 X18.3061 Y9.8528
G01 X18.3240 Y9.7814
G01 X18.3280 Y9.7683
G01 X18.3527 Y9.6990
G01 X18.3554 Y9.6926
G01 X17.7965 Y9.1338
G01 X11.1054 Y9.1338
G01 X10.6288 Y9.6103
G01 X10.6288 Y10.5324
G01 X21.0291 Y20.9327
G01 X36.5211 Y20.9327
G01 X36.7391 Y20.7147
G01 X36.7276 Y20.6905
G01 X36.7223 Y20.6778
G01 X36.7140 Y20.6547
G01 X36.7100 Y20.6415
G01 X36.7041 Y20.6177
G01 X36.7014 Y20.6042
G01 X36.6978 Y20.5800
G01 X36.6964 Y20.5663
G01 X36.6951 Y20.5349
G01 X36.6951 Y19.2349
G01 X36.6964 Y19.2035
G01 X36.6978 Y19.1898
G01 X36.7014 Y19.1655
G01 X36.7041 Y19.1521
G01 X36.7100 Y19.1283
G01 X36.7140 Y19.1151
G01 X36.7223 Y19.0920
G01 X36.7276 Y19.0793
G01 X36.7381 Y19.0571
G01 X36.7445 Y19.0450
G01 X36.7571 Y19.0239
G01 X36.7648 Y19.0125
G01 X36.7794 Y18.9928
G01 X36.7881 Y18.9821
G01 X36.8046 Y18.9640
G01 X36.8143 Y18.9542
G01 X36.8325 Y18.9378
G01 X36.8432 Y18.9290
G01 X36.8629 Y18.9144
G01 X36.8743 Y18.9068
G01 X36.8953 Y18.8942
G01 X36.9075 Y18.8877
G01 X36.9297 Y18.8772
G01 X36.9424 Y18.8719
G01 X36.9655 Y18.8637
G01 X36.9786 Y18.8597
G01 X37.0024 Y18.8537
G01 X37.0159 Y18.8510
G01 X37.0402 Y18.8474
G01 X37.0539 Y18.8461
G01 X37.0784 Y18.8449
G01 X37.0921 Y18.8449
G01 X37.1167 Y18.8461
G01 X37.1303 Y18.8474
G01 X37.1546 Y18.8510
G01 X37.1681 Y18.8537
G01 X37.1919 Y18.8597
G01 X37.2051 Y18.8637
G01 X37.2282 Y18.8719
G01 X37.2409 Y18.8772
G01 X37.2631 Y18.8877
G01 X37.2752 Y18.8942
G01 X37.2962 Y18.9068
G01 X37.3077 Y18.9144
G01 X37.3274 Y18.9290
G01 X37.3380 Y18.9378
G01 X37.3562 Y18.9542
G01 X37.3659 Y18.9640
G01 X37.3824 Y18.9821
G01 X37.3911 Y18.9928
G01 X37.4057 Y19.0125
G01 X37.4134 Y19.0239
G01 X37.4260 Y19.0450
G01 X37.4325 Y19.0571
G01 X37.4430 Y19.0793
G01 X37.4482 Y19.0920
G01 X37.4565 Y19.1151
G01 X37.4605 Y19.1283
G01 X37.4665 Y19.1521
G01 X37.4691 Y19.1655
G01 X37.4727 Y19.1898
G01 X37.4741 Y19.2035
G01 X37.4755 Y19.2349
G01 X37.4755 Y20.5349
G01 X37.4741 Y20.5663
G01 X37.4727 Y20.5800
G01 X37.4691 Y20.6042
G01 X37.4665 Y20.6177
G01 X37.4605 Y20.6415
G01 X37.4565 Y20.6547
G01 X37.4482 Y20.6778
G01 X37.4430 Y20.6905
G01 X37.4325 Y20.7127
G01 X37.4256 Y20.7255
G01 X37.4254 Y20.8567
G01 X37.4244 Y20.8763
G01 X37.4231 Y20.8900
G01 X37.4202 Y20.9095
G01 X37.4175 Y20.9229
G01 X37.4128 Y20.9420
G01 X37.4088 Y20.9552
G01 X37.4021 Y20.9736
G01 X37.3969 Y20.9864
G01 X37.3885 Y21.0041
G01 X37.3820 Y21.0162
G01 X37.3719 Y21.0331
G01 X37.3643 Y21.0445
G01 X37.3526 Y21.0603
G01 X37.3438 Y21.0709
G01 X37.3259 Y21.0905
G01 X36.9027 Y21.5136
G01 X36.8832 Y21.5316
G01 X36.8726 Y21.5403
G01 X36.8568 Y21.5520
G01 X36.8453 Y21.5596
G01 X36.8285 Y21.5697
G01 X36.8164 Y21.5762
G01 X36.7986 Y21.5846
G01 X36.7859 Y21.5899
G01 X36.7674 Y21.5965
G01 X36.7543 Y21.6005
G01 X36.7352 Y21.6053
G01 X36.7217 Y21.6079
G01 X36.7023 Y21.6108
G01 X36.6886 Y21.6122
G01 X36.6690 Y21.6131
G01 X20.8882 Y21.6133
G01 X20.8617 Y21.6122
G01 X20.8480 Y21.6108
G01 X20.8286 Y21.6079
G01 X20.8151 Y21.6053
G01 X20.7960 Y21.6005
G01 X20.7829 Y21.5965
G01 X20.7644 Y21.5899
G01 X20.7517 Y21.5846
G01 X20.7339 Y21.5762
G01 X20.7218 Y21.5697
G01 X20.7049 Y21.5596
G01 X20.6935 Y21.5520
G01 X20.6777 Y21.5403
G01 X20.6671 Y21.5316
G01 X20.6476 Y21.5136
G01 X10.0479 Y10.9140
G01 X10.0300 Y10.8944
G01 X10.0212 Y10.8838
G01 X10.0095 Y10.8680
G01 X10.0019 Y10.8566
G01 X9.9918 Y10.8397
G01 X9.9853 Y10.8276
G01 X9.9769 Y10.8098
G01 X9.9716 Y10.7971
G01 X9.9650 Y10.7786
G01 X9.9610 Y10.7655
G01 X9.9563 Y10.7464
G01 X9.9536 Y10.7329
G01 X9.9507 Y10.7135
G01 X9.9494 Y10.6998
G01 X9.9482 Y10.6733
G01 X9.9482 Y9.4694
G01 X9.9494 Y9.4429
G01 X9.9507 Y9.4292
G01 X9.9536 Y9.4098
G01 X9.9563 Y9.3963
G01 X9.9610 Y9.3772
G01 X9.9650 Y9.3641
G01 X9.9716 Y9.3456
G01 X9.9769 Y9.3329
G01 X9.9853 Y9.3151
G01 X9.9918 Y9.3030
G01 X10.0019 Y9.2861
G01 X10.0095 Y9.2747
G01 X10.0212 Y9.2589
G01 X10.0300 Y9.2483
G01 X10.0431 Y9.2337
G01 X10.7238 Y8.5528
G01 X10.7433 Y8.5349
G01 X10.7539 Y8.5262
G01 X10.7697 Y8.5145
G01 X10.7812 Y8.5068
G01 X10.7980 Y8.4967
G01 X10.8101 Y8.4903
G01 X10.8279 Y8.4819
G01 X10.8406 Y8.4766
G01 X10.8591 Y8.4700
G01 X10.8723 Y8.4660
G01 X10.8913 Y8.4612
G01 X10.9048 Y8.4585
G01 X10.9242 Y8.4557
G01 X10.9379 Y8.4543
G01 X10.9644 Y8.4532
G01 X17.9375 Y8.4532
G01 X17.9640 Y8.4543
G01 X17.9777 Y8.4557
G01 X17.9971 Y8.4585
G01 X18.0106 Y8.4612
G01 X18.0296 Y8.4660
G01 X18.0428 Y8.4700
G01 X18.0613 Y8.4766
G01 X18.0740 Y8.4819
G01 X18.0917 Y8.4903
G01 X18.1039 Y8.4967
G01 X18.1207 Y8.5068
G01 X18.1322 Y8.5145
G01 X18.1479 Y8.5262
G01 X18.1586 Y8.5349
G01 X18.1781 Y8.5528
G00 Z2.0000
G00 X22.0574 Y10.8546
G01 F60.00
G01 Z-0.0800
G01 F120.00
G01 X22.0510 Y10.8573
G01 X21.9817 Y10.8820
G01 X21.9686 Y10.8860
G01 X21.8972 Y10.9039
G01 X21.8838 Y10.9066
G01 X21.8110 Y10.9174
G01 X21.7973 Y10.9187
G01 X21.7239 Y10.9223
G01 X21.7101 Y10.9223
G01 X21.6367 Y10.9187
G01 X21.6230 Y10.9174
G01 X21.5502 Y10.9066
G01 X21.5368 Y10.9039
G01 X21.4654 Y10.8860
G01 X21.4523 Y10.8820
G01 X21.3830 Y10.8573
G01 X21.3703 Y10.8520
G01 X21.3038 Y10.8206
G01 X21.2917 Y10.8141
G01 X21.2286 Y10.7763
G01 X21.2172 Y10.7686
G01 X21.1581 Y10.7248
G01 X21.1475 Y10.7161
G01 X21.0930 Y10.6667
G01 X21.0833 Y10.6570
G01 X21.0339 Y10.6025
G01 X21.0252 Y10.5919
G01 X20.9814 Y10.5328
G01 X20.9737 Y10.5214
G01 X20.9359 Y10.4583
G01 X20.9294 Y10.4462
G01 X20.8980 Y10.3797
G01 X20.8927 Y10.3670
G01 X20.8680 Y10.2977
G01 X20.8640 Y10.2846
G01 X20.8461 Y10.2132
G01 X20.8434 Y10.1998
G01 X20.8326 Y10.1270
G01 X20.8313 Y10.1133
G01 X20.8277 Y10.0399
G01 X20.8277 Y10.0261
G01 X20.8313 Y9.9527
G01 X20.8326 Y9.9390
G01 X20.8434 Y9.8662
G01 X20.8461 Y9.8528
G01 X20.8640 Y9.7814
G01 X20.8680 Y9.7683
G01 X20.8927 Y9.6990
G01 X20.8980 Y9.6863
G01 X20.9294 Y9.6198
G01 X20.9359 Y9.6077
G01 X20.9737 Y9.5446
G01 X20.9814 Y9.5332
G01 X21.0252 Y9.4741
G01 X21.0339 Y9.4635
G01 X21.0833 Y9.4090
G01 X21.0930 Y9.3993
G01 X21.1475 Y9.3499
G01 X21.1581 Y9.3412
G01 X21.2172 Y9.2974
G01 X21.2286 Y9.2897
G01 X21.2917 Y9.2519
G01 X21.3038 Y9.2454
G01 X21.3703 Y9.2140
G01 X21.3830 Y9.2087
G01 X21.4523 Y9.1840
G01 X21.4654 Y9.1800
G01 X21.5368 Y9.1621
G01 X21.5502 Y9.1594
G01 X21.6230 Y9.1486
G01 X21.6367 Y9.1473
G01 X21.7101 Y9.1437
G01 X21.7239 Y9.1437
G01 X21.7973 Y9.1473
G01 X21.8110 Y9.1486
G01 X21.8838 Y9.1594
G01 X21.8972 Y9.1621
G01 X21.9686 Y9.1800
G01 X21.9817 Y9.1840
G01 X22.0510 Y9.2087
G01 X22.0637 Y9.2140
G01 X22.1302 Y9.2454
G01 X22.1423 Y9.2519
G01 X22.2054 Y9.2897
G01 X22.2168 Y9.2974
G01 X22.2759 Y9.3412
G01 X22.2865 Y9.3499
G01 X22.3410 Y9.3993
G01 X22.3507 Y9.4090
G01 X22.4001 Y9.4635
G01 X22.4088 Y9.4741
G01 X22.4526 Y9.5332
G01 X22.4603 Y9.5446
G01 X22.4981 Y9.6077
G01 X22.5046 Y9.6198
G01 X22.5360 Y9.6863
G01 X22.5413 Y9.6990
G01 X22.5660 Y9.7683
G01 X22.5700 Y9.7814
G01 X22.5879 Y9.8528
G01 X22.5906 Y9.8662
G01 X22.6014 Y9.9390
G01 X22.6027 Y9.9527
G01 X22.6063 Y10.0261
G01 X22.6063 Y10.0399
G01 X22.6027 Y10.1133
G01 X22.6014 Y10.1270
G01 X22.5906 Y10.1998
G01 X22.5879 Y10.2132
G01 X22.5700 Y10.2846
G01 X22.5660 Y10.2977
G01 X22.5413 Y10.3670
G01 X22.5386 Y10.3734
G01 X26.6636 Y14.4984
G01 X33.9346 Y14.4984
G01 X33.9611 Y14.4995
G01 X33.9748 Y14.5009
G01 X33.9943 Y14.5037
G01 X34.0078 Y14.5064
G01 X34.0268 Y14.5112
G01 X34.0400 Y14.5152
G01 X34.0585 Y14.5218
G01 X34.0712 Y14.5271
G01 X34.0889 Y14.5355
G01 X34.1011 Y14.5420
G01 X34.1179 Y14.5520
G01 X34.1293 Y14.5597
G01 X34.1451 Y14.5714
G01 X34.1557 Y14.5801
G01 X34.1753 Y14.5981
G01 X38.1257 Y18.5485
G01 X38.1437 Y18.5680
G01 X38.1524 Y18.5787
G01 X38.1641 Y18.5945
G01 X38.1717 Y18.6059
G01 X38.1818 Y18.6227
G01 X38.1883 Y18.6349
G01 X38.1967 Y18.6526
G01 X38.2020 Y18.6653
G01 X38.2086 Y18.6838
G01 X38.2126 Y18.6970
G01 X38.2174 Y18.7160
G01 X38.2200 Y18.7295
G01 X38.2229 Y18.7490
G01 X38.2243 Y18.7626
G01 X38.2254 Y18.7891
G01 X38.2254 Y19.0442
G01 X38.2323 Y19.0571
G01 X38.2428 Y19.0793
G01 X38.2481 Y19.0920
G01 X38.2563 Y19.1151
G01 X38.2603 Y19.1283
G01 X38.2663 Y19.1521
G01 X38.2690 Y19.1655
G01 X38.2726 Y19.1898
G01 X38.2739 Y19.2035
G01 X38.2753 Y19.2349
G01 X38.2751 Y20.5418
G01 X38.2739 Y20.5663
G01 X38.2726 Y20.5800
G01 X38.2690 Y20.6042
G01 X38.2663 Y20.6177
G01 X38.2603 Y20.6415
G01 X38.2563 Y20.6547
G01 X38.2481 Y20.6778
G01 X38.2428 Y20.6905
G01 X38.2323 Y20.7127
G01 X38.2258 Y20.7248
G01 X38.2132 Y20.7459
G01 X38.2056 Y20.7573
G01 X38.1910 Y20.7770
G01 X38.1822 Y20.7876
G01 X38.1658 Y20.8058
G01 X38.1560 Y20.8155
G01 X38.1379 Y20.8320
G01 X38.1272 Y20.8408
G01 X38.1075 Y20.8554
G01 X38.0961 Y20.8630
G01 X38.0750 Y20.8756
G01 X38.0629 Y20.8821
G01 X38.0407 Y20.8926
G01 X38.0280 Y20.8979
G01 X38.0049 Y20.9061
G01 X37.9917 Y20.9101
G01 X37.9679 Y20.9161
G01 X37.9545 Y20.9188
G01 X37.9302 Y20.9224
G01 X37.9165 Y20.9237
G01 X37.8920 Y20.9249
G01 X37.8782 Y20.9249
G01 X37.8537 Y20.9237
G01 X37.8400 Y20.9224
G01 X37.8158 Y20.9188
G01 X37.8023 Y20.9161
G01 X37.7785 Y20.9101
G01 X37.7653 Y20.9061
G01 X37.7422 Y20.8979
G01 X37.7295 Y20.8926
G01 X37.7073 Y20.8821
G01 X37.6952 Y20.8756
G01 X37.6741 Y20.8630
G01 X37.6627 Y20.8554
G01 X37.6430 Y20.8408
G01 X37.6324 Y20.8320
G01 X37.6142 Y20.8155
G01 X37.6045 Y20.8058
G01 X37.5880 Y20.7876
G01 X37.5792 Y20.7770
G01 X37.5646 Y20.7573
G01 X37.5570 Y20.7459
G01 X37.5444 Y20.7248
G01 X37.5379 Y20.7127
G01 X37.5274 Y20.6905
G01 X37.5221 Y20.6778
G01 X37.5139 Y20.6547
G01 X37.5099 Y20.6415
G01 X37.5039 Y20.6177
G01 X37.5012 Y20.6042
G01 X37.4976 Y20.5800
G01 X37.4963 Y20.5663
G01 X37.4949 Y20.5349
G01 X37.4949 Y19.2349
G01 X37.4963 Y19.2035
G01 X37.4976 Y19.1898
G01 X37.5012 Y19.1655
G01 X37.5039 Y19.1521
G01 X37.5099 Y19.1283
G01 X37.5139 Y19.1151
G01 X37.5221 Y19.0920
G01 X37.5274 Y19.0793
G01 X37.5379 Y19.0571
G01 X37.5448 Y19.0442
G01 X37.5448 Y18.9301
G01 X33.7937 Y15.1790
G01 X26.5227 Y15.1790
G01 X26.4962 Y15.1778
G01 X26.4825 Y15.1765
G01 X26.4631 Y15.1736
G01 X26.4496 Y15.1709
G01 X26.4305 Y15.1662
G01 X26.4174 Y15.1622
G01 X26.3989 Y15.1556
G01 X26.3862 Y15.1503
G01 X26.3684 Y15.1419
G01 X26.3563 Y15.1354
G01 X26.3394 Y15.1253
G01 X26.3280 Y15.1177
G01 X26.3122 Y15.1060
G01 X26.3016 Y15.0972
G01 X26.2821 Y15.0793
G01 X22.0574 Y10.8546
G00 X22.0574 Y10.8546
G01 F60.00
G01 Z-0.1500
G01 F120.00
G01 X22.0510 Y10.8573
G01 X21.9817 Y10.8820
G01 X21.9686 Y10.8860
G01 X21.8972 Y10.9039
G01 X21.8838 Y10.9066
G01 X21.8110 Y10.9174
G01 X21.7973 Y10.9187
G01 X21.7239 Y10.9223
G01 X21.7101 Y10.9223
G01 X21.6367 Y10.9187
G01 X21.6230 Y10.9174
G01 X21.5502 Y10.9066
G01 X21.5368 Y10.9039
G01 X21.4654 Y10.8860
G01 X21.4523 Y10.8820
G01 X21.3830 Y10.8573
G01 X21.3703 Y10.8520
G01 X21.3038 Y10.8206
G01 X21.2917 Y10.8141
G01 X21.2286 Y10.7763
G01 X21.2172 Y10.7686
G01 X21.1581 Y10.7248
G01 X21.1475 Y10.7161
G01 X21.0930 Y10.6667
G01 X21.0833 Y10.6570
G01 X21.0339 Y10.6025
G01 X21.0252 Y10.5919
G01 X20.9814 Y10.5328
G01 X20.9737 Y10.5214
G01 X20.9359 Y10.4583
G01 X20.9294 Y10.4462
G01 X20.8980 Y10.3797
G01 X20.8927 Y10.3670
G01 X20.8680 Y10.2977
G01 X20.8640 Y10.2846
G01 X20.8461 Y10.2132
G01 X20.8434 Y10.1998
G01 X20.8326 Y10.1270
G01 X20.8313 Y10.1133
G01 X20.8277 Y10.0399
G01 X20.8277 Y10.0261
G01 X20.8313 Y9.9527
G01 X20.8326 Y9.9390
G01 X20.8434 Y9.8662
G01 X20.8461 Y9.8528
G01 X20.8640 Y9.7814
G01 X20.8680 Y9.7683
G01 X20.8927 Y9.6990
G01 X20.8980 Y9.6863
G01 X20.9294 Y9.6198
G01 X20.9359 Y9.6077
G01 X20.9737 Y9.5446
G01 X20.9814 Y9.5332
G01 X21.0252 Y9.4741
G01 X21.0339 Y9.4635
G01 X21.0833 Y9.4090
G01 X21.0930 Y9.3993
G01 X21.1475 Y9.3499
G01 X21.1581 Y9.3412
G01 X21.2172 Y9.2974
G01 X21.2286 Y9.2897
G01 X21.2917 Y9.2519
G01 X21.3038 Y9.2454
G01 X21.3703 Y9.2140
G01 X21.3830 Y9.2087
G01 X21.4523 Y9.1840
G01 X21.4654 Y9.1800
G01 X21.5368 Y9.1621
G01 X21.5502 Y9.1594
G01 X21.6230 Y9.1486
G01 X21.6367 Y9.1473
G01 X21.7101 Y9.1437
G01 X21.7239 Y9.1437
G01 X21.7973 Y9.1473
G01 X21.8110 Y9.1486
G01 X21.8838 Y9.1594
G01 X21.8972 Y9.1621
G01 X21.9686 Y9.1800
G01 X21.9817 Y9.1840
G01 X22.0510 Y9.2087
G01 X22.0637 Y9.2140
G01 X22.1302 Y9.2454
G01 X22.1423 Y9.2519
G01 X22.2054 Y9.2897
G01 X22.2168 Y9.2974
G01 X22.2759 Y9.3412
G01 X22.2865 Y9.3499
G01 X22.3410 Y9.3993
G01 X22.3507 Y9.4090
G01 X22.4001 Y9.4635
G01 X22.4088 Y9.4741
G01 X22.4526 Y9.5332
G01 X22.4603 Y9.5446
G01 X22.4981 Y9.6077
G01 X22.5046 Y9.6198
G01 X22.5360 Y9.6863
G01 X22.5413 Y9.6990
G01 X22.5660 Y9.7683
G01 X22.5700 Y9.7814
G01 X22.5879 Y9.8528
G01 X22.5906 Y9.8662
G01 X22.6014 Y9.9390
G01 X22.6027 Y9.9527
G01 X22.6063 Y10.0261
G01 X22.6063 Y10.0399
G01 X22.6027 Y10.1133
G01 X22.6014 Y10.1270
G01 X22.5906 Y10.1998
G01 X22.5879 Y10.2132
G01 X22.5700 Y10.2846
G01 X22.5660 Y10.2977
G01 X22.5413 Y10.3670
G01 X22.5386 Y10.3734
G01 X26.6636 Y14.4984
G01 X33.9346 Y14.4984
G01 X33.9611 Y14.4995
G01 X33.9748 Y14.5009
G01 X33.9943 Y14.5037
G01 X34.0078 Y14.5064
G01 X34.0268 Y14.5112
G01 X34.0400 Y14.5152
G01 X34.0585 Y14.5218
G01 X34.0712 Y14.5271
G01 X34.0889 Y14.5355
G01 X34.1011 Y14.5420
G01 X34.1179 Y14.5520
G01 X34.1293 Y14.5597
G01 X34.1451 Y14.5714
G01 X34.1557 Y14.5801
G01 X34.1753 Y14.5981
G01 X38.1257 Y18.5485
G01 X38.1437 Y18.5680
G01 X38.1524 Y18.5787
G01 X38.1641 Y18.5945
G01 X38.1717 Y18.6059
G01 X38.1818 Y18.6227
G01 X38.1883 Y18.6349
G01 X38.1967 Y18.6526
G01 X38.2020 Y18.6653
G01 X38.2086 Y18.6838
G01 X38.2126 Y18.6970
G01 X38.2174 Y18.7160
G01 X38.2200 Y18.7295
G01 X38.2229 Y18.7490
G01 X38.2243 Y18.7626
G01 X38.2254 Y18.7891
G01 X38.2254 Y19.0442
G01 X38.2323 Y19.0571
G01 X38.2428 Y19.0793
G01 X38.2481 Y19.0920
G01 X38.2563 Y19.1151
G01 X38.2603 Y19.1283
G01 X38.2663 Y19.1521
G01 X38.2690 Y19.1655
G01 X38.2726 Y19.1898
G01 X38.2739 Y19.2035
G01 X38.2753 Y19.2349
G01 X38.2751 Y20.5418
G01 X38.2739 Y20.5663
G01 X38.2726 Y20.5800
G01 X38.2690 Y20.6042
G01 X38.2663 Y20.6177
G01 X38.2603 Y20.6415
G01 X38.2563 Y20.6547
G01 X38.2481 Y20.6778
G01 X38.2428 Y20.6905
G01 X38.2323 Y20.7127
G01 X38.2258 Y20.7248
G01 X38.2132 Y20.7459
G01 X38.2056 Y20.7573
G01 X38.1910 Y20.7770
G01 X38.1822 Y20.7876
G01 X38.1658 Y20.8058
G01 X38.1560 Y20.8155
G01 X38.1379 Y20.8320
G01 X38.1272 Y20.8408
G01 X38.1075 Y20.8554
G01 X38.0961 Y20.8630
G01 X38.0750 Y20.8756
G01 X38.0629 Y20.8821
G01 X38.0407 Y20.8926
G01 X38.0280 Y20.8979
G01 X38.0049 Y20.9061
G01 X37.9917 Y20.9101
G01 X37.9679 Y20.9161
G01 X37.9545 Y20.9188
G01 X37.9302 Y20.9224
G01 X37.9165 Y20.9237
G01 X37.8920 Y20.9249
G01 X37.8782 Y20.9249
G01 X37.8537 Y20.9237
G01 X37.8400 Y20.9224
G01 X37.8158 Y20.9188
G01 X37.8023 Y20.9161
G01 X37.7785 Y20.9101
G01 X37.7653 Y20.9061
G01 X37.7422 Y20.8979
G01 X37.7295 Y20.8926
G01 X37.7073 Y20.8821
G01 X37.6952 Y20.8756
G01 X37.6741 Y20.8630
G01 X37.6627 Y20.8554
G01 X37.6430 Y20.8408
G01 X37.6324 Y20.8320
G01 X37.6142 Y20.8155
G01 X37.6045 Y20.8058
G01 X37.5880 Y20.7876
G01 X37.5792 Y20.7770
G01 X37.5646 Y20.7573
G01 X37.5570 Y20.7459
G01 X37.5444 Y20.7248
G01 X37.5379 Y20.7127
G01 X37.5274 Y20.6905
G01 X37.5221 Y20.6778
G01 X37.5139 Y20.6547
G01 X37.5099 Y20.6415
G01 X37.5039 Y20.6177
G01 X37.5012 Y20.6042
G01 X37.4976 Y20.5800
G01 X37.4963 Y20.5663
G01 X37.4949 Y20.5349
G01 X37.4949 Y19.2349
G01 X37.4963 Y19.2035
G01 X37.4976 Y19.1898
G01 X37.5012 Y19.1655
G01 X37.5039 Y19.1521
G01 X37.5099 Y19.1283
G01 X37.5139 Y19.1151
G01 X37.5221 Y19.0920
G01 X37.5274 Y19.0793
G01 X37.5379 Y19.0571
G01 X37.5448 Y19.0442
G01 X37.5448 Y18.9301
G01 X33.7937 Y15.1790
G01 X26.5227 Y15.1790
G01 X26.4962 Y15.1778
G01 X26.4825 Y15.1765
G01 X26.4631 Y15.1736
G01 X26.4496 Y15.1709
G01 X26.4305 Y15.1662
G01 X26.4174 Y15.1622
G01 X26.3989 Y15.1556
G01 X26.3862 Y15.1503
G01 X26.3684 Y15.1419
G01 X26.3563 Y15.1354
G01 X26.3394 Y15.1253
G01 X26.3280 Y15.1177
G01 X26.3122 Y15.1060
G01 X26.3016 Y15.0972
G01 X26.2821 Y15.0793
G01 X22.0574 Y10.8546
G00 Z2.0000
G00 X23.4354 Y9.6926
G01 F60.00
G01 Z-0.0800
G01 F120.00
G01 X22.0576 Y8.3149
G01 X10.9575 Y8.3149
G01 X9.9191 Y9.3533
G01 X9.9191 Y10.9753
G01 X20.6194 Y21.6757
G01 X37.4109 Y21.6757
G01 X38.3449 Y20.7417
G01 X38.3449 Y20.7255
G01 X38.3380 Y20.7127
G01 X38.3275 Y20.6905
G01 X38.3222 Y20.6778
G01 X38.3140 Y20.6547
G01 X38.3100 Y20.6415
G01 X38.3040 Y20.6177
G01 X38.3013 Y20.6042
G01 X38.2977 Y20.5800
G01 X38.2964 Y20.5663
G01 X38.2952 Y20.5418
G01 X38.2950 Y19.2349
G01 X38.2964 Y19.2035
G01 X38.2977 Y19.1898
G01 X38.3013 Y19.1655
G01 X38.3040 Y19.1521
G01 X38.3100 Y19.1283
G01 X38.3140 Y19.1151
G01 X38.3222 Y19.0920
G01 X38.3275 Y19.0793
G01 X38.3380 Y19.0571
G01 X38.3445 Y19.0450
G01 X38.3571 Y19.0239
G01 X38.3647 Y19.0125
G01 X38.3793 Y18.9928
G01 X38.3881 Y18.9821
G01 X38.4046 Y18.9640
G01 X38.4143 Y18.9542
G01 X38.4325 Y18.9378
G01 X38.4431 Y18.9290
G01 X38.4628 Y18.9144
G01 X38.4742 Y18.9068
G01 X38.4953 Y18.8942
G01 X38.5074 Y18.8877
G01 X38.5296 Y18.8772
G01 X38.5423 Y18.8719
G01 X38.5654 Y18.8637
G01 X38.5786 Y18.8597
G01 X38.6024 Y18.8537
G01 X38.6159 Y18.8510
G01 X38.6401 Y18.8474
G01 X38.6538 Y18.8461
G01 X38.6783 Y18.8449
G01 X38.6921 Y18.8449
G01 X38.7166 Y18.8461
G01 X38.7303 Y18.8474
G01 X38.7546 Y18.8510
G01 X38.7680 Y18.8537
G01 X38.7918 Y18.8597
G01 X38.8050 Y18.8637
G01 X38.8281 Y18.8719
G01 X38.8408 Y18.8772
G01 X38.8630 Y18.8877
G01 X38.8751 Y18.8942
G01 X38.8962 Y18.9068
G01 X38.9076 Y18.9144
G01 X38.9273 Y18.9290
G01 X38.9380 Y18.9378
G01 X38.9561 Y18.9542
G01 X38.9659 Y18.9640
G01 X38.9823 Y18.9821
G01 X38.9911 Y18.9928
G01 X39.0057 Y19.0125
G01 X39.0133 Y19.0239
G01 X39.0259 Y19.0450
G01 X39.0324 Y19.0571
G01 X39.0429 Y19.0793
G01 X39.0482 Y19.0920
G01 X39.0564 Y19.1151
G01 X39.0604 Y19.1283
G01 X39.0664 Y19.1521
G01 X39.0691 Y19.1655
G01 X39.0727 Y19.1898
G01 X39.0740 Y19.2035
G01 X39.0754 Y19.2349
G01 X39.0754 Y20.5349
G01 X39.0740 Y20.5663
G01 X39.0727 Y20.5800
G01 X39.0691 Y20.6042
G01 X39.0664 Y20.6177
G01 X39.0604 Y20.6415
G01 X39.0564 Y20.6547
G01 X39.0482 Y20.6778
G01 X39.0429 Y20.6905
G01 X39.0324 Y20.7127
G01 X39.0255 Y20.7255
G01 X39.0253 Y20.8895
G01 X39.0244 Y20.9091
G01 X39.0230 Y20.9228
G01 X39.0201 Y20.9422
G01 X39.0175 Y20.9557
G01 X39.0127 Y20.9748
G01 X39.0087 Y20.9879
G01 X39.0021 Y21.0064
G01 X38.9968 Y21.0191
G01 X38.9884 Y21.0369
G01 X38.9819 Y21.0490
G01 X38.9718 Y21.0659
G01 X38.9642 Y21.0773
G01 X38.9525 Y21.0931
G01 X38.9438 Y21.1037
G01 X38.9258 Y21.1232
G01 X37.7875 Y22.2613
G01 X37.7730 Y22.2745
G01 X37.7623 Y22.2832
G01 X37.7465 Y22.2949
G01 X37.7351 Y22.3026
G01 X37.7183 Y22.3127
G01 X37.7061 Y22.3192
G01 X37.6884 Y22.3276
G01 X37.6757 Y22.3328
G01 X37.6572 Y22.3394
G01 X37.6440 Y22.3434
G01 X37.6250 Y22.3482
G01 X37.6115 Y22.3509
G01 X37.5920 Y22.3538
G01 X37.5784 Y22.3551
G01 X37.5519 Y22.3562
G01 X20.4785 Y22.3562
G01 X20.4520 Y22.3551
G01 X20.4383 Y22.3538
G01 X20.4189 Y22.3509
G01 X20.4054 Y22.3482
G01 X20.3863 Y22.3434
G01 X20.3732 Y22.3394
G01 X20.3547 Y22.3328
G01 X20.3420 Y22.3276
G01 X20.3242 Y22.3192
G01 X20.3121 Y22.3127
G01 X20.2952 Y22.3026
G01 X20.2838 Y22.2949
G01 X20.2680 Y22.2832
G01 X20.2574 Y22.2745
G01 X20.2379 Y22.2566
G01 X9.3382 Y11.3569
G01 X9.3203 Y11.3374
G01 X9.3116 Y11.3268
G01 X9.2999 Y11.3110
G01 X9.2922 Y11.2995
G01 X9.2821 Y11.2827
G01 X9.2756 Y11.2706
G01 X9.2672 Y11.2528
G01 X9.2620 Y11.2401
G01 X9.2554 Y11.2216
G01 X9.2514 Y11.2085
G01 X9.2466 Y11.1894
G01 X9.2439 Y11.1759
G01 X9.2410 Y11.1565
G01 X9.2397 Y11.1428
G01 X9.2385 Y11.1163
G01 X9.2385 Y9.2123
G01 X9.2397 Y9.1858
G01 X9.2410 Y9.1721
G01 X9.2439 Y9.1527
G01 X9.2466 Y9.1392
G01 X9.2514 Y9.1202
G01 X9.2554 Y9.1070
G01 X9.2620 Y9.0885
G01 X9.2672 Y9.0758
G01 X9.2756 Y9.0580
G01 X9.2821 Y9.0459
G01 X9.2922 Y9.0291
G01 X9.2999 Y9.0176
G01 X9.3116 Y9.0019
G01 X9.3203 Y8.9912
G01 X9.3382 Y8.9717
G01 X10.5760 Y7.7340
G01 X10.5955 Y7.7160
G01 X10.6061 Y7.7073
G01 X10.6219 Y7.6956
G01 X10.6333 Y7.6879
G01 X10.6502 Y7.6779
G01 X10.6623 Y7.6714
G01 X10.6801 Y7.6630
G01 X10.6928 Y7.6577
G01 X10.7113 Y7.6511
G01 X10.7244 Y7.6471
G01 X10.7435 Y7.6423
G01 X10.7570 Y7.6396
G01 X10.7764 Y7.6368
G01 X10.7901 Y7.6354
G01 X10.8166 Y7.6343
G01 X22.1986 Y7.6343
G01 X22.2251 Y7.6354
G01 X22.2388 Y7.6368
G01 X22.2582 Y7.6396
G01 X22.2717 Y7.6423
G01 X22.2907 Y7.6471
G01 X22.3039 Y7.6511
G01 X22.3224 Y7.6577
G01 X22.3351 Y7.6630
G01 X22.3528 Y7.6714
G01 X22.3650 Y7.6779
G01 X22.3818 Y7.6879
G01 X22.3933 Y7.6956
G01 X22.4090 Y7.7073
G01 X22.4197 Y7.7160
G01 X22.4342 Y7.7292
G01 X23.9166 Y9.2114
G01 X23.9230 Y9.2087
G01 X23.9923 Y9.1840
G01 X24.0054 Y9.1800
G01 X24.0768 Y9.1621
G01 X24.0902 Y9.1594
G01 X24.1630 Y9.1486
G01 X24.1767 Y9.1473
G01 X24.2501 Y9.1437
G01 X24.2639 Y9.1437
G01 X24.3373 Y9.1473
G01 X24.3510 Y9.1486
G01 X24.4238 Y9.1594
G01 X24.4372 Y9.1621
G01 X24.5086 Y9.1800
G01 X24.5217 Y9.1840
G01 X24.5910 Y9.2087
G01 X24.6037 Y9.2140
G01 X24.6702 Y9.2454
G01 X24.6823 Y9.2519
G01 X24.7454 Y9.2897
G01 X24.7568 Y9.2974
G01 X24.8159 Y9.3412
G01 X24.8265 Y9.3499
G01 X24.8810 Y9.3993
G01 X24.8907 Y9.4090
G01 X24.9401 Y9.4635
G01 X24.9488 Y9.4741
G01 X24.9926 Y9.5332
G01 X25.0003 Y9.5446
G01 X25.0381 Y9.6077
G01 X25.0446 Y9.6198
G01 X25.0760 Y9.6863
G01 X25.0813 Y9.6990
G01 X25.1060 Y9.7683
G01 X25.1100 Y9.7814
G01 X25.1279 Y9.8528
G01 X25.1306 Y9.8662
G01 X25.1414 Y9.9390
G01 X25.1427 Y9.9527
G01 X25.1463 Y10.0261
G01 X25.1463 Y10.0399
G01 X25.1427 Y10.1133
G01 X25.1414 Y10.1270
G01 X25.1306 Y10.1998
G01 X25.1279 Y10.2132
G01 X25.1100 Y10.2846
G01 X25.1060 Y10.2977
G01 X25.0813 Y10.3670
G01 X25.0760 Y10.3797
G01 X25.0446 Y10.4462
G01 X25.0381 Y10.4583
G01 X25.0003 Y10.5214
G01 X24.9926 Y10.5328
G01 X24.9488 Y10.5919
G01 X24.9401 Y10.6025
G01 X24.8907 Y10.6570
G01 X24.8810 Y10.6667
G01 X24.8265 Y10.7161
G01 X24.8159 Y10.7248
G01 X24.7568 Y10.7686
G01 X24.7454 Y10.7763
G01 X24.6823 Y10.8141
G01 X24.6702 Y10.8206
G01 X24.6037 Y10.8520
G01 X24.5910 Y10.8573
G01 X24.5217 Y10.8820
G01 X24.5086 Y10.8860
G01 X24.4372 Y10.9039
G01 X24.4238 Y10.9066
G01 X24.3510 Y10.9174
G01 X24.3373 Y10.9187
G01 X24.2639 Y10.9223
G01 X24.2501 Y10.9223
G01 X24.1767 Y10.9187
G01 X24.1630 Y10.9174
G01 X24.0902 Y10.9066
G01 X24.0768 Y10.9039
G01 X24.0054 Y10.8860
G01 X23.9923 Y10.8820
G01 X23.9230 Y10.8573
G01 X23.9103 Y10.8520
G01 X23.8438 Y10.8206
G01 X23.8317 Y10.8141
G01 X23.7686 Y10.7763
G01 X23.7572 Y10.7686
G01 X23.6981 Y10.7248
G01 X23.6875 Y10.7161
G01 X23.6330 Y10.6667
G01 X23.6233 Y10.6570
G01 X23.5739 Y10.6025
G01 X23.5652 Y10.5919
G01 X23.5214 Y10.5328
G01 X23.5137 Y10.5214
G01 X23.4759 Y10.4583
G01 X23.4694 Y10.4462
G01 X23.4380 Y10.3797
G01 X23.4327 Y10.3670
G01 X23.4080 Y10.2977
G01 X23.4040 Y10.2846
G01 X23.3861 Y10.2132
G01 X23.3834 Y10.1998
G01 X23.3726 Y10.1270
G01 X23.3713 Y10.1133
G01 X23.3677 Y10.0399
G01 X23.3677 Y10.0261
G01 X23.3713 Y9.9527
G01 X23.3726 Y9.9390
G01 X23.3834 Y9.8662
G01 X23.3861 Y9.8528
G01 X23.4040 Y9.7814
G01 X23.4080 Y9.7683
G01 X23.4327 Y9.6990
G01 X23.4354 Y9.6926
G00 X23.4354 Y9.6926
G01 F60.00
G01 Z-0.1500
G01 F120.00
G01 X22.0576 Y8.3149
G01 X10.9575 Y8.3149
G01 X9.9191 Y9.3533
G01 X9.9191 Y10.9753
G01 X20.6194 Y21.6757
G01 X37.4109 Y21.6757
G01 X38.3449 Y20.7417
G01 X38.3449 Y20.7255
G01 X38.3380 Y20.7127
G01 X38.3275 Y20.6905
G01 X38.3222 Y20.6778
G01 X38.3140 Y20.6547
G01 X38.3100 Y20.6415
G01 X38.3040 Y20.6177
G01 X38.3013 Y20.6042
G01 X38.2977 Y20.5800
G01 X38.2964 Y20.5663
G01 X38.2952 Y20.5418
G01 X38.2950 Y19.2349
G01 X38.2964 Y19.2035
G01 X38.2977 Y19.1898
G01 X38.3013 Y19.1655
G01 X38.3040 Y19.1521
G01 X38.3100 Y19.1283
G01 X38.3140 Y19.1151
G01 X38.3222 Y19.0920
G01 X38.3275 Y19.0793
G01 X38.3380 Y19.0571
G01 X38.3445 Y19.0450
G01 X38.3571 Y19.0239
G01 X38.3647 Y19.0125
G01 X38.3793 Y18.9928
G01 X38.3881 Y18.9821
G01 X38.4046 Y18.9640
G01 X38.4143 Y18.9542
G01 X38.4325 Y18.9378
G01 X38.4431 Y18.9290
G01 X38.4628 Y18.9144
G01 X38.4742 Y18.9068
G01 X38.4953 Y18.8942
G01 X38.5074 Y18.8877
G01 X38.5296 Y18.8772
G01 X38.5423 Y18.8719
G01 X38.5654 Y18.8637
G01 X38.5786 Y18.8597
G01 X38.6024 Y18.8537
G01 X38.6159 Y18.8510
G01 X38.6401 Y18.8474
G01 X38.6538 Y18.8461
G01 X38.6783 Y18.8449
G01 X38.6921 Y18.8449
G01 X38.7166 Y18.8461
G01 X38.7303 Y18.8474
G01 X38.7546 Y18.8510
G01 X38.7680 Y18.8537
G01 X38.7918 Y18.8597
G01 X38.8050 Y18.8637
G01 X38.8281 Y18.8719
G01 X38.8408 Y18.8772
G01 X38.8630 Y18.8877
G01 X38.8751 Y18.8942
G01 X38.8962 Y18.9068
G01 X38.9076 Y18.9144
G01 X38.9273 Y18.9290
G01 X38.9380 Y18.9378
G01 X38.9561 Y18.9542
G01 X38.9659 Y18.9640
G01 X38.9823 Y18.9821
G01 X38.9911 Y18.9928
G01 X39.0057 Y19.0125
G01 X39.0133 Y19.0239
G01 X39.0259 Y19.0450
G01 X39.0324 Y19.0571
G01 X39.0429 Y19.0793
G01 X39.0482 Y19.0920
G01 X39.0564 Y19.1151
G01 X39.0604 Y19.1283
G01 X39.0664 Y19.1521
G01 X39.0691 Y19.1655
G01 X39.0727 Y19.1898
G01 X39.0740 Y19.2035
G01 X39.0754 Y19.2349
G01 X39.0754 Y20.5349
G01 X39.0740 Y20.5663
G01 X39.0727 Y20.5800
G01 X39.0691 Y20.6042
G01 X39.0664 Y20.6177
G01 X39.0604 Y20.6415
G01 X39.0564 Y20.6547
G01 X39.0482 Y20.6778
G01 X39.0429 Y20.6905
G01 X39.0324 Y20.7127
G01 X39.0255 Y20.7255
G01 X39.0253 Y20.8895
G01 X39.0244 Y20.9091
G01 X39.0230 Y20.9228
G01 X39.0201 Y20.9422
G01 X39.0175 Y20.9557
G01 X39.0127 Y20.9748
G01 X39.0087 Y20.9879
G01 X39.0021 Y21.0064
G01 X38.9968 Y21.0191
G01 X38.9884 Y21.0369
G01 X38.9819 Y21.0490
G01 X38.9718 Y21.0659
G01 X38.9642 Y21.0773
G01 X38.9525 Y21.0931
G01 X38.9438 Y21.1037
G01 X38.9258 Y21.1232
G01 X37.7875 Y22.2613
G01 X37.7730 Y22.2745
G01 X37.7623 Y22.2832
G01 X37.7465 Y22.2949
G01 X37.7351 Y22.3026
G01 X37.7183 Y22.3127
G01 X37.7061 Y22.3192
G01 X37.6884 Y22.3276
G01 X37.6757 Y22.3328
G01 X37.6572 Y22.3394
G01 X37.6440 Y22.3434
G01 X37.6250 Y22.3482
G01 X37.6115 Y22.3509
G01 X37.5920 Y22.3538
G01 X37.5784 Y22.3551
G01 X37.5519 Y22.3562
G01 X20.4785 Y22.3562
G01 X20.4520 Y22.3551
G01 X20.4383 Y22.3538
G01 X20.4189 Y22.3509
G01 X20.4054 Y22.3482
G01 X20.3863 Y22.3434
G01 X20.3732 Y22.3394
G01 X20.3547 Y22.3328
G01 X20.3420 Y22.3276
G01 X20.3242 Y22.3192
G01 X20.3121 Y22.3127
G01 X20.2952 Y22.3026
G01 X20.2838 Y22.2949
G01 X20.2680 Y22.2832
G01 X20.2574 Y22.2745
G01 X20.2379 Y22.2566
G01 X9.3382 Y11.3569
G01 X9.3203 Y11.3374
G01 X9.3116 Y11.3268
G01 X9.2999 Y11.3110
G01 X9.2922 Y11.2995
G01 X9.2821 Y11.2827
G01 X9.2756 Y11.2706
G01 X9.2672 Y11.2528
G01 X9.2620 Y11.2401
G01 X9.2554 Y11.2216
G01 X9.2514 Y11.2085
G01 X9.2466 Y11.1894
G01 X9.2439 Y11.1759
G01 X9.2410 Y11.1565
G01 X9.2397 Y11.1428
G01 X9.2385 Y11.1163
G01 X9.2385 Y9.2123
G01 X9.2397 Y9.1858
G01 X9.2410 Y9.1721
G01 X9.2439 Y9.1527
G01 X9.2466 Y9.1392
G01 X9.2514 Y9.1202
G01 X9.2554 Y9.1070
G01 X9.2620 Y9.0885
G01 X9.2672 Y9.0758
G01 X9.2756 Y9.0580
G01 X9.2821 Y9.0459
G01 X9.2922 Y9.0291
G01 X9.2999 Y9.0176
G01 X9.3116 Y9.0019
G01 X9.3203 Y8.9912
G01 X9.3382 Y8.9717
G01 X10.5760 Y7.7340
G01 X10.5955 Y7.7160
G01 X10.6061 Y7.7073
G01 X10.6219 Y7.6956
G01 X10.6333 Y7.6879
G01 X10.6502 Y7.6779
G01 X10.6623 Y7.6714
G01 X10.6801 Y7.6630
G01 X10.6928 Y7.6577
G01 X10.7113 Y7.6511
G01 X10.7244 Y7.6471
G01 X10.7435 Y7.6423
G01 X10.7570 Y7.6396
G01 X10.7764 Y7.6368
G01 X10.7901 Y7.6354
G01 X10.8166 Y7.6343
G01 X22.1986 Y7.6343
G01 X22.2251 Y7.6354
G01 X22.2388 Y7.6368
G01 X22.2582 Y7.6396
G01 X22.2717 Y7.6423
G01 X22.2907 Y7.6471
G01 X22.3039 Y7.6511
G01 X22.3224 Y7.6577
G01 X22.3351 Y7.6630
G01 X22.3528 Y7.6714
G01 X22.3650 Y7.6779
G01 X22.3818 Y7.6879
G01 X22.3933 Y7.6956
G01 X22.4090 Y7.7073
G01 X22.4197 Y7.7160
G01 X22.4342 Y7.7292
G01 X23.9166 Y9.2114
G01 X23.9230 Y9.2087
G01 X23.9923 Y9.1840
G01 X24.0054 Y9.1800
G01 X24.0768 Y9.1621
G01 X24.0902 Y9.1594
G01 X24.1630 Y9.1486
G01 X24.1767 Y9.1473
G01 X24.2501 Y9.1437
G01 X24.2639 Y9.1437
G01 X24.3373 Y9.1473
G01 X24.3510 Y9.1486
G01 X24.4238 Y9.1594
G01 X24.4372 Y9.1621
G01 X24.5086 Y9.1800
G01 X24.5217 Y9.1840
G01 X24.5910 Y9.2087
G01 X24.6037 Y9.2140
G01 X24.6702 Y9.2454
G01 X24.6823 Y9.2519
G01 X24.7454 Y9.2897
G01 X24.7568 Y9.2974
G01 X24.8159 Y9.3412
G01 X24.8265 Y9.3499
G01 X24.8810 Y9.3993
G01 X24.8907 Y9.4090
G01 X24.9401 Y9.4635
G01 X24.9488 Y9.4741
G01 X24.9926 Y9.5332
G01 X25.0003 Y9.5446
G01 X25.0381 Y9.6077
G01 X25.0446 Y9.6198
G01 X25.0760 Y9.6863
G01 X25.0813 Y9.6990
G01 X25.1060 Y9.7683
G01 X25.1100 Y9.7814
G01 X25.1279 Y9.8528
G01 X25.1306 Y9.8662
G01 X25.1414 Y9.9390
G01 X25.1427 Y9.9527
G01 X25.1463 Y10.0261
G01 X25.1463 Y10.0399
G01 X25.1427 Y10.1133
G01 X25.1414 Y10.1270
G01 X25.1306 Y10.1998
G01 X25.1279 Y10.2132
G01 X25.1100 Y10.2846
G01 X25.1060 Y10.2977
G01 X25.0813 Y10.3670
G01 X25.0760 Y10.3797
G01 X25.0446 Y10.4462
G01 X25.0381 Y10.4583
G01 X25.0003 Y10.5214
G01 X24.9926 Y10.5328
G01 X24.9488 Y10.5919
G01 X24.9401 Y10.6025
G01 X24.8907 Y10.6570
G01 X24.8810 Y10.6667
G01 X24.8265 Y10.7161
G01 X24.8159 Y10.7248
G01 X24.7568 Y10.7686
G01 X24.7454 Y10.7763
G01 X24.6823 Y10.8141
G01 X24.6702 Y10.8206
G01 X24.6037 Y10.8520
G01 X24.5910 Y10.8573
G01 X24.5217 Y10.8820
G01 X24.5086 Y10.8860
G01 X24.4372 Y10.9039
G01 X24.4238 Y10.9066
G01 X24.3510 Y10.9174
G01 X24.3373 Y10.9187
G01 X24.2639 Y10.9223
G01 X24.2501 Y10.9223
G01 X24.1767 Y10.9187
G01 X24.1630 Y10.9174
G01 X24.0902 Y10.9066
G01 X24.0768 Y10.9039
G01 X24.0054 Y10.8860
G01 X23.9923 Y10.8820
G01 X23.9230 Y10.8573
G01 X23.9103 Y10.8520
G01 X23.8438 Y10.8206
G01 X23.8317 Y10.8141
G01 X23.7686 Y10.7763
G01 X23.7572 Y10.7686
G01 X23.6981 Y10.7248
G01 X23.6875 Y10.7161
G01 X23.6330 Y10.6667
G01 X23.6233 Y10.6570
G01 X23.5739 Y10.6025
G01 X23.5652 Y10.5919
G01 X23.5214 Y10.5328
G01 X23.5137 Y10.5214
G01 X23.4759 Y10.4583
G01 X23.4694 Y10.4462
G01 X23.4380 Y10.3797
G01 X23.4327 Y10.3670
G01 X23.4080 Y10.2977
G01 X23.4040 Y10.2846
G01 X23.3861 Y10.2132
G01 X23.3834 Y10.1998
G01 X23.3726 Y10.1270
G01 X23.3713 Y10.1133
G01 X23.3677 Y10.0399
G01 X23.3677 Y10.0261
G01 X23.3713 Y9.9527
G01 X23.3726 Y9.9390
G01 X23.3834 Y9.8662
G01 X23.3861 Y9.8528
G01 X23.4040 Y9.7814
G01 X23.4080 Y9.7683
G01 X23.4327 Y9.6990
G01 X23.4354 Y9.6926
G00 Z2.0000
G00 X27.1374 Y10.8546
G01 F60.00
G01 Z-0.0800
G01 F120.00
G01 X27.1310 Y10.8573
G01 X27.0617 Y10.8820
G01 X27.0486 Y10.8860
G01 X26.9772 Y10.9039
G01 X26.9638 Y10.9066
G01 X26.8910 Y10.9174
G01 X26.8773 Y10.9187
G01 X26.8039 Y10.9223
G01 X26.7901 Y10.9223
G01 X26.7167 Y10.9187
G01 X26.7030 Y10.9174
G01 X26.6302 Y10.9066
G01 X26.6168 Y10.9039
G01 X26.5454 Y10.8860
G01 X26.5323 Y10.8820
G01 X26.4630 Y10.8573
G01 X26.4503 Y10.8520
G01 X26.3838 Y10.8206
G01 X26.3717 Y10.8141
G01 X26.3086 Y10.7763
G01 X26.2972 Y10.7686
G01 X26.2381 Y10.7248
G01 X26.2275 Y10.7161
G01 X26.1730 Y10.6667
G01 X26.1633 Y10.6570
G01 X26.1139 Y10.6025
G01 X26.1052 Y10.5919
G01 X26.0614 Y10.5328
G01 X26.0537 Y10.5214
G01 X26.0159 Y10.4583
G01 X26.0094 Y10.4462
G01 X25.9780 Y10.3797
G01 X25.9727 Y10.3670
G01 X25.9480 Y10.2977
G01 X25.9440 Y10.2846
G01 X25.9261 Y10.2132
G01 X25.9234 Y10.1998
G01 X25.9126 Y10.1270
G01 X25.9113 Y10.1133
G01 X25.9077 Y10.0399
G01 X25.9077 Y10.0261
G01 X25.9113 Y9.9527
G01 X25.9126 Y9.9390
G01 X25.9234 Y9.8662
G01 X25.9261 Y9.8528
G01 X25.9440 Y9.7814
G01 X25.9480 Y9.7683
G01 X25.9727 Y9.6990
G01 X25.9780 Y9.6863
G01 X26.0094 Y9.6198
G01 X26.0159 Y9.6077
G01 X26.0537 Y9.5446
G01 X26.0614 Y9.5332
G01 X26.1052 Y9.4741
G01 X26.1139 Y9.4635
G01 X26.1633 Y9.4090
G01 X26.1730 Y9.3993
G01 X26.2275 Y9.3499
G01 X26.2381 Y9.3412
G01 X26.2972 Y9.2974
G01 X26.3086 Y9.2897
G01 X26.3717 Y9.2519
G01 X26.3838 Y9.2454
G01 X26.4503 Y9.2140
G01 X26.4630 Y9.2087
G01 X26.5323 Y9.1840
G01 X26.5454 Y9.1800
G01 X26.6168 Y9.1621
G01 X26.6302 Y9.1594
G01 X26.7030 Y9.1486
G01 X26.7167 Y9.1473
G01 X26.7901 Y9.1437
G01 X26.8039 Y9.1437
G01 X26.8773 Y9.1473
G01 X26.8910 Y9.1486
G01 X26.9638 Y9.1594
G01 X26.9772 Y9.1621
G01 X27.0486 Y9.1800
G01 X27.0617 Y9.1840
G01 X27.1310 Y9.2087
G01 X27.1437 Y9.2140
G01 X27.2102 Y9.2454
G01 X27.2223 Y9.2519
G01 X27.2854 Y9.2897
G01 X27.2968 Y9.2974
G01 X27.3559 Y9.3412
G01 X27.3665 Y9.3499
G01 X27.4210 Y9.3993
G01 X27.4307 Y9.4090
G01 X27.4801 Y9.4635
G01 X27.4888 Y9.4741
G01 X27.5326 Y9.5332
G01 X27.5403 Y9.5446
G01 X27.5781 Y9.6077
G01 X27.5846 Y9.6198
G01 X27.6160 Y9.6863
G01 X27.6213 Y9.6990
G01 X27.6460 Y9.7683
G01 X27.6500 Y9.7814
G01 X27.6679 Y9.8528
G01 X27.6706 Y9.8662
G01 X27.6814 Y9.9390
G01 X27.6827 Y9.9527
G01 X27.6863 Y10.0261
G01 X27.6863 Y10.0399
G01 X27.6827 Y10.1133
G01 X27.6814 Y10.1270
G01 X27.6706 Y10.1998
G01 X27.6679 Y10.2132
G01 X27.6500 Y10.2846
G01 X27.6460 Y10.2977
G01 X27.6213 Y10.3670
G01 X27.6186 Y10.3734
G01 X28.1876 Y10.9424
G01 X31.9788 Y10.9424
G01 X32.0053 Y10.9435
G01 X32.0190 Y10.9449
G01 X32.0385 Y10.9477
G01 X32.0520 Y10.9504
G01 X32.0710 Y10.9552
G01 X32.0842 Y10.9592
G01 X32.1027 Y10.9658
G01 X32.1154 Y10.9711
G01 X32.1331 Y10.9795
G01 X32.1453 Y10.9860
G01 X32.1621 Y10.9960
G01 X32.1735 Y11.0037
G01 X32.1893 Y11.0154
G01 X32.1999 Y11.0241
G01 X32.2195 Y11.0421
G01 X39.7257 Y18.5483
G01 X39.7436 Y18.5678
G01 X39.7523 Y18.5784
G01 X39.7640 Y18.5942
G01 X39.7717 Y18.6056
G01 X39.7818 Y18.6225
G01 X39.7883 Y18.6346
G01 X39.7967 Y18.6524
G01 X39.8019 Y18.6651
G01 X39.8085 Y18.6836
G01 X39.8125 Y18.6967
G01 X39.8173 Y18.7158
G01 X39.8200 Y18.7293
G01 X39.8229 Y18.7487
G01 X39.8242 Y18.7624
G01 X39.8254 Y18.7889
G01 X39.8254 Y19.0442
G01 X39.8323 Y19.0571
G01 X39.8428 Y19.0793
G01 X39.8480 Y19.0920
G01 X39.8563 Y19.1151
G01 X39.8603 Y19.1283
G01 X39.8663 Y19.1521
G01 X39.8689 Y19.1655
G01 X39.8725 Y19.1898
G01 X39.8739 Y19.2035
G01 X39.8753 Y19.2349
G01 X39.8753 Y20.5349
G01 X39.8739 Y20.5663
G01 X39.8725 Y20.5800
G01 X39.8689 Y20.6042
G01 X39.8663 Y20.6177
G01 X39.8603 Y20.6415
G01 X39.8563 Y20.6547
G01 X39.8480 Y20.6778
G01 X39.8428 Y20.6905
G01 X39.8323 Y20.7127
G01 X39.8258 Y20.7248
G01 X39.8132 Y20.7459
G01 X39.8055 Y20.7573
G01 X39.7909 Y20.7770
G01 X39.7822 Y20.7876
G01 X39.7657 Y20.8058
G01 X39.7560 Y20.8155
G01 X39.7378 Y20.8320
G01 X39.7272 Y20.8408
G01 X39.7075 Y20.8554
G01 X39.6960 Y20.8630
G01 X39.6750 Y20.8756
G01 X39.6629 Y20.8821
G01 X39.6407 Y20.8926
G01 X39.6280 Y20.8979
G01 X39.6049 Y20.9061
G01 X39.5917 Y20.9101
G01 X39.5679 Y20.9161
G01 X39.5544 Y20.9188
G01 X39.5301 Y20.9224
G01 X39.5164 Y20.9237
G01 X39.4919 Y20.9249
G01 X39.4782 Y20.9249
G01 X39.4537 Y20.9237
G01 X39.4400 Y20.9224
G01 X39.4157 Y20.9188
G01 X39.4022 Y20.9161
G01 X39.3784 Y20.9101
G01 X39.3653 Y20.9061
G01 X39.3422 Y20.8979
G01 X39.3294 Y20.8926
G01 X39.3073 Y20.8821
G01 X39.2951 Y20.8756
G01 X39.2741 Y20.8630
G01 X39.2627 Y20.8554
G01 X39.2429 Y20.8408
G01 X39.2323 Y20.8320
G01 X39.2141 Y20.8155
G01 X39.2044 Y20.8058
G01 X39.1879 Y20.7876
G01 X39.1792 Y20.7770
G01 X39.1646 Y20.7573
G01 X39.1569 Y20.7459
G01 X39.1443 Y20.7248
G01 X39.1378 Y20.7127
G01 X39.1274 Y20.6905
G01 X39.1221 Y20.6778
G01 X39.1138 Y20.6547
G01 X39.1098 Y20.6415
G01 X39.1039 Y20.6177
G01 X39.1012 Y20.6042
G01 X39.0976 Y20.5800
G01 X39.0962 Y20.5663
G01 X39.0949 Y20.5349
G01 X39.0949 Y19.2349
G01 X39.0962 Y19.2035
G01 X39.0976 Y19.1898
G01 X39.1012 Y19.1655
G01 X39.1039 Y19.1521
G01 X39.1098 Y19.1283
G01 X39.1138 Y19.1151
G01 X39.1221 Y19.0920
G01 X39.1274 Y19.0793
G01 X39.1378 Y19.0571
G01 X39.1448 Y19.0442
G01 X39.1448 Y18.9298
G01 X31.8379 Y11.6230
G01 X28.0467 Y11.6230
G01 X28.0202 Y11.6218
G01 X28.0065 Y11.6205
G01 X27.9871 Y11.6176
G01 X27.9736 Y11.6149
G01 X27.9545 Y11.6102
G01 X27.9414 Y11.6062
G01 X27.9229 Y11.5996
G01 X27.9102 Y11.5943
G01 X27.8924 Y11.5859
G01 X27.8803 Y11.5794
G01 X27.8634 Y11.5693
G01 X27.8520 Y11.5617
G01 X27.8362 Y11.5500
G01 X27.8256 Y11.5412
G01 X27.8061 Y11.5233
G01 X27.1374 Y10.8546
G00 X27.1374 Y10.8546
G01 F60.00
G01 Z-0.1500
G01 F120.00
G01 X27.1310 Y10.8573
G01 X27.0617 Y10.8820
G01 X27.0486 Y10.8860
G01 X26.9772 Y10.9039
G01 X26.9638 Y10.9066
G01 X26.8910 Y10.9174
G01 X26.8773 Y10.9187
G01 X26.8039 Y10.9223
G01 X26.7901 Y10.9223
G01 X26.7167 Y10.9187
G01 X26.7030 Y10.9174
G01 X26.6302 Y10.9066
G01 X26.6168 Y10.9039
G01 X26.5454 Y10.8860
G01 X26.5323 Y10.8820
G01 X26.4630 Y10.8573
G01 X26.4503 Y10.8520
G01 X26.3838 Y10.8206
G01 X26.3717 Y10.8141
G01 X26.3086 Y10.7763
G01 X26.2972 Y10.7686
G01 X26.2381 Y10.7248
G01 X26.2275 Y10.7161
G01 X26.1730 Y10.6667
G01 X26.1633 Y10.6570
G01 X26.1139 Y10.6025
G01 X26.1052 Y10.5919
G01 X26.0614 Y10.5328
G01 X26.0537 Y10.5214
G01 X26.0159 Y10.4583
G01 X26.0094 Y10.4462
G01 X25.9780 Y10.3797
G01 X25.9727 Y10.3670
G01 X25.9480 Y10.2977
G01 X25.9440 Y10.2846
G01 X25.9261 Y10.2132
G01 X25.9234 Y10.1998
G01 X25.9126 Y10.1270
G01 X25.9113 Y10.1133
G01 X25.9077 Y10.0399
G01 X25.9077 Y10.0261
G01 X25.9113 Y9.9527
G01 X25.9126 Y9.9390
G01 X25.9234 Y9.8662
G01 X25.9261 Y9.8528
G01 X25.9440 Y9.7814
G01 X25.9480 Y9.7683
G01 X25.9727 Y9.6990
G01 X25.9780 Y9.6863
G01 X26.0094 Y9.6198
G01 X26.0159 Y9.6077
G01 X26.0537 Y9.5446
G01 X26.0614 Y9.5332
G01 X26.1052 Y9.4741
G01 X26.1139 Y9.4635
G01 X26.1633 Y9.4090
G01 X26.1730 Y9.3993
G01 X26.2275 Y9.3499
G01 X26.2381 Y9.3412
G01 X26.2972 Y9.2974
G01 X26.3086 Y9.2897
G01 X26.3717 Y9.2519
G01 X26.3838 Y9.2454
G01 X26.4503 Y9.2140
G01 X26.4630 Y9.2087
G01 X26.5323 Y9.1840
G01 X26.5454 Y9.1800
G01 X26.6168 Y9.1621
G01 X26.6302 Y9.1594
G01 X26.7030 Y9.1486
G01 X26.7167 Y9.1473
G01 X26.7901 Y9.1437
G01 X26.8039 Y9.1437
G01 X26.8773 Y9.1473
G01 X26.8910 Y9.1486
G01 X26.9638 Y9.1594
G01 X26.9772 Y9.1621
G01 X27.0486 Y9.1800
G01 X27.0617 Y9.1840
G01 X27.1310 Y9.2087
G01 X27.1437 Y9.2140
G01 X27.2102 Y9.2454
G01 X27.2223 Y9.2519
G01 X27.2854 Y9.2897
G01 X27.2968 Y9.2974
G01 X27.3559 Y9.3412
G01 X27.3665 Y9.3499
G01 X27.4210 Y9.3993
G01 X27.4307 Y9.4090
G01 X27.4801 Y9.4635
G01 X27.4888 Y9.4741
G01 X27.5326 Y9.5332
G01 X27.5403 Y9.5446
G01 X27.5781 Y9.6077
G01 X27.5846 Y9.6198
G01 X27.6160 Y9.6863
G01 X27.6213 Y9.6990
G01 X27.6460 Y9.7683
G01 X27.6500 Y9.7814
G01 X27.6679 Y9.8528
G01 X27.6706 Y9.8662
G01 X27.6814 Y9.9390
G01 X27.6827 Y9.9527
G01 X27.6863 Y10.0261
G01 X27.6863 Y10.0399
G01 X27.6827 Y10.1133
G01 X27.6814 Y10.1270
G01 X27.6706 Y10.1998
G01 X27.6679 Y10.2132
G01 X27.6500 Y10.2846
G01 X27.6460 Y10.2977
G01 X27.6213 Y10.3670
G01 X27.6186 Y10.3734
G01 X28.1876 Y10.9424
G01 X31.9788 Y10.9424
G01 X32.0053 Y10.9435
G01 X32.0190 Y10.9449
G01 X32.0385 Y10.9477
G01 X32.0520 Y10.9504
G01 X32.0710 Y10.9552
G01 X32.0842 Y10.9592
G01 X32.1027 Y10.9658
G01 X32.1154 Y10.9711
G01 X32.1331 Y10.9795
G01 X32.1453 Y10.9860
G01 X32.1621 Y10.9960
G01 X32.1735 Y11.0037
G01 X32.1893 Y11.0154
G01 X32.1999 Y11.0241
G01 X32.2195 Y11.0421
G01 X39.7257 Y18.5483
G01 X39.7436 Y18.5678
G01 X39.7523 Y18.5784
G01 X39.7640 Y18.5942
G01 X39.7717 Y18.6056
G01 X39.7818 Y18.6225
G01 X39.7883 Y18.6346
G01 X39.7967 Y18.6524
G01 X39.8019 Y18.6651
G01 X39.8085 Y18.6836
G01 X39.8125 Y18.6967
G01 X39.8173 Y18.7158
G01 X39.8200 Y18.7293
G01 X39.8229 Y18.7487
G01 X39.8242 Y18.7624
G01 X39.8254 Y18.7889
G01 X39.8254 Y19.0442
G01 X39.8323 Y19.0571
G01 X39.8428 Y19.0793
G01 X39.8480 Y19.0920
G01 X39.8563 Y19.1151
G01 X39.8603 Y19.1283
G01 X39.8663 Y19.1521
G01 X39.8689 Y19.1655
G01 X39.8725 Y19.1898
G01 X39.8739 Y19.2035
G01 X39.8753 Y19.2349
G01 X39.8753 Y20.5349
G01 X39.8739 Y20.5663
G01 X39.8725 Y20.5800
G01 X39.8689 Y20.6042
G01 X39.8663 Y20.6177
G01 X39.8603 Y20.6415
G01 X39.8563 Y20.6547
G01 X39.8480 Y20.6778
G01 X39.8428 Y20.6905
G01 X39.8323 Y20.7127
G01 X39.8258 Y20.7248
G01 X39.8132 Y20.7459
G01 X39.8055 Y20.7573
G01 X39.7909 Y20.7770
G01 X39.7822 Y20.7876
G01 X39.7657 Y20.8058
G01 X39.7560 Y20.8155
G01 X39.7378 Y20.8320
G01 X39.7272 Y20.8408
G01 X39.7075 Y20.8554
G01 X39.6960 Y20.8630
G01 X39.6750 Y20.8756
G01 X39.6629 Y20.8821
G01 X39.6407 Y20.8926
G01 X39.6280 Y20.8979
G01 X39.6049 Y20.9061
G01 X39.5917 Y20.9101
G01 X39.5679 Y20.9161
G01 X39.5544 Y20.9188
G01 X39.5301 Y20.9224
G01 X39.5164 Y20.9237
G01 X39.4919 Y20.9249
G01 X39.4782 Y20.9249
G01 X39.4537 Y20.9237
G01 X39.4400 Y20.9224
G01 X39.4157 Y20.9188
G01 X39.4022 Y20.9161
G01 X39.3784 Y20.9101
G01 X39.3653 Y20.9061
G01 X39.3422 Y20.8979
G01 X39.3294 Y20.8926
G01 X39.3073 Y20.8821
G01 X39.2951 Y20.8756
G01 X39.2741 Y20.8630
G01 X39.2627 Y20.8554
G01 X39.2429 Y20.8408
G01 X39.2323 Y20.8320
G01 X39.2141 Y20.8155
G01 X39.2044 Y20.8058
G01 X39.1879 Y20.7876
G01 X39.1792 Y20.7770
G01 X39.1646 Y20.7573
G01 X39.1569 Y20.7459
G01 X39.1443 Y20.7248
G01 X39.1378 Y20.7127
G01 X39.1274 Y20.6905
G01 X39.1221 Y20.6778
G01 X39.1138 Y20.6547
G01 X39.1098 Y20.6415
G01 X39.1039 Y20.6177
G01 X39.1012 Y20.6042
G01 X39.0976 Y20.5800
G01 X39.0962 Y20.5663
G01 X39.0949 Y20.5349
G01 X39.0949 Y19.2349
G01 X39.0962 Y19.2035
G01 X39.0976 Y19.1898
G01 X39.1012 Y19.1655
G01 X39.1039 Y19.1521
G01 X39.1098 Y19.1283
G01 X39.1138 Y19.1151
G01 X39.1221 Y19.0920
G01 X39.1274 Y19.0793
G01 X39.1378 Y19.0571
G01 X39.1448 Y19.0442
G01 X39.1448 Y18.9298
G01 X31.8379 Y11.6230
G01 X28.0467 Y11.6230
G01 X28.0202 Y11.6218
G01 X28.0065 Y11.6205
G01 X27.9871 Y11.6176
G01 X27.9736 Y11.6149
G01 X27.9545 Y11.6102
G01 X27.9414 Y11.6062
G01 X27.9229 Y11.5996
G01 X27.9102 Y11.5943
G01 X27.8924 Y11.5859
G01 X27.8803 Y11.5794
G01 X27.8634 Y11.5693
G01 X27.8520 Y11.5617
G01 X27.8362 Y11.5500
G01 X27.8256 Y11.5412
G01 X27.8061 Y11.5233
G01 X27.1374 Y10.8546
G00 Z2.0000
G00 X28.5154 Y9.6926
G01 F60.00
G01 Z-0.0800
G01 F120.00
G01 X26.3070 Y7.4843
G01 X10.7609 Y7.4843
G01 X9.1617 Y9.0835
G01 X9.1617 Y11.2230
G01 X20.3644 Y22.4257
G01 X38.3939 Y22.4257
G01 X39.9449 Y20.8747
G01 X39.9449 Y20.7255
G01 X39.9379 Y20.7127
G01 X39.9275 Y20.6905
G01 X39.9222 Y20.6778
G01 X39.9139 Y20.6547
G01 X39.9099 Y20.6415
G01 X39.9040 Y20.6177
G01 X39.9013 Y20.6042
G01 X39.8977 Y20.5800
G01 X39.8963 Y20.5663
G01 X39.8950 Y20.5349
G01 X39.8950 Y19.2349
G01 X39.8963 Y19.2035
G01 X39.8977 Y19.1898
G01 X39.9013 Y19.1655
G01 X39.9040 Y19.1521
G01 X39.9099 Y19.1283
G01 X39.9139 Y19.1151
G01 X39.9222 Y19.0920
G01 X39.9275 Y19.0793
G01 X39.9379 Y19.0571
G01 X39.9444 Y19.0450
G01 X39.9570 Y19.0239
G01 X39.9647 Y19.0125
G01 X39.9793 Y18.9928
G01 X39.9880 Y18.9821
G01 X40.0045 Y18.9640
G01 X40.0142 Y18.9542
G01 X40.0324 Y18.9378
G01 X40.0430 Y18.9290
G01 X40.0628 Y18.9144
G01 X40.0742 Y18.9068
G01 X40.0952 Y18.8942
G01 X40.1074 Y18.8877
G01 X40.1295 Y18.8772
G01 X40.1423 Y18.8719
G01 X40.1654 Y18.8637
G01 X40.1785 Y18.8597
G01 X40.2023 Y18.8537
G01 X40.2158 Y18.8510
G01 X40.2401 Y18.8474
G01 X40.2538 Y18.8461
G01 X40.2783 Y18.8449
G01 X40.2920 Y18.8449
G01 X40.3165 Y18.8461
G01 X40.3302 Y18.8474
G01 X40.3545 Y18.8510
G01 X40.3680 Y18.8537
G01 X40.3918 Y18.8597
G01 X40.4050 Y18.8637
G01 X40.4281 Y18.8719
G01 X40.4408 Y18.8772
G01 X40.4630 Y18.8877
G01 X40.4751 Y18.8942
G01 X40.4961 Y18.9068
G01 X40.5076 Y18.9144
G01 X40.5273 Y18.9290
G01 X40.5379 Y18.9378
G01 X40.5561 Y18.9542
G01 X40.5658 Y18.9640
G01 X40.5823 Y18.9821
G01 X40.5910 Y18.9928
G01 X40.6056 Y19.0125
G01 X40.6133 Y19.0239
G01 X40.6259 Y19.0450
G01 X40.6324 Y19.0571
G01 X40.6429 Y19.0793
G01 X40.6481 Y19.0920
G01 X40.6564 Y19.1151
G01 X40.6604 Y19.1283
G01 X40.6664 Y19.1521
G01 X40.6690 Y19.1655
G01 X40.6726 Y19.1898
G01 X40.6740 Y19.2035
G01 X40.6754 Y19.2349
G01 X40.6752 Y20.5418
G01 X40.6740 Y20.5663
G01 X40.6726 Y20.5800
G01 X40.6690 Y20.6042
G01 X40.6664 Y20.6177
G01 X40.6604 Y20.6415
G01 X40.6564 Y20.6547
G01 X40.6481 Y20.6778
G01 X40.6429 Y20.6905
G01 X40.6324 Y20.7127
G01 X40.6255 Y20.7255
G01 X40.6255 Y21.0157
G01 X40.6243 Y21.0422
G01 X40.6230 Y21.0559
G01 X40.6201 Y21.0753
G01 X40.6174 Y21.0888
G01 X40.6126 Y21.1079
G01 X40.6086 Y21.1210
G01 X40.6020 Y21.1395
G01 X40.5968 Y21.1522
G01 X40.5884 Y21.1700
G01 X40.5819 Y21.1821
G01 X40.5718 Y21.1989
G01 X40.5641 Y21.2104
G01 X40.5524 Y21.2262
G01 X40.5437 Y21.2368
G01 X40.5258 Y21.2563
G01 X38.7755 Y23.0066
G01 X38.7559 Y23.0246
G01 X38.7453 Y23.0333
G01 X38.7295 Y23.0450
G01 X38.7181 Y23.0527
G01 X38.7012 Y23.0627
G01 X38.6891 Y23.0692
G01 X38.6714 Y23.0776
G01 X38.6586 Y23.0829
G01 X38.6402 Y23.0895
G01 X38.6270 Y23.0935
G01 X38.6079 Y23.0983
G01 X38.5944 Y23.1010
G01 X38.5750 Y23.1038
G01 X38.5613 Y23.1052
G01 X38.5348 Y23.1063
G01 X20.2235 Y23.1063
G01 X20.1970 Y23.1052
G01 X20.1833 Y23.1038
G01 X20.1639 Y23.1010
G01 X20.1504 Y23.0983
G01 X20.1313 Y23.0935
G01 X20.1182 Y23.0895
G01 X20.0997 Y23.0829
G01 X20.0870 Y23.0776
G01 X20.0692 Y23.0692
G01 X20.0571 Y23.0627
G01 X20.0402 Y23.0527
G01 X20.0288 Y23.0450
G01 X20.0130 Y23.0333
G01 X20.0024 Y23.0246
G01 X19.9828 Y23.0066
G01 X8.5808 Y11.6046
G01 X8.5629 Y11.5850
G01 X8.5541 Y11.5744
G01 X8.5424 Y11.5586
G01 X8.5348 Y11.5472
G01 X8.5247 Y11.5304
G01 X8.5182 Y11.5182
G01 X8.5098 Y11.5005
G01 X8.5045 Y11.4878
G01 X8.4979 Y11.4693
G01 X8.4939 Y11.4561
G01 X8.4892 Y11.4371
G01 X8.4865 Y11.4236
G01 X8.4836 Y11.4041
G01 X8.4823 Y11.3904
G01 X8.4811 Y11.3639
G01 X8.4811 Y8.9426
G01 X8.4823 Y8.9161
G01 X8.4836 Y8.9024
G01 X8.4865 Y8.8830
G01 X8.4892 Y8.8695
G01 X8.4939 Y8.8504
G01 X8.4979 Y8.8373
G01 X8.5045 Y8.8188
G01 X8.5098 Y8.8061
G01 X8.5182 Y8.7883
G01 X8.5247 Y8.7762
G01 X8.5348 Y8.7593
G01 X8.5424 Y8.7479
G01 X8.5541 Y8.7321
G01 X8.5629 Y8.7215
G01 X8.5808 Y8.7019
G01 X10.3794 Y6.9034
G01 X10.3989 Y6.8854
G01 X10.4095 Y6.8767
G01 X10.4253 Y6.8650
G01 X10.4367 Y6.8574
G01 X10.4536 Y6.8473
G01 X10.4657 Y6.8408
G01 X10.4835 Y6.8324
G01 X10.4962 Y6.8271
G01 X10.5147 Y6.8205
G01 X10.5278 Y6.8165
G01 X10.5469 Y6.8117
G01 X10.5604 Y6.8091
G01 X10.5798 Y6.8062
G01 X10.5935 Y6.8048
G01 X10.6200 Y6.8037
G01 X26.4480 Y6.8037
G01 X26.4745 Y6.8048
G01 X26.4882 Y6.8062
G01 X26.5076 Y6.8091
G01 X26.5211 Y6.8117
G01 X26.5402 Y6.8165
G01 X26.5533 Y6.8205
G01 X26.5718 Y6.8271
G01 X26.5845 Y6.8324
G01 X26.6023 Y6.8408
G01 X26.6144 Y6.8473
G01 X26.6312 Y6.8574
G01 X26.6427 Y6.8650
G01 X26.6585 Y6.8767
G01 X26.6691 Y6.8854
G01 X26.6886 Y6.9034
G01 X28.9966 Y9.2114
G01 X29.0030 Y9.2087
G01 X29.0723 Y9.1840
G01 X29.0854 Y9.1800
G01 X29.1568 Y9.1621
G01 X29.1702 Y9.1594
G01 X29.2430 Y9.1486
G01 X29.2567 Y9.1473
G01 X29.3301 Y9.1437
G01 X29.3439 Y9.1437
G01 X29.4173 Y9.1473
G01 X29.4310 Y9.1486
G01 X29.5038 Y9.1594
G01 X29.5172 Y9.1621
G01 X29.5886 Y9.1800
G01 X29.6017 Y9.1840
G01 X29.6710 Y9.2087
G01 X29.6837 Y9.2140
G01 X29.7502 Y9.2454
G01 X29.7623 Y9.2519
G01 X29.8254 Y9.2897
G01 X29.8368 Y9.2974
G01 X29.8959 Y9.3412
G01 X29.9065 Y9.3499
G01 X29.9610 Y9.3993
G01 X29.9707 Y9.4090
G01 X30.0201 Y9.4635
G01 X30.0288 Y9.4741
G01 X30.0726 Y9.5332
G01 X30.0803 Y9.5446
G01 X30.1181 Y9.6077
G01 X30.1246 Y9.6198
G01 X30.1560 Y9.6863
G01 X30.1613 Y9.6990
G01 X30.1860 Y9.7683
G01 X30.1900 Y9.7814
G01 X30.2079 Y9.8528
G01 X30.2106 Y9.8662
G01 X30.2214 Y9.9390
G01 X30.2227 Y9.9527
G01 X30.2263 Y10.0261
G01 X30.2263 Y10.0399
G01 X30.2227 Y10.1133
G01 X30.2214 Y10.1270
G01 X30.2106 Y10.1998
G01 X30.2079 Y10.2132
G01 X30.1900 Y10.2846
G01 X30.1860 Y10.2977
G01 X30.1613 Y10.3670
G01 X30.1560 Y10.3797
G01 X30.1246 Y10.4462
G01 X30.1181 Y10.4583
G01 X30.0803 Y10.5214
G01 X30.0726 Y10.5328
G01 X30.0288 Y10.5919
G01 X30.0201 Y10.6025
G01 X29.9707 Y10.6570
G01 X29.9610 Y10.6667
G01 X29.9065 Y10.7161
G01 X29.8959 Y10.7248
G01 X29.8368 Y10.7686
G01 X29.8254 Y10.7763
G01 X29.7623 Y10.8141
G01 X29.7502 Y10.8206
G01 X29.6837 Y10.8520
G01 X29.6710 Y10.8573
G01 X29.6017 Y10.8820
G01 X29.5886 Y10.8860
G01 X29.5172 Y10.9039
G01 X29.5038 Y10.9066
G01 X29.4310 Y10.9174
G01 X29.4173 Y10.9187
G01 X29.3439 Y10.9223
G01 X29.3301 Y10.9223
G01 X29.2567 Y10.9187
G01 X29.2430 Y10.9174
G01 X29.1702 Y10.9066
G01 X29.1568 Y10.9039
G01 X29.0854 Y10.8860
G01 X29.0723 Y10.8820
G01 X29.0030 Y10.8573
G01 X28.9903 Y10.8520
G01 X28.9238 Y10.8206
G01 X28.9117 Y10.8141
G01 X28.8486 Y10.7763
G01 X28.8372 Y10.7686
G01 X28.7781 Y10.7248
G01 X28.7675 Y10.7161
G01 X28.7130 Y10.6667
G01 X28.7033 Y10.6570
G01 X28.6539 Y10.6025
G01 X28.6452 Y10.5919
G01 X28.6014 Y10.5328
G01 X28.5937 Y10.5214
G01 X28.5559 Y10.4583
G01 X28.5494 Y10.4462
G01 X28.5180 Y10.3797
G01 X28.5127 Y10.3670
G01 X28.4880 Y10.2977
G01 X28.4840 Y10.2846
G01 X28.4661 Y10.2132
G01 X28.4634 Y10.1998
G01 X28.4526 Y10.1270
G01 X28.4513 Y10.1133
G01 X28.4477 Y10.0399
G01 X28.4477 Y10.0261
G01 X28.4513 Y9.9527
G01 X28.4526 Y9.9390
G01 X28.4634 Y9.8662
G01 X28.4661 Y9.8528
G01 X28.4840 Y9.7814
G01 X28.4880 Y9.7683
G01 X28.5127 Y9.6990
G01 X28.5154 Y9.6926
G00 X28.5154 Y9.6926
G01 F60.00
G01 Z-0.1500
G01 F120.00
G01 X26.3070 Y7.4843
G01 X10.7609 Y7.4843
G01 X9.1617 Y9.0835
G01 X9.1617 Y11.2230
G01 X20.3644 Y22.4257
G01 X38.3939 Y22.4257
G01 X39.9449 Y20.8747
G01 X39.9449 Y20.7255
G01 X39.9379 Y20.7127
G01 X39.9275 Y20.6905
G01 X39.9222 Y20.6778
G01 X39.9139 Y20.6547
G01 X39.9099 Y20.6415
G01 X39.9040 Y20.6177
G01 X39.9013 Y20.6042
G01 X39.8977 Y20.5800
G01 X39.8963 Y20.5663
G01 X39.8950 Y20.5349
G01 X39.8950 Y19.2349
G01 X39.8963 Y19.2035
G01 X39.8977 Y19.1898
G01 X39.9013 Y19.1655
G01 X39.9040 Y19.1521
G01 X39.9099 Y19.1283
G01 X39.9139 Y19.1151
G01 X39.9222 Y19.0920
G01 X39.9275 Y19.0793
G01 X39.9379 Y19.0571
G01 X39.9444 Y19.0450
G01 X39.9570 Y19.0239
G01 X39.9647 Y19.0125
G01 X39.9793 Y18.9928
G01 X39.9880 Y18.9821
G01 X40.0045 Y18.9640
G01 X40.0142 Y18.9542
G01 X40.0324 Y18.9378
G01 X40.0430 Y18.9290
G01 X40.0628 Y18.9144
G01 X40.0742 Y18.9068
G01 X40.0952 Y18.8942
G01 X40.1074 Y18.8877
G01 X40.1295 Y18.8772
G01 X40.1423 Y18.8719
G01 X40.1654 Y18.8637
G01 X40.1785 Y18.8597
G01 X40.2023 Y18.8537
G01 X40.2158 Y18.8510
G01 X40.2401 Y18.8474
G01 X40.2538 Y18.8461
G01 X40.2783 Y18.8449
G01 X40.2920 Y18.8449
G01 X40.3165 Y18.8461
G01 X40.3302 Y18.8474
G01 X40.3545 Y18.8510
G01 X40.3680 Y18.8537
G01 X40.3918 Y18.8597
G01 X40.4050 Y18.8637
G01 X40.4281 Y18.8719
G01 X40.4408 Y18.8772
G01 X40.4630 Y18.8877
G01 X40.4751 Y18.8942
G01 X40.4961 Y18.9068
G01 X40.5076 Y18.9144
G01 X40.5273 Y18.9290
G01 X40.5379 Y18.9378
G01 X40.5561 Y18.9542
G01 X40.5658 Y18.9640
G01 X40.5823 Y18.9821
G01 X40.5910 Y18.9928
G01 X40.6056 Y19.0125
G01 X40.6133 Y19.0239
G01 X40.6259 Y19.0450
G01 X40.6324 Y19.0571
G01 X40.6429 Y19.0793
G01 X40.6481 Y19.0920
G01 X40.6564 Y19.1151
G01 X40.6604 Y19.1283
G01 X40.6664 Y19.1521
G01 X40.6690 Y19.1655
G01 X40.6726 Y19.1898
G01 X40.6740 Y19.2035
G01 X40.6754 Y19.2349
G01 X40.6752 Y20.5418
G01 X40.6740 Y20.5663
G01 X40.6726 Y20.5800
G01 X40.6690 Y20.6042
G01 X40.6664 Y20.6177
G01 X40.6604 Y20.6415
G01 X40.6564 Y20.6547
G01 X40.6481 Y20.6778
G01 X40.6429 Y20.6905
G01 X40.6324 Y20.7127
G01 X40.6255 Y20.7255
G01 X40.6255 Y21.0157
G01 X40.6243 Y21.0422
G01 X40.6230 Y21.0559
G01 X40.6201 Y21.0753
G01 X40.6174 Y21.0888
G01 X40.6126 Y21.1079
G01 X40.6086 Y21.1210
G01 X40.6020 Y21.1395
G01 X40.5968 Y21.1522
G01 X40.5884 Y21.1700
G01 X40.5819 Y21.1821
G01 X40.5718 Y21.1989
G01 X40.5641 Y21.2104
G01 X40.5524 Y21.2262
G01 X40.5437 Y21.2368
G01 X40.5258 Y21.2563
G01 X38.7755 Y23.0066
G01 X38.7559 Y23.0246
G01 X38.7453 Y23.0333
G01 X38.7295 Y23.0450
G01 X38.7181 Y23.0527
G01 X38.7012 Y23.0627
G01 X38.6891 Y23.0692
G01 X38.6714 Y23.0776
G01 X38.6586 Y23.0829
G01 X38.6402 Y23.0895
G01 X38.6270 Y23.0935
G01 X38.6079 Y23.0983
G01 X38.5944 Y23.1010
G01 X38.5750 Y23.1038
G01 X38.5613 Y23.1052
G01 X38.5348 Y23.1063
G01 X20.2235 Y23.1063
G01 X20.1970 Y23.1052
G01 X20.1833 Y23.1038
G01 X20.1639 Y23.1010
G01 X20.1504 Y23.0983
G01 X20.1313 Y23.0935
G01 X20.1182 Y23.0895
G01 X20.0997 Y23.0829
G01 X20.0870 Y23.0776
G01 X20.0692 Y23.0692
G01 X20.0571 Y23.0627
G01 X20.0402 Y23.0527
G01 X20.0288 Y23.0450
G01 X20.0130 Y23.0333
G01 X20.0024 Y23.0246
G01 X19.9828 Y23.0066
G01 X8.5808 Y11.6046
G01 X8.5629 Y11.5850
G01 X8.5541 Y11.5744
G01 X8.5424 Y11.5586
G01 X8.5348 Y11.5472
G01 X8.5247 Y11.5304
G01 X8.5182 Y11.5182
G01 X8.5098 Y11.5005
G01 X8.5045 Y11.4878
G01 X8.4979 Y11.4693
G01 X8.4939 Y11.4561
G01 X8.4892 Y11.4371
G01 X8.4865 Y11.4236
G01 X8.4836 Y11.4041
G01 X8.4823 Y11.3904
G01 X8.4811 Y11.3639
G01 X8.4811 Y8.9426
G01 X8.4823 Y8.9161
G01 X8.4836 Y8.9024
G01 X8.4865 Y8.8830
G01 X8.4892 Y8.8695
G01 X8.4939 Y8.8504
G01 X8.4979 Y8.8373
G01 X8.5045 Y8.8188
G01 X8.5098 Y8.8061
G01 X8.5182 Y8.7883
G01 X8.5247 Y8.7762
G01 X8.5348 Y8.7593
G01 X8.5424 Y8.7479
G01 X8.5541 Y8.7321
G01 X8.5629 Y8.7215
G01 X8.5808 Y8.7019
G01 X10.3794 Y6.9034
G01 X10.3989 Y6.8854
G01 X10.4095 Y6.8767
G01 X10.4253 Y6.8650
G01 X10.4367 Y6.8574
G01 X10.4536 Y6.8473
G01 X10.4657 Y6.8408
G01 X10.4835 Y6.8324
G01 X10.4962 Y6.8271
G01 X10.5147 Y6.8205
G01 X10.5278 Y6.8165
G01 X10.5469 Y6.8117
G01 X10.5604 Y6.8091
G01 X10.5798 Y6.8062
G01 X10.5935 Y6.8048
G01 X10.6200 Y6.8037
G01 X26.4480 Y6.8037
G01 X26.4745 Y6.8048
G01 X26.4882 Y6.8062
G01 X26.5076 Y6.8091
G01 X26.5211 Y6.8117
G01 X26.5402 Y6.8165
G01 X26.5533 Y6.8205
G01 X26.5718 Y6.8271
G01 X26.5845 Y6.8324
G01 X26.6023 Y6.8408
G01 X26.6144 Y6.8473
G01 X26.6312 Y6.8574
G01 X26.6427 Y6.8650
G01 X26.6585 Y6.8767
G01 X26.6691 Y6.8854
G01 X26.6886 Y6.9034
G01 X28.9966 Y9.2114
G01 X29.0030 Y9.2087
G01 X29.0723 Y9.1840
G01 X29.0854 Y9.1800
G01 X29.1568 Y9.1621
G01 X29.1702 Y9.1594
G01 X29.2430 Y9.1486
G01 X29.2567 Y9.1473
G01 X29.3301 Y9.1437
G01 X29.3439 Y9.1437
G01 X29.4173 Y9.1473
G01 X29.4310 Y9.1486
G01 X29.5038 Y9.1594
G01 X29.5172 Y9.1621
G01 X29.5886 Y9.1800
G01 X29.6017 Y9.1840
G01 X29.6710 Y9.2087
G01 X29.6837 Y9.2140
G01 X29.7502 Y9.2454
G01 X29.7623 Y9.2519
G01 X29.8254 Y9.2897
G01 X29.8368 Y9.2974
G01 X29.8959 Y9.3412
G01 X29.9065 Y9.3499
G01 X29.9610 Y9.3993
G01 X29.9707 Y9.4090
G01 X30.0201 Y9.4635
G01 X30.0288 Y9.4741
G01 X30.0726 Y9.5332
G01 X30.0803 Y9.5446
G01 X30.1181 Y9.6077
G01 X30.1246 Y9.6198
G01 X30.1560 Y9.6863
G01 X30.1613 Y9.6990
G01 X30.1860 Y9.7683
G01 X30.1900 Y9.7814
G01 X30.2079 Y9.8528
G01 X30.2106 Y9.8662
G01 X30.2214 Y9.9390
G01 X30.2227 Y9.9527
G01 X30.2263 Y10.0261
G01 X30.2263 Y10.0399
G01 X30.2227 Y10.1133
G01 X30.2214 Y10.1270
G01 X30.2106 Y10.1998
G01 X30.2079 Y10.2132
G01 X30.1900 Y10.2846
G01 X30.1860 Y10.2977
G01 X30.1613 Y10.3670
G01 X30.1560 Y10.3797
G01 X30.1246 Y10.4462
G01 X30.1181 Y10.4583
G01 X30.0803 Y10.5214
G01 X30.0726 Y10.5328
G01 X30.0288 Y10.5919
G01 X30.0201 Y10.6025
G01 X29.9707 Y10.6570
G01 X29.9610 Y10.6667
G01 X29.9065 Y10.7161
G01 X29.8959 Y10.7248
G01 X29.8368 Y10.7686
G01 X29.8254 Y10.7763
G01 X29.7623 Y10.8141
G01 X29.7502 Y10.8206
G01 X29.6837 Y10.8520
G01 X29.6710 Y10.8573
G01 X29.6017 Y10.8820
G01 X29.5886 Y10.8860
G01 X29.5172 Y10.9039
G01 X29.5038 Y10.9066
G01 X29.4310 Y10.9174
G01 X29.4173 Y10.9187
G01 X29.3439 Y10.9223
G01 X29.3301 Y10.9223
G01 X29.2567 Y10.9187
G01 X29.2430 Y10.9174
G01 X29.1702 Y10.9066
G01 X29.1568 Y10.9039
G01 X29.0854 Y10.8860
G01 X29.0723 Y10.8820
G01 X29.0030 Y10.8573
G01 X28.9903 Y10.8520
G01 X28.9238 Y10.8206
G01 X28.9117 Y10.8141
G01 X28.8486 Y10.7763
G01 X28.8372 Y10.7686
G01 X28.7781 Y10.7248
G01 X28.7675 Y10.7161
G01 X28.7130 Y10.6667
G01 X28.7033 Y10.6570
G01 X28.6539 Y10.6025
G01 X28.6452 Y10.5919
G01 X28.6014 Y10.5328
G01 X28.5937 Y10.5214
G01 X28.5559 Y10.4583
G01 X28.5494 Y10.4462
G01 X28.5180 Y10.3797
G01 X28.5127 Y10.3670
G01 X28.4880 Y10.2977
G01 X28.4840 Y10.2846
G01 X28.4661 Y10.2132
G01 X28.4634 Y10.1998
G01 X28.4526 Y10.1270
G01 X28.4513 Y10.1133
G01 X28.4477 Y10.0399
G01 X28.4477 Y10.0261
G01 X28.4513 Y9.9527
G01 X28.4526 Y9.9390
G01 X28.4634 Y9.8662
G01 X28.4661 Y9.8528
G01 X28.4840 Y9.7814
G01 X28.4880 Y9.7683
G01 X28.5127 Y9.6990
G01 X28.5154 Y9.6926
G00 Z2.0000
G00 X32.3956 Y10.7547
G01 F60.00
G01 Z-0.0800
G01 F120.00
G01 X32.3768 Y10.7686
G01 X32.3654 Y10.7763
G01 X32.3023 Y10.8141
G01 X32.2902 Y10.8206
G01 X32.2237 Y10.8520
G01 X32.2110 Y10.8573
G01 X32.1417 Y10.8820
G01 X32.1286 Y10.8860
G01 X32.0572 Y10.9039
G01 X32.0438 Y10.9066
G01 X31.9710 Y10.9174
G01 X31.9573 Y10.9187
G01 X31.8839 Y10.9223
G01 X31.8701 Y10.9223
G01 X31.7967 Y10.9187
G01 X31.7830 Y10.9174
G01 X31.7102 Y10.9066
G01 X31.6968 Y10.9039
G01 X31.6254 Y10.8860
G01 X31.6123 Y10.8820
G01 X31.5430 Y10.8573
G01 X31.5303 Y10.8520
G01 X31.4638 Y10.8206
G01 X31.4517 Y10.8141
G01 X31.3886 Y10.7763
G01 X31.3772 Y10.7686
G01 X31.3181 Y10.7248
G01 X31.3075 Y10.7161
G01 X31.2530 Y10.6667
G01 X31.2433 Y10.6570
G01 X31.1939 Y10.6025
G01 X31.1852 Y10.5919
G01 X31.1414 Y10.5328
G01 X31.1337 Y10.5214
G01 X31.0959 Y10.4583
G01 X31.0894 Y10.4462
G01 X31.0580 Y10.3797
G01 X31.0527 Y10.3670
G01 X31.0280 Y10.2977
G01 X31.0240 Y10.2846
G01 X31.0061 Y10.2132
G01 X31.0034 Y10.1998
G01 X30.9926 Y10.1270
G01 X30.9913 Y10.1133
G01 X30.9877 Y10.0399
G01 X30.9877 Y10.0261
G01 X30.9913 Y9.9527
G01 X30.9926 Y9.9390
G01 X31.0034 Y9.8662
G01 X31.0061 Y9.8528
G01 X31.0240 Y9.7814
G01 X31.0280 Y9.7683
G01 X31.0527 Y9.6990
G01 X31.0580 Y9.6863
G01 X31.0894 Y9.6198
G01 X31.0959 Y9.6077
G01 X31.1337 Y9.5446
G01 X31.1414 Y9.5332
G01 X31.1852 Y9.4741
G01 X31.1939 Y9.4635
G01 X31.2433 Y9.4090
G01 X31.2530 Y9.3993
G01 X31.3075 Y9.3499
G01 X31.3181 Y9.3412
G01 X31.3772 Y9.2974
G01 X31.3886 Y9.2897
G01 X31.4517 Y9.2519
G01 X31.4638 Y9.2454
G01 X31.5303 Y9.2140
G01 X31.5430 Y9.2087
G01 X31.6123 Y9.1840
G01 X31.6254 Y9.1800
G01 X31.6968 Y9.1621
G01 X31.7102 Y9.1594
G01 X31.7830 Y9.1486
G01 X31.7967 Y9.1473
G01 X31.8701 Y9.1437
G01 X31.8839 Y9.1437
G01 X31.9573 Y9.1473
G01 X31.9710 Y9.1486
G01 X32.0438 Y9.1594
G01 X32.0572 Y9.1621
