(G-CODE GENERATED BY FLATCAM v8.991 - www.flatcam.org - Version Date: 2019/12/27)

(Name: 1)
(Type: G-code from Excellon)
(Units: MM)

(Created on Sunday, 16 July 2023 at 11:00)

(Feedrate: 60.0 mm/min)
(Feedrate rapids 1500.0 mm/min)

(Z_Cut: -2.0 mm)
(Z_Move: 2.0 mm)
(Z Toolchange: 15.0 mm)
(X,Y Toolchange: 0.0000, 0.0000 mm)
(Z Start: None mm)
(Z End: 5.0 mm)
(Steps per circle: 64)
(Preprocessor Excellon: default)

(X range:   11.0995 ...   65.3545  mm)
(Y range:    9.5755 ...   40.9705  mm)

(Spindle Speed: None RPM)
G21
G90
G94

(Tool change)
M06

(Probing new tool)
G30

(Give chance for removing probing wires)
M06

(Zeroing Z-axis after probing)
G92 X0 Y0 Z0


G01 F60.00
G00 Z2.0000

M03
G00 X11.5570 Y10.0330
G01 Z-2.0000
G01 Z0
G00 Z2.0000
G00 X14.0970 Y10.0330
G01 Z-2.0000
G01 Z0
G00 Z2.0000
G00 X16.6370 Y10.0330
G01 Z-2.0000
G01 Z0
G00 Z2.0000
G00 X19.1770 Y10.0330
G01 Z-2.0000
G01 Z0
G00 Z2.0000
G00 X21.7170 Y10.0330
G01 Z-2.0000
G01 Z0
G00 Z2.0000
G00 X24.2570 Y10.0330
G01 Z-2.0000
G01 Z0
G00 Z2.0000
G00 X26.7970 Y10.0330
G01 Z-2.0000
G01 Z0
G00 Z2.0000
G00 X29.3370 Y10.0330
G01 Z-2.0000
G01 Z0
G00 Z2.0000
G00 X31.8770 Y10.0330
G01 Z-2.0000
G01 Z0
G00 Z2.0000
G00 X34.4170 Y10.0330
G01 Z-2.0000
G01 Z0
G00 Z2.0000
G00 X36.9570 Y10.0330
G01 Z-2.0000
G01 Z0
G00 Z2.0000
G00 X39.4970 Y10.0330
G01 Z-2.0000
G01 Z0
G00 Z2.0000
G00 X42.0370 Y10.0330
G01 Z-2.0000
G01 Z0
G00 Z2.0000
G00 X44.5770 Y10.0330
G01 Z-2.0000
G01 Z0
G00 Z2.0000
G00 X47.1170 Y10.0330
G01 Z-2.0000
G01 Z0
G00 Z2.0000
G00 X49.6570 Y10.0330
G01 Z-2.0000
G01 Z0
G00 Z2.0000
G00 X52.1970 Y10.0330
G01 Z-2.0000
G01 Z0
G00 Z2.0000
G00 X54.7370 Y10.0330
G01 Z-2.0000
G01 Z0
G00 Z2.0000
G00 X57.2770 Y10.0330
G01 Z-2.0000
G01 Z0
G00 Z2.0000
G00 X59.8170 Y10.0330
G01 Z-2.0000
G01 Z0
G00 Z2.0000
G00 X62.3570 Y10.0330
G01 Z-2.0000
G01 Z0
G00 Z2.0000
G00 X64.8970 Y10.0330
G01 Z-2.0000
G01 Z0
G00 Z2.0000
G00 X64.8970 Y12.5730
G01 Z-2.0000
G01 Z0
G00 Z2.0000
G00 X64.8970 Y15.1130
G01 Z-2.0000
G01 Z0
G00 Z2.0000
G00 X64.8970 Y17.6530
G01 Z-2.0000
G01 Z0
G00 Z2.0000
G00 X64.8970 Y20.1930
G01 Z-2.0000
G01 Z0
G00 Z2.0000
G00 X64.8970 Y22.7330
G01 Z-2.0000
G01 Z0
G00 Z2.0000
G00 X64.8970 Y25.2730
G01 Z-2.0000
G01 Z0
G00 Z2.0000
G00 X64.8970 Y27.8130
G01 Z-2.0000
G01 Z0
G00 Z2.0000
G00 X64.8970 Y30.3530
G01 Z-2.0000
G01 Z0
G00 Z2.0000
G00 X64.8970 Y32.8930
G01 Z-2.0000
G01 Z0
G00 Z2.0000
G00 X64.8970 Y35.4330
G01 Z-2.0000
G01 Z0
G00 Z2.0000
G00 X64.8970 Y37.9730
G01 Z-2.0000
G01 Z0
G00 Z2.0000
G00 X64.8970 Y40.5130
G01 Z-2.0000
G01 Z0
G00 Z2.0000
G00 X62.3570 Y40.5130
G01 Z-2.0000
G01 Z0
G00 Z2.0000
G00 X59.8170 Y40.5130
G01 Z-2.0000
G01 Z0
G00 Z2.0000
G00 X57.2770 Y40.5130
G01 Z-2.0000
G01 Z0
G00 Z2.0000
G00 X54.7370 Y40.5130
G01 Z-2.0000
G01 Z0
G00 Z2.0000
G00 X52.1970 Y40.5130
G01 Z-2.0000
G01 Z0
G00 Z2.0000
G00 X49.6570 Y40.5130
G01 Z-2.0000
G01 Z0
G00 Z2.0000
G00 X47.1170 Y40.5130
G01 Z-2.0000
G01 Z0
G00 Z2.0000
G00 X44.5770 Y40.5130
G01 Z-2.0000
G01 Z0
G00 Z2.0000
G00 X42.0370 Y40.5130
G01 Z-2.0000
G01 Z0
G00 Z2.0000
G00 X39.4970 Y40.5130
G01 Z-2.0000
G01 Z0
G00 Z2.0000
G00 X36.9570 Y40.5130
G01 Z-2.0000
G01 Z0
G00 Z2.0000
G00 X34.4170 Y40.5130
G01 Z-2.0000
G01 Z0
G00 Z2.0000
G00 X31.8770 Y40.5130
G01 Z-2.0000
G01 Z0
G00 Z2.0000
G00 X29.3370 Y40.5130
G01 Z-2.0000
G01 Z0
G00 Z2.0000
G00 X26.7970 Y40.5130
G01 Z-2.0000
G01 Z0
G00 Z2.0000
G00 X24.2570 Y40.5130
G01 Z-2.0000
G01 Z0
G00 Z2.0000
G00 X21.7170 Y40.5130
G01 Z-2.0000
G01 Z0
G00 Z2.0000
G00 X19.1770 Y40.5130
G01 Z-2.0000
G01 Z0
G00 Z2.0000
G00 X16.6370 Y40.5130
G01 Z-2.0000
G01 Z0
G00 Z2.0000
G00 X14.0970 Y40.5130
G01 Z-2.0000
G01 Z0
G00 Z2.0000
G00 X11.5570 Y40.5130
G01 Z-2.0000
G01 Z0
G00 Z2.0000
M05
G00 Z5.00
G00 X0.0 Y0.0

