(G-CODE GENERATED BY FLATCAM v8.991 - www.flatcam.org - Version Date: 2019/12/27)

(Name: 2)
(Type: G-code from Geometry)
(Units: MM)

(Created on Sunday, 16 July 2023 at 11:05)

(TOOL DIAMETER: 1.5 mm)
(Feedrate: 60.0 mm/min)
(Feedrate_Z: 60.0 mm/min)
(Feedrate rapids 1500.0 mm/min)

(Z_Cut: -2.0 mm)
(DepthPerCut: 0.5 mm <=>4 passes)
(Z_Move: 2.0 mm)
(Z Toolchange: 15.0 mm)
(X,Y Toolchange: 0.0000, 0.0000 mm)
(Z Start: None mm)
(Z End: 5.0 mm)
(Steps per circle: 64)
(Preprocessor Geometry: default)

(X range:    3.0599 ...   70.8541  mm)
(Y range:    2.5519 ...   46.3431  mm)

(Spindle Speed: None RPM)
G21
G90
G94

(Tool change)
M06

(Probing new tool)
G30

(Give chance for removing probing wires)
M06

(Zeroing Z-axis after probing)
G92 X0 Y0 Z0


G01 F60.00
G00 Z2.0000

M03
G00 X3.0599 Y23.1975
G01 F60.00
G01 Z-0.5000
G01 F60.00
G01 X3.0599 Y3.3019
G01 X3.0635 Y3.2284
G01 X3.0743 Y3.1556
G01 X3.0922 Y3.0842
G01 X3.1170 Y3.0149
G01 X3.1485 Y2.9484
G01 X3.1863 Y2.8853
G01 X3.2302 Y2.8261
G01 X3.2796 Y2.7716
G01 X3.3341 Y2.7222
G01 X3.3933 Y2.6783
G01 X3.4564 Y2.6405
G01 X3.5229 Y2.6090
G01 X3.5922 Y2.5842
G01 X3.6636 Y2.5663
G01 X3.7364 Y2.5555
G01 X3.8099 Y2.5519
G01 X35.7070 Y2.5519
G00 X35.7070 Y2.5519
G01 F60.00
G01 Z-1.0000
G01 F60.00
G01 X3.8099 Y2.5519
G01 X3.7364 Y2.5555
G01 X3.6636 Y2.5663
G01 X3.5922 Y2.5842
G01 X3.5229 Y2.6090
G01 X3.4564 Y2.6405
G01 X3.3933 Y2.6783
G01 X3.3341 Y2.7222
G01 X3.2796 Y2.7716
G01 X3.2302 Y2.8261
G01 X3.1863 Y2.8853
G01 X3.1485 Y2.9484
G01 X3.1170 Y3.0149
G01 X3.0922 Y3.0842
G01 X3.0743 Y3.1556
G01 X3.0635 Y3.2284
G01 X3.0599 Y3.3019
G01 X3.0599 Y23.1975
G00 X3.0599 Y23.1975
G01 F60.00
G01 Z-1.5000
G01 F60.00
G01 X3.0599 Y3.3019
G01 X3.0635 Y3.2284
G01 X3.0743 Y3.1556
G01 X3.0922 Y3.0842
G01 X3.1170 Y3.0149
G01 X3.1485 Y2.9484
G01 X3.1863 Y2.8853
G01 X3.2302 Y2.8261
G01 X3.2796 Y2.7716
G01 X3.3341 Y2.7222
G01 X3.3933 Y2.6783
G01 X3.4564 Y2.6405
G01 X3.5229 Y2.6090
G01 X3.5922 Y2.5842
G01 X3.6636 Y2.5663
G01 X3.7364 Y2.5555
G01 X3.8099 Y2.5519
G01 X35.7070 Y2.5519
G00 X35.7070 Y2.5519
G01 F60.00
G01 Z-2.0000
G01 F60.00
G01 X3.8099 Y2.5519
G01 X3.7364 Y2.5555
G01 X3.6636 Y2.5663
G01 X3.5922 Y2.5842
G01 X3.5229 Y2.6090
G01 X3.4564 Y2.6405
G01 X3.3933 Y2.6783
G01 X3.3341 Y2.7222
G01 X3.2796 Y2.7716
G01 X3.2302 Y2.8261
G01 X3.1863 Y2.8853
G01 X3.1485 Y2.9484
G01 X3.1170 Y3.0149
G01 X3.0922 Y3.0842
G01 X3.0743 Y3.1556
G01 X3.0635 Y3.2284
G01 X3.0599 Y3.3019
G01 X3.0599 Y23.1975
G00 Z2.0000
G00 X3.0599 Y25.6975
G01 F60.00
G01 Z-0.5000
G01 F60.00
G01 X3.0599 Y45.5931
G01 X3.0635 Y45.6666
G01 X3.0743 Y45.7394
G01 X3.0922 Y45.8108
G01 X3.1170 Y45.8801
G01 X3.1485 Y45.9466
G01 X3.1863 Y46.0097
G01 X3.2302 Y46.0689
G01 X3.2796 Y46.1234
G01 X3.3341 Y46.1728
G01 X3.3933 Y46.2167
G01 X3.4564 Y46.2545
G01 X3.5229 Y46.2860
G01 X3.5922 Y46.3108
G01 X3.6636 Y46.3287
G01 X3.7364 Y46.3395
G01 X3.8099 Y46.3431
G01 X35.7070 Y46.3431
G00 X35.7070 Y46.3431
G01 F60.00
G01 Z-1.0000
G01 F60.00
G01 X3.8099 Y46.3431
G01 X3.7364 Y46.3395
G01 X3.6636 Y46.3287
G01 X3.5922 Y46.3108
G01 X3.5229 Y46.2860
G01 X3.4564 Y46.2545
G01 X3.3933 Y46.2167
G01 X3.3341 Y46.1728
G01 X3.2796 Y46.1234
G01 X3.2302 Y46.0689
G01 X3.1863 Y46.0097
G01 X3.1485 Y45.9466
G01 X3.1170 Y45.8801
G01 X3.0922 Y45.8108
G01 X3.0743 Y45.7394
G01 X3.0635 Y45.6666
G01 X3.0599 Y45.5931
G01 X3.0599 Y25.6975
G00 X3.0599 Y25.6975
G01 F60.00
G01 Z-1.5000
G01 F60.00
G01 X3.0599 Y45.5931
G01 X3.0635 Y45.6666
G01 X3.0743 Y45.7394
G01 X3.0922 Y45.8108
G01 X3.1170 Y45.8801
G01 X3.1485 Y45.9466
G01 X3.1863 Y46.0097
G01 X3.2302 Y46.0689
G01 X3.2796 Y46.1234
G01 X3.3341 Y46.1728
G01 X3.3933 Y46.2167
G01 X3.4564 Y46.2545
G01 X3.5229 Y46.2860
G01 X3.5922 Y46.3108
G01 X3.6636 Y46.3287
G01 X3.7364 Y46.3395
G01 X3.8099 Y46.3431
G01 X35.7070 Y46.3431
G00 X35.7070 Y46.3431
G01 F60.00
G01 Z-2.0000
G01 F60.00
G01 X3.8099 Y46.3431
G01 X3.7364 Y46.3395
G01 X3.6636 Y46.3287
G01 X3.5922 Y46.3108
G01 X3.5229 Y46.2860
G01 X3.4564 Y46.2545
G01 X3.3933 Y46.2167
G01 X3.3341 Y46.1728
G01 X3.2796 Y46.1234
G01 X3.2302 Y46.0689
G01 X3.1863 Y46.0097
G01 X3.1485 Y45.9466
G01 X3.1170 Y45.8801
G01 X3.0922 Y45.8108
G01 X3.0743 Y45.7394
G01 X3.0635 Y45.6666
G01 X3.0599 Y45.5931
G01 X3.0599 Y25.6975
G00 Z2.0000
G00 X38.2070 Y46.3431
G01 F60.00
G01 Z-0.5000
G01 F60.00
G01 X70.1041 Y46.3431
G01 X70.1776 Y46.3395
G01 X70.2504 Y46.3287
G01 X70.3218 Y46.3108
G01 X70.3911 Y46.2860
G01 X70.4576 Y46.2545
G01 X70.5207 Y46.2167
G01 X70.5799 Y46.1728
G01 X70.6344 Y46.1234
G01 X70.6838 Y46.0689
G01 X70.7277 Y46.0097
G01 X70.7655 Y45.9466
G01 X70.7970 Y45.8801
G01 X70.8218 Y45.8108
G01 X70.8397 Y45.7394
G01 X70.8505 Y45.6666
G01 X70.8541 Y45.5931
G01 X70.8541 Y25.6975
G00 X70.8541 Y25.6975
G01 F60.00
G01 Z-1.0000
G01 F60.00
G01 X70.8541 Y45.5931
G01 X70.8505 Y45.6666
G01 X70.8397 Y45.7394
G01 X70.8218 Y45.8108
G01 X70.7970 Y45.8801
G01 X70.7655 Y45.9466
G01 X70.7277 Y46.0097
G01 X70.6838 Y46.0689
G01 X70.6344 Y46.1234
G01 X70.5799 Y46.1728
G01 X70.5207 Y46.2167
G01 X70.4576 Y46.2545
G01 X70.3911 Y46.2860
G01 X70.3218 Y46.3108
G01 X70.2504 Y46.3287
G01 X70.1776 Y46.3395
G01 X70.1041 Y46.3431
G01 X38.2070 Y46.3431
G00 X38.2070 Y46.3431
G01 F60.00
G01 Z-1.5000
G01 F60.00
G01 X70.1041 Y46.3431
G01 X70.1776 Y46.3395
G01 X70.2504 Y46.3287
G01 X70.3218 Y46.3108
G01 X70.3911 Y46.2860
G01 X70.4576 Y46.2545
G01 X70.5207 Y46.2167
G01 X70.5799 Y46.1728
G01 X70.6344 Y46.1234
G01 X70.6838 Y46.0689
G01 X70.7277 Y46.0097
G01 X70.7655 Y45.9466
G01 X70.7970 Y45.8801
G01 X70.8218 Y45.8108
G01 X70.8397 Y45.7394
G01 X70.8505 Y45.6666
G01 X70.8541 Y45.5931
G01 X70.8541 Y25.6975
G00 X70.8541 Y25.6975
G01 F60.00
G01 Z-2.0000
G01 F60.00
G01 X70.8541 Y45.5931
G01 X70.8505 Y45.6666
G01 X70.8397 Y45.7394
G01 X70.8218 Y45.8108
G01 X70.7970 Y45.8801
G01 X70.7655 Y45.9466
G01 X70.7277 Y46.0097
G01 X70.6838 Y46.0689
G01 X70.6344 Y46.1234
G01 X70.5799 Y46.1728
G01 X70.5207 Y46.2167
G01 X70.4576 Y46.2545
G01 X70.3911 Y46.2860
G01 X70.3218 Y46.3108
G01 X70.2504 Y46.3287
G01 X70.1776 Y46.3395
G01 X70.1041 Y46.3431
G01 X38.2070 Y46.3431
G00 Z2.0000
G00 X70.8541 Y23.1975
G01 F60.00
G01 Z-0.5000
G01 F60.00
G01 X70.8541 Y3.3019
G01 X70.8505 Y3.2284
G01 X70.8397 Y3.1556
G01 X70.8218 Y3.0842
G01 X70.7970 Y3.0149
G01 X70.7655 Y2.9484
G01 X70.7277 Y2.8853
G01 X70.6838 Y2.8261
G01 X70.6344 Y2.7716
G01 X70.5799 Y2.7222
G01 X70.5207 Y2.6783
G01 X70.4576 Y2.6405
G01 X70.3911 Y2.6090
G01 X70.3218 Y2.5842
G01 X70.2504 Y2.5663
G01 X70.1776 Y2.5555
G01 X70.1041 Y2.5519
G00 X70.1041 Y2.5519
G01 F60.00
G01 Z-1.0000
G01 F60.00
G01 X70.1776 Y2.5555
G01 X70.2504 Y2.5663
G01 X70.3218 Y2.5842
G01 X70.3911 Y2.6090
G01 X70.4576 Y2.6405
G01 X70.5207 Y2.6783
G01 X70.5799 Y2.7222
G01 X70.6344 Y2.7716
G01 X70.6838 Y2.8261
G01 X70.7277 Y2.8853
G01 X70.7655 Y2.9484
G01 X70.7970 Y3.0149
G01 X70.8218 Y3.0842
G01 X70.8397 Y3.1556
G01 X70.8505 Y3.2284
G01 X70.8541 Y3.3019
G01 X70.8541 Y23.1975
G00 X70.8541 Y23.1975
G01 F60.00
G01 Z-1.5000
G01 F60.00
G01 X70.8541 Y3.3019
G01 X70.8505 Y3.2284
G01 X70.8397 Y3.1556
G01 X70.8218 Y3.0842
G01 X70.7970 Y3.0149
G01 X70.7655 Y2.9484
G01 X70.7277 Y2.8853
G01 X70.6838 Y2.8261
G01 X70.6344 Y2.7716
G01 X70.5799 Y2.7222
G01 X70.5207 Y2.6783
G01 X70.4576 Y2.6405
G01 X70.3911 Y2.6090
G01 X70.3218 Y2.5842
G01 X70.2504 Y2.5663
G01 X70.1776 Y2.5555
G01 X70.1041 Y2.5519
G00 X70.1041 Y2.5519
G01 F60.00
G01 Z-2.0000
G01 F60.00
G01 X70.1776 Y2.5555
G01 X70.2504 Y2.5663
G01 X70.3218 Y2.5842
G01 X70.3911 Y2.6090
G01 X70.4576 Y2.6405
G01 X70.5207 Y2.6783
G01 X70.5799 Y2.7222
G01 X70.6344 Y2.7716
G01 X70.6838 Y2.8261
G01 X70.7277 Y2.8853
G01 X70.7655 Y2.9484
G01 X70.7970 Y3.0149
G01 X70.8218 Y3.0842
G01 X70.8397 Y3.1556
G01 X70.8505 Y3.2284
G01 X70.8541 Y3.3019
G01 X70.8541 Y23.1975
G00 Z2.0000
G00 X70.1041 Y2.5519
G01 F60.00
G01 Z-0.5000
G01 F60.00
G01 X38.2070 Y2.5519
G00 X38.2070 Y2.5519
G01 F60.00
G01 Z-1.0000
G01 F60.00
G01 X70.1041 Y2.5519
G00 X70.1041 Y2.5519
G01 F60.00
G01 Z-1.5000
G01 F60.00
G01 X38.2070 Y2.5519
G00 X38.2070 Y2.5519
G01 F60.00
G01 Z-2.0000
G01 F60.00
G01 X70.1041 Y2.5519
G00 Z2.0000
M05
G00 Z2.0000
G00 Z5.00
G00 X0.0 Y0.0

