(G-CODE GENERATED BY FLATCAM v8.991 - www.flatcam.org - Version Date: 2019/12/27)

(Name: copper_bottom.gbr_cutout_cnc)
(Type: G-code from Geometry)
(Units: MM)

(Created on Saturday, 24 June 2023 at 14:35)

(TOOL DIAMETER: 1.5 mm)
(Feedrate: 60.0 mm/min)
(Feedrate_Z: 60.0 mm/min)
(Feedrate rapids 1500.0 mm/min)

(Z_Cut: -2.0 mm)
(DepthPerCut: 0.5 mm <=>4 passes)
(Z_Move: 2.0 mm)
(Z Toolchange: 15.0 mm)
(X,Y Toolchange: 0.0000, 0.0000 mm)
(Z Start: None mm)
(Z End: 5.0 mm)
(Steps per circle: 64)
(Preprocessor Geometry: default)

(X range:    6.0290 ...   37.7098  mm)
(Y range:   10.7279 ...   31.9444  mm)

(Spindle Speed: 65535 RPM)
G21
G90
G94

(Tool change)
M06
(Probing new tool)
G30

(Give chance for removing probing wires)
M06

(Zeroing Z-axis after probing)
G92 X0 Y0 Z0



G01 F60.00
G00 Z2.0000

M03 S65535
G00 X6.0290 Y19.2500
G01 F60.00
G01 Z-0.5000
G01 F60.00
G01 X6.0290 Y14.4779
G01 X6.0471 Y14.1103
G01 X6.1011 Y13.7463
G01 X6.1905 Y13.3893
G01 X6.3145 Y13.0428
G01 X6.4718 Y12.7101
G01 X6.6610 Y12.3945
G01 X6.8802 Y12.0989
G01 X7.1273 Y11.8262
G01 X7.4000 Y11.5791
G01 X7.6956 Y11.3599
G01 X8.0113 Y11.1707
G01 X8.3439 Y11.0133
G01 X8.6904 Y10.8893
G01 X9.0474 Y10.7999
G01 X9.4114 Y10.7459
G01 X9.7790 Y10.7279
G01 X20.2500 Y10.7279
G00 X20.2500 Y10.7279
G01 F60.00
G01 Z-1.0000
G01 F60.00
G01 X9.7790 Y10.7279
G01 X9.4114 Y10.7459
G01 X9.0474 Y10.7999
G01 X8.6904 Y10.8893
G01 X8.3439 Y11.0133
G01 X8.0113 Y11.1707
G01 X7.6956 Y11.3599
G01 X7.4000 Y11.5791
G01 X7.1273 Y11.8262
G01 X6.8802 Y12.0989
G01 X6.6610 Y12.3945
G01 X6.4718 Y12.7101
G01 X6.3145 Y13.0428
G01 X6.1905 Y13.3893
G01 X6.1011 Y13.7463
G01 X6.0471 Y14.1103
G01 X6.0290 Y14.4779
G01 X6.0290 Y19.2500
G00 X6.0290 Y19.2500
G01 F60.00
G01 Z-1.5000
G01 F60.00
G01 X6.0290 Y14.4779
G01 X6.0471 Y14.1103
G01 X6.1011 Y13.7463
G01 X6.1905 Y13.3893
G01 X6.3145 Y13.0428
G01 X6.4718 Y12.7101
G01 X6.6610 Y12.3945
G01 X6.8802 Y12.0989
G01 X7.1273 Y11.8262
G01 X7.4000 Y11.5791
G01 X7.6956 Y11.3599
G01 X8.0113 Y11.1707
G01 X8.3439 Y11.0133
G01 X8.6904 Y10.8893
G01 X9.0474 Y10.7999
G01 X9.4114 Y10.7459
G01 X9.7790 Y10.7279
G01 X20.2500 Y10.7279
G00 X20.2500 Y10.7279
G01 F60.00
G01 Z-2.0000
G01 F60.00
G01 X9.7790 Y10.7279
G01 X9.4114 Y10.7459
G01 X9.0474 Y10.7999
G01 X8.6904 Y10.8893
G01 X8.3439 Y11.0133
G01 X8.0113 Y11.1707
G01 X7.6956 Y11.3599
G01 X7.4000 Y11.5791
G01 X7.1273 Y11.8262
G01 X6.8802 Y12.0989
G01 X6.6610 Y12.3945
G01 X6.4718 Y12.7101
G01 X6.3145 Y13.0428
G01 X6.1905 Y13.3893
G01 X6.1011 Y13.7463
G01 X6.0471 Y14.1103
G01 X6.0290 Y14.4779
G01 X6.0290 Y19.2500
G00 Z2.0000
G00 X6.0290 Y22.7500
G01 F60.00
G01 Z-0.5000
G01 F60.00
G01 X6.0290 Y28.1944
G01 X6.0471 Y28.5619
G01 X6.1011 Y28.9260
G01 X6.1905 Y29.2829
G01 X6.3145 Y29.6294
G01 X6.4718 Y29.9621
G01 X6.6610 Y30.2778
G01 X6.8802 Y30.5734
G01 X7.1273 Y30.8460
G01 X7.4000 Y31.0932
G01 X7.6956 Y31.3124
G01 X8.0113 Y31.5016
G01 X8.3439 Y31.6589
G01 X8.6904 Y31.7829
G01 X9.0474 Y31.8723
G01 X9.4114 Y31.9263
G01 X9.7790 Y31.9444
G01 X20.2500 Y31.9444
G00 X20.2500 Y31.9444
G01 F60.00
G01 Z-1.0000
G01 F60.00
G01 X9.7790 Y31.9444
G01 X9.4114 Y31.9263
G01 X9.0474 Y31.8723
G01 X8.6904 Y31.7829
G01 X8.3439 Y31.6589
G01 X8.0113 Y31.5016
G01 X7.6956 Y31.3124
G01 X7.4000 Y31.0932
G01 X7.1273 Y30.8460
G01 X6.8802 Y30.5734
G01 X6.6610 Y30.2778
G01 X6.4718 Y29.9621
G01 X6.3145 Y29.6294
G01 X6.1905 Y29.2829
G01 X6.1011 Y28.9260
G01 X6.0471 Y28.5619
G01 X6.0290 Y28.1944
G01 X6.0290 Y22.7500
G00 X6.0290 Y22.7500
G01 F60.00
G01 Z-1.5000
G01 F60.00
G01 X6.0290 Y28.1944
G01 X6.0471 Y28.5619
G01 X6.1011 Y28.9260
G01 X6.1905 Y29.2829
G01 X6.3145 Y29.6294
G01 X6.4718 Y29.9621
G01 X6.6610 Y30.2778
G01 X6.8802 Y30.5734
G01 X7.1273 Y30.8460
G01 X7.4000 Y31.0932
G01 X7.6956 Y31.3124
G01 X8.0113 Y31.5016
G01 X8.3439 Y31.6589
G01 X8.6904 Y31.7829
G01 X9.0474 Y31.8723
G01 X9.4114 Y31.9263
G01 X9.7790 Y31.9444
G01 X20.2500 Y31.9444
G00 X20.2500 Y31.9444
G01 F60.00
G01 Z-2.0000
G01 F60.00
G01 X9.7790 Y31.9444
G01 X9.4114 Y31.9263
G01 X9.0474 Y31.8723
G01 X8.6904 Y31.7829
G01 X8.3439 Y31.6589
G01 X8.0113 Y31.5016
G01 X7.6956 Y31.3124
G01 X7.4000 Y31.0932
G01 X7.1273 Y30.8460
G01 X6.8802 Y30.5734
G01 X6.6610 Y30.2778
G01 X6.4718 Y29.9621
G01 X6.3145 Y29.6294
G01 X6.1905 Y29.2829
G01 X6.1011 Y28.9260
G01 X6.0471 Y28.5619
G01 X6.0290 Y28.1944
G01 X6.0290 Y22.7500
G00 Z2.0000
G00 X23.7500 Y31.9444
G01 F60.00
G01 Z-0.5000
G01 F60.00
G01 X33.9598 Y31.9444
G01 X34.3274 Y31.9263
G01 X34.6914 Y31.8723
G01 X35.0484 Y31.7829
G01 X35.3949 Y31.6589
G01 X35.7275 Y31.5016
G01 X36.0432 Y31.3124
G01 X36.3388 Y31.0932
G01 X36.6115 Y30.8460
G01 X36.8586 Y30.5734
G01 X37.0778 Y30.2778
G01 X37.2670 Y29.9621
G01 X37.4243 Y29.6294
G01 X37.5483 Y29.2829
G01 X37.6377 Y28.9260
G01 X37.6917 Y28.5619
G01 X37.7098 Y28.1944
G01 X37.7098 Y22.7500
G00 X37.7098 Y22.7500
G01 F60.00
G01 Z-1.0000
G01 F60.00
G01 X37.7098 Y28.1944
G01 X37.6917 Y28.5619
G01 X37.6377 Y28.9260
G01 X37.5483 Y29.2829
G01 X37.4243 Y29.6294
G01 X37.2670 Y29.9621
G01 X37.0778 Y30.2778
G01 X36.8586 Y30.5734
G01 X36.6115 Y30.8460
G01 X36.3388 Y31.0932
G01 X36.0432 Y31.3124
G01 X35.7275 Y31.5016
G01 X35.3949 Y31.6589
G01 X35.0484 Y31.7829
G01 X34.6914 Y31.8723
G01 X34.3274 Y31.9263
G01 X33.9598 Y31.9444
G01 X23.7500 Y31.9444
G00 X23.7500 Y31.9444
G01 F60.00
G01 Z-1.5000
G01 F60.00
G01 X33.9598 Y31.9444
G01 X34.3274 Y31.9263
G01 X34.6914 Y31.8723
G01 X35.0484 Y31.7829
G01 X35.3949 Y31.6589
G01 X35.7275 Y31.5016
G01 X36.0432 Y31.3124
G01 X36.3388 Y31.0932
G01 X36.6115 Y30.8460
G01 X36.8586 Y30.5734
G01 X37.0778 Y30.2778
G01 X37.2670 Y29.9621
G01 X37.4243 Y29.6294
G01 X37.5483 Y29.2829
G01 X37.6377 Y28.9260
G01 X37.6917 Y28.5619
G01 X37.7098 Y28.1944
G01 X37.7098 Y22.7500
G00 X37.7098 Y22.7500
G01 F60.00
G01 Z-2.0000
G01 F60.00
G01 X37.7098 Y28.1944
G01 X37.6917 Y28.5619
G01 X37.6377 Y28.9260
G01 X37.5483 Y29.2829
G01 X37.4243 Y29.6294
G01 X37.2670 Y29.9621
G01 X37.0778 Y30.2778
G01 X36.8586 Y30.5734
G01 X36.6115 Y30.8460
G01 X36.3388 Y31.0932
G01 X36.0432 Y31.3124
G01 X35.7275 Y31.5016
G01 X35.3949 Y31.6589
G01 X35.0484 Y31.7829
G01 X34.6914 Y31.8723
G01 X34.3274 Y31.9263
G01 X33.9598 Y31.9444
G01 X23.7500 Y31.9444
G00 Z2.0000
G00 X37.7098 Y19.2500
G01 F60.00
G01 Z-0.5000
G01 F60.00
G01 X37.7098 Y14.4779
G01 X37.6917 Y14.1103
G01 X37.6377 Y13.7463
G01 X37.5483 Y13.3893
G01 X37.4243 Y13.0428
G01 X37.2670 Y12.7101
G01 X37.0778 Y12.3945
G01 X36.8586 Y12.0989
G01 X36.6115 Y11.8262
G01 X36.3388 Y11.5791
G01 X36.0432 Y11.3599
G01 X35.7275 Y11.1707
G01 X35.3949 Y11.0133
G01 X35.0484 Y10.8893
G01 X34.6914 Y10.7999
G01 X34.3274 Y10.7459
G01 X33.9598 Y10.7279
G00 X33.9598 Y10.7279
G01 F60.00
G01 Z-1.0000
G01 F60.00
G01 X34.3274 Y10.7459
G01 X34.6914 Y10.7999
G01 X35.0484 Y10.8893
G01 X35.3949 Y11.0133
G01 X35.7275 Y11.1707
G01 X36.0432 Y11.3599
G01 X36.3388 Y11.5791
G01 X36.6115 Y11.8262
G01 X36.8586 Y12.0989
G01 X37.0778 Y12.3945
G01 X37.2670 Y12.7101
G01 X37.4243 Y13.0428
G01 X37.5483 Y13.3893
G01 X37.6377 Y13.7463
G01 X37.6917 Y14.1103
G01 X37.7098 Y14.4779
G01 X37.7098 Y19.2500
G00 X37.7098 Y19.2500
G01 F60.00
G01 Z-1.5000
G01 F60.00
G01 X37.7098 Y14.4779
G01 X37.6917 Y14.1103
G01 X37.6377 Y13.7463
G01 X37.5483 Y13.3893
G01 X37.4243 Y13.0428
G01 X37.2670 Y12.7101
G01 X37.0778 Y12.3945
G01 X36.8586 Y12.0989
G01 X36.6115 Y11.8262
G01 X36.3388 Y11.5791
G01 X36.0432 Y11.3599
G01 X35.7275 Y11.1707
G01 X35.3949 Y11.0133
G01 X35.0484 Y10.8893
G01 X34.6914 Y10.7999
G01 X34.3274 Y10.7459
G01 X33.9598 Y10.7279
G00 X33.9598 Y10.7279
G01 F60.00
G01 Z-2.0000
G01 F60.00
G01 X34.3274 Y10.7459
G01 X34.6914 Y10.7999
G01 X35.0484 Y10.8893
G01 X35.3949 Y11.0133
G01 X35.7275 Y11.1707
G01 X36.0432 Y11.3599
G01 X36.3388 Y11.5791
G01 X36.6115 Y11.8262
G01 X36.8586 Y12.0989
G01 X37.0778 Y12.3945
G01 X37.2670 Y12.7101
G01 X37.4243 Y13.0428
G01 X37.5483 Y13.3893
G01 X37.6377 Y13.7463
G01 X37.6917 Y14.1103
G01 X37.7098 Y14.4779
G01 X37.7098 Y19.2500
G00 Z2.0000
G00 X33.9598 Y10.7279
G01 F60.00
G01 Z-0.5000
G01 F60.00
G01 X23.7500 Y10.7279
G00 X23.7500 Y10.7279
G01 F60.00
G01 Z-1.0000
G01 F60.00
G01 X33.9598 Y10.7279
G00 X33.9598 Y10.7279
G01 F60.00
G01 Z-1.5000
G01 F60.00
G01 X23.7500 Y10.7279
G00 X23.7500 Y10.7279
G01 F60.00
G01 Z-2.0000
G01 F60.00
G01 X33.9598 Y10.7279
G00 Z2.0000
M05
G00 Z2.0000
G00 Z5.00
G00 X0.0 Y0.0

