(G-CODE GENERATED BY FLATCAM v8.991 - www.flatcam.org - Version Date: 2019/12/27)

(Name: 0)
(Type: G-code from Geometry)
(Units: MM)

(Created on Sunday, 23 July 2023 at 20:58)

(TOOL DIAMETER: 0.2804 mm)
(Feedrate: 120.0 mm/min)
(Feedrate_Z: 60.0 mm/min)
(Feedrate rapids 1500.0 mm/min)

(Z_Cut: -0.15 mm)
(DepthPerCut: 0.08 mm <=>2 passes)
(Z_Move: 2.0 mm)
(Z Toolchange: 15.0 mm)
(X,Y Toolchange: 0.0000, 0.0000 mm)
(Z Start: None mm)
(Z End: 5.0 mm)
(Steps per circle: 64)
(Preprocessor Geometry: default)

(X range:    1.5592 ...   78.1145  mm)
(Y range:    1.1470 ...   97.5066  mm)

(Spindle Speed: None RPM)
G21
G90
G94

(Acceleration settings)
M204 P144000 T144000

(Rapid speed)
G00 F2400.00

(Auto leveling map probing)
G29 L1 R79 F1 B98 N36 N46

(Acceleration settings)
M204 P36000 T36000

(Rapid speed)
G00 F1200.00

(Tool change)
M06

(Probing new tool)
G30

(Give chance for removing probing wires)
M06

(Zeroing Z-axis after probing)
G92 X0 Y0 Z0


G01 F120.00
G00 Z2.0000

M03
G00 X14.4737 Y19.0982
G01 F60.00
G01 Z-0.0800
G01 F120.00
G01 X45.6572 Y19.0982
G01 X51.7170 Y13.0384
G01 X51.7365 Y13.0204
G01 X51.7472 Y13.0117
G01 X51.7629 Y13.0000
G01 X51.7744 Y12.9924
G01 X51.7912 Y12.9823
G01 X51.8034 Y12.9758
G01 X51.8211 Y12.9674
G01 X51.8338 Y12.9621
G01 X51.8523 Y12.9555
G01 X51.8655 Y12.9515
G01 X51.8845 Y12.9467
G01 X51.8980 Y12.9441
G01 X51.9174 Y12.9412
G01 X51.9311 Y12.9398
G01 X51.9576 Y12.9387
G01 X56.7122 Y12.9387
G01 X56.7387 Y12.9398
G01 X56.7524 Y12.9412
G01 X56.7718 Y12.9441
G01 X56.7853 Y12.9467
G01 X56.8044 Y12.9515
G01 X56.8176 Y12.9555
G01 X56.8360 Y12.9621
G01 X56.8488 Y12.9674
G01 X56.8665 Y12.9758
G01 X56.8786 Y12.9823
G01 X56.8955 Y12.9924
G01 X56.9069 Y13.0000
G01 X56.9227 Y13.0117
G01 X56.9333 Y13.0204
G01 X56.9529 Y13.0384
G01 X65.0381 Y21.1236
G01 X65.0874 Y21.1003
G01 X65.1001 Y21.0950
G01 X65.1833 Y21.0653
G01 X65.1964 Y21.0613
G01 X65.2821 Y21.0398
G01 X65.2956 Y21.0371
G01 X65.3830 Y21.0242
G01 X65.3967 Y21.0228
G01 X65.4849 Y21.0185
G01 X65.4986 Y21.0185
G01 X65.5868 Y21.0228
G01 X65.6005 Y21.0242
G01 X65.6879 Y21.0371
G01 X65.7014 Y21.0398
G01 X65.7871 Y21.0613
G01 X65.8002 Y21.0653
G01 X65.8834 Y21.0950
G01 X65.8961 Y21.1003
G01 X65.9760 Y21.1380
G01 X65.9881 Y21.1445
G01 X66.0638 Y21.1899
G01 X66.0753 Y21.1976
G01 X66.1462 Y21.2502
G01 X66.1569 Y21.2589
G01 X66.2223 Y21.3182
G01 X66.2320 Y21.3280
G01 X66.2913 Y21.3934
G01 X66.3001 Y21.4040
G01 X66.3527 Y21.4750
G01 X66.3603 Y21.4864
G01 X66.4057 Y21.5622
G01 X66.4122 Y21.5743
G01 X66.4500 Y21.6542
G01 X66.4552 Y21.6669
G01 X66.4850 Y21.7500
G01 X66.4890 Y21.7632
G01 X66.5105 Y21.8489
G01 X66.5131 Y21.8624
G01 X66.5261 Y21.9497
G01 X66.5274 Y21.9634
G01 X66.5318 Y22.0516
G01 X66.5318 Y22.0654
G01 X66.5274 Y22.1536
G01 X66.5261 Y22.1673
G01 X66.5131 Y22.2547
G01 X66.5105 Y22.2682
G01 X66.4890 Y22.3538
G01 X66.4850 Y22.3670
G01 X66.4552 Y22.4502
G01 X66.4500 Y22.4629
G01 X66.4267 Y22.5122
G01 X69.0892 Y25.1747
G01 X69.1072 Y25.1943
G01 X69.1159 Y25.2049
G01 X69.1276 Y25.2207
G01 X69.1353 Y25.2321
G01 X69.1453 Y25.2490
G01 X69.1518 Y25.2611
G01 X69.1602 Y25.2789
G01 X69.1655 Y25.2916
G01 X69.1721 Y25.3101
G01 X69.1761 Y25.3232
G01 X69.1809 Y25.3423
G01 X69.1836 Y25.3558
G01 X69.1864 Y25.3752
G01 X69.1878 Y25.3889
G01 X69.1889 Y25.4154
G01 X69.1889 Y37.5360
G01 X69.1878 Y37.5625
G01 X69.1864 Y37.5762
G01 X69.1836 Y37.5956
G01 X69.1809 Y37.6091
G01 X69.1761 Y37.6282
G01 X69.1721 Y37.6413
G01 X69.1655 Y37.6598
G01 X69.1602 Y37.6725
G01 X69.1518 Y37.6903
G01 X69.1453 Y37.7024
G01 X69.1353 Y37.7192
G01 X69.1276 Y37.7307
G01 X69.1159 Y37.7465
G01 X69.1072 Y37.7571
G01 X69.0892 Y37.7766
G01 X61.1477 Y45.7182
G01 X61.1281 Y45.7361
G01 X61.1175 Y45.7448
G01 X61.1017 Y45.7565
G01 X61.0903 Y45.7642
G01 X61.0735 Y45.7743
G01 X61.0613 Y45.7808
G01 X61.0436 Y45.7892
G01 X61.0309 Y45.7944
G01 X61.0124 Y45.8010
G01 X60.9992 Y45.8050
G01 X60.9802 Y45.8098
G01 X60.9667 Y45.8125
G01 X60.9472 Y45.8154
G01 X60.9335 Y45.8167
G01 X60.9070 Y45.8179
G01 X46.0026 Y45.8179
G01 X38.2162 Y53.6043
G01 X38.2162 Y53.8395
G01 X38.2452 Y53.8395
G01 X38.2589 Y53.8402
G01 X38.2725 Y53.8422
G01 X38.2859 Y53.8455
G01 X38.2988 Y53.8502
G01 X38.3112 Y53.8561
G01 X38.3231 Y53.8631
G01 X38.3341 Y53.8713
G01 X38.3443 Y53.8806
G01 X38.8668 Y54.4031
G01 X38.8760 Y54.4133
G01 X38.8842 Y54.4243
G01 X38.8913 Y54.4361
G01 X38.8972 Y54.4485
G01 X38.9018 Y54.4615
G01 X38.9052 Y54.4748
G01 X38.9072 Y54.4885
G01 X38.9079 Y54.5022
G01 X38.9079 Y55.2408
G01 X38.9072 Y55.2545
G01 X38.9052 Y55.2682
G01 X38.9018 Y55.2815
G01 X38.8972 Y55.2945
G01 X38.8913 Y55.3069
G01 X38.8842 Y55.3187
G01 X38.8760 Y55.3297
G01 X38.8668 Y55.3399
G01 X38.3443 Y55.8624
G01 X38.3341 Y55.8717
G01 X38.3231 Y55.8799
G01 X38.3112 Y55.8869
G01 X38.2988 Y55.8928
G01 X38.2859 Y55.8975
G01 X38.2725 Y55.9008
G01 X38.2589 Y55.9028
G01 X38.2452 Y55.9035
G01 X37.5066 Y55.9035
G01 X37.4928 Y55.9028
G01 X37.4792 Y55.9008
G01 X37.4659 Y55.8975
G01 X37.4529 Y55.8928
G01 X37.4405 Y55.8869
G01 X37.4287 Y55.8799
G01 X37.4176 Y55.8717
G01 X37.4074 Y55.8624
G01 X36.8849 Y55.3399
G01 X36.8757 Y55.3297
G01 X36.8675 Y55.3187
G01 X36.8604 Y55.3069
G01 X36.8545 Y55.2945
G01 X36.8499 Y55.2815
G01 X36.8466 Y55.2682
G01 X36.8445 Y55.2545
G01 X36.8439 Y55.2408
G01 X36.8439 Y54.5022
G01 X36.8445 Y54.4885
G01 X36.8466 Y54.4748
G01 X36.8499 Y54.4615
G01 X36.8545 Y54.4485
G01 X36.8604 Y54.4361
G01 X36.8675 Y54.4243
G01 X36.8757 Y54.4133
G01 X36.8849 Y54.4031
G01 X37.4074 Y53.8806
G01 X37.4176 Y53.8713
G01 X37.4287 Y53.8631
G01 X37.4405 Y53.8561
G01 X37.4529 Y53.8502
G01 X37.4659 Y53.8455
G01 X37.4792 Y53.8422
G01 X37.4928 Y53.8402
G01 X37.5066 Y53.8395
G01 X37.5356 Y53.8395
G01 X37.5356 Y53.4633
G01 X37.5367 Y53.4368
G01 X37.5380 Y53.4231
G01 X37.5409 Y53.4037
G01 X37.5436 Y53.3902
G01 X37.5484 Y53.3712
G01 X37.5524 Y53.3580
G01 X37.5590 Y53.3395
G01 X37.5643 Y53.3268
G01 X37.5726 Y53.3091
G01 X37.5791 Y53.2969
G01 X37.5892 Y53.2801
G01 X37.5969 Y53.2686
G01 X37.6086 Y53.2529
G01 X37.6173 Y53.2422
G01 X37.6352 Y53.2227
G01 X45.6210 Y45.2369
G01 X45.6405 Y45.2190
G01 X45.6512 Y45.2103
G01 X45.6669 Y45.1986
G01 X45.6784 Y45.1909
G01 X45.6952 Y45.1808
G01 X45.7074 Y45.1743
G01 X45.7251 Y45.1660
G01 X45.7378 Y45.1607
G01 X45.7563 Y45.1541
G01 X45.7695 Y45.1501
G01 X45.7885 Y45.1453
G01 X45.8020 Y45.1426
G01 X45.8214 Y45.1397
G01 X45.8351 Y45.1384
G01 X45.8616 Y45.1373
G01 X60.7661 Y45.1373
G01 X68.5083 Y37.3950
G01 X68.5083 Y25.5563
G01 X65.9454 Y22.9934
G01 X65.8961 Y23.0167
G01 X65.8834 Y23.0220
G01 X65.8002 Y23.0518
G01 X65.7871 Y23.0558
G01 X65.7014 Y23.0772
G01 X65.6879 Y23.0799
G01 X65.6005 Y23.0929
G01 X65.5868 Y23.0942
G01 X65.4986 Y23.0985
G01 X65.4849 Y23.0985
G01 X65.3967 Y23.0942
G01 X65.3830 Y23.0929
G01 X65.2956 Y23.0799
G01 X65.2821 Y23.0772
G01 X65.1964 Y23.0558
G01 X65.1833 Y23.0518
G01 X65.1001 Y23.0220
G01 X65.0874 Y23.0167
G01 X65.0075 Y22.9790
G01 X64.9954 Y22.9725
G01 X64.9197 Y22.9271
G01 X64.9082 Y22.9194
G01 X64.8373 Y22.8668
G01 X64.8266 Y22.8581
G01 X64.7612 Y22.7988
G01 X64.7515 Y22.7891
G01 X64.6922 Y22.7236
G01 X64.6834 Y22.7130
G01 X64.6308 Y22.6420
G01 X64.6232 Y22.6306
G01 X64.5778 Y22.5548
G01 X64.5713 Y22.5427
G01 X64.5335 Y22.4629
G01 X64.5283 Y22.4502
G01 X64.4985 Y22.3670
G01 X64.4945 Y22.3538
G01 X64.4730 Y22.2682
G01 X64.4704 Y22.2547
G01 X64.4574 Y22.1673
G01 X64.4561 Y22.1536
G01 X64.4517 Y22.0654
G01 X64.4517 Y22.0516
G01 X64.4561 Y21.9634
G01 X64.4574 Y21.9497
G01 X64.4704 Y21.8624
G01 X64.4730 Y21.8489
G01 X64.4945 Y21.7632
G01 X64.4985 Y21.7500
G01 X64.5283 Y21.6669
G01 X64.5335 Y21.6542
G01 X64.5568 Y21.6049
G01 X56.5713 Y13.6193
G01 X52.0986 Y13.6193
G01 X46.0387 Y19.6791
G01 X46.0192 Y19.6971
G01 X46.0086 Y19.7058
G01 X45.9928 Y19.7175
G01 X45.9814 Y19.7251
G01 X45.9645 Y19.7352
G01 X45.9524 Y19.7417
G01 X45.9346 Y19.7501
G01 X45.9219 Y19.7554
G01 X45.9034 Y19.7620
G01 X45.8903 Y19.7660
G01 X45.8712 Y19.7708
G01 X45.8577 Y19.7734
G01 X45.8383 Y19.7763
G01 X45.8246 Y19.7777
G01 X45.7981 Y19.7788
G01 X14.4737 Y19.7788
G01 X14.4554 Y19.8301
G01 X14.4501 Y19.8429
G01 X14.4123 Y19.9227
G01 X14.4058 Y19.9348
G01 X14.3604 Y20.0106
G01 X14.3528 Y20.0220
G01 X14.3002 Y20.0930
G01 X14.2915 Y20.1036
G01 X14.2321 Y20.1690
G01 X14.2224 Y20.1788
G01 X14.1570 Y20.2381
G01 X14.1463 Y20.2468
G01 X14.0754 Y20.2994
G01 X14.0640 Y20.3071
G01 X13.9882 Y20.3525
G01 X13.9761 Y20.3590
G01 X13.8962 Y20.3967
G01 X13.8835 Y20.4020
G01 X13.8003 Y20.4318
G01 X13.7872 Y20.4357
G01 X13.7015 Y20.4572
G01 X13.6880 Y20.4599
G01 X13.6006 Y20.4728
G01 X13.5870 Y20.4742
G01 X13.4987 Y20.4785
G01 X13.4850 Y20.4785
G01 X13.3968 Y20.4742
G01 X13.3831 Y20.4728
G01 X13.2957 Y20.4599
G01 X13.2822 Y20.4572
G01 X13.1965 Y20.4357
G01 X13.1834 Y20.4318
G01 X13.1002 Y20.4020
G01 X13.0875 Y20.3967
G01 X13.0077 Y20.3590
G01 X12.9955 Y20.3525
G01 X12.9198 Y20.3071
G01 X12.9083 Y20.2994
G01 X12.8374 Y20.2468
G01 X12.8268 Y20.2381
G01 X12.7613 Y20.1788
G01 X12.7516 Y20.1690
G01 X12.6923 Y20.1036
G01 X12.6835 Y20.0930
G01 X12.6309 Y20.0220
G01 X12.6233 Y20.0106
G01 X12.5779 Y19.9348
G01 X12.5714 Y19.9227
G01 X12.5336 Y19.8429
G01 X12.5284 Y19.8301
G01 X12.4986 Y19.7470
G01 X12.4946 Y19.7338
G01 X12.4732 Y19.6481
G01 X12.4705 Y19.6347
G01 X12.4575 Y19.5473
G01 X12.4562 Y19.5336
G01 X12.4518 Y19.4454
G01 X12.4518 Y19.4316
G01 X12.4562 Y19.3434
G01 X12.4575 Y19.3297
G01 X12.4705 Y19.2423
G01 X12.4732 Y19.2289
G01 X12.4946 Y19.1432
G01 X12.4986 Y19.1300
G01 X12.5284 Y19.0469
G01 X12.5336 Y19.0341
G01 X12.5714 Y18.9543
G01 X12.5779 Y18.9422
G01 X12.6233 Y18.8664
G01 X12.6309 Y18.8550
G01 X12.6835 Y18.7840
G01 X12.6923 Y18.7734
G01 X12.7516 Y18.7080
G01 X12.7613 Y18.6982
G01 X12.8268 Y18.6389
G01 X12.8374 Y18.6302
G01 X12.9083 Y18.5776
G01 X12.9198 Y18.5699
G01 X12.9955 Y18.5245
G01 X13.0077 Y18.5180
G01 X13.0875 Y18.4803
G01 X13.1002 Y18.4750
G01 X13.1834 Y18.4452
G01 X13.1965 Y18.4413
G01 X13.2822 Y18.4198
G01 X13.2957 Y18.4171
G01 X13.3831 Y18.4042
G01 X13.3968 Y18.4028
G01 X13.4850 Y18.3985
G01 X13.4987 Y18.3985
G01 X13.5870 Y18.4028
G01 X13.6006 Y18.4042
G01 X13.6880 Y18.4171
G01 X13.7015 Y18.4198
G01 X13.7872 Y18.4413
G01 X13.8003 Y18.4452
G01 X13.8835 Y18.4750
G01 X13.8962 Y18.4803
G01 X13.9761 Y18.5180
G01 X13.9882 Y18.5245
G01 X14.0640 Y18.5699
G01 X14.0754 Y18.5776
G01 X14.1463 Y18.6302
G01 X14.1570 Y18.6389
G01 X14.2224 Y18.6982
G01 X14.2321 Y18.7080
G01 X14.2915 Y18.7734
G01 X14.3002 Y18.7840
G01 X14.3528 Y18.8550
G01 X14.3604 Y18.8664
G01 X14.4058 Y18.9422
G01 X14.4123 Y18.9543
G01 X14.4501 Y19.0341
G01 X14.4554 Y19.0469
G01 X14.4737 Y19.0982
G00 X14.4737 Y19.0982
G01 F60.00
G01 Z-0.1500
G01 F120.00
G01 X45.6572 Y19.0982
G01 X51.7170 Y13.0384
G01 X51.7365 Y13.0204
G01 X51.7472 Y13.0117
G01 X51.7629 Y13.0000
G01 X51.7744 Y12.9924
G01 X51.7912 Y12.9823
G01 X51.8034 Y12.9758
G01 X51.8211 Y12.9674
G01 X51.8338 Y12.9621
G01 X51.8523 Y12.9555
G01 X51.8655 Y12.9515
G01 X51.8845 Y12.9467
G01 X51.8980 Y12.9441
G01 X51.9174 Y12.9412
G01 X51.9311 Y12.9398
G01 X51.9576 Y12.9387
G01 X56.7122 Y12.9387
G01 X56.7387 Y12.9398
G01 X56.7524 Y12.9412
G01 X56.7718 Y12.9441
G01 X56.7853 Y12.9467
G01 X56.8044 Y12.9515
G01 X56.8176 Y12.9555
G01 X56.8360 Y12.9621
G01 X56.8488 Y12.9674
G01 X56.8665 Y12.9758
G01 X56.8786 Y12.9823
G01 X56.8955 Y12.9924
G01 X56.9069 Y13.0000
G01 X56.9227 Y13.0117
G01 X56.9333 Y13.0204
G01 X56.9529 Y13.0384
G01 X65.0381 Y21.1236
G01 X65.0874 Y21.1003
G01 X65.1001 Y21.0950
G01 X65.1833 Y21.0653
G01 X65.1964 Y21.0613
G01 X65.2821 Y21.0398
G01 X65.2956 Y21.0371
G01 X65.3830 Y21.0242
G01 X65.3967 Y21.0228
G01 X65.4849 Y21.0185
G01 X65.4986 Y21.0185
G01 X65.5868 Y21.0228
G01 X65.6005 Y21.0242
G01 X65.6879 Y21.0371
G01 X65.7014 Y21.0398
G01 X65.7871 Y21.0613
G01 X65.8002 Y21.0653
G01 X65.8834 Y21.0950
G01 X65.8961 Y21.1003
G01 X65.9760 Y21.1380
G01 X65.9881 Y21.1445
G01 X66.0638 Y21.1899
G01 X66.0753 Y21.1976
G01 X66.1462 Y21.2502
G01 X66.1569 Y21.2589
G01 X66.2223 Y21.3182
G01 X66.2320 Y21.3280
G01 X66.2913 Y21.3934
G01 X66.3001 Y21.4040
G01 X66.3527 Y21.4750
G01 X66.3603 Y21.4864
G01 X66.4057 Y21.5622
G01 X66.4122 Y21.5743
G01 X66.4500 Y21.6542
G01 X66.4552 Y21.6669
G01 X66.4850 Y21.7500
G01 X66.4890 Y21.7632
G01 X66.5105 Y21.8489
G01 X66.5131 Y21.8624
G01 X66.5261 Y21.9497
G01 X66.5274 Y21.9634
G01 X66.5318 Y22.0516
G01 X66.5318 Y22.0654
G01 X66.5274 Y22.1536
G01 X66.5261 Y22.1673
G01 X66.5131 Y22.2547
G01 X66.5105 Y22.2682
G01 X66.4890 Y22.3538
G01 X66.4850 Y22.3670
G01 X66.4552 Y22.4502
G01 X66.4500 Y22.4629
G01 X66.4267 Y22.5122
G01 X69.0892 Y25.1747
G01 X69.1072 Y25.1943
G01 X69.1159 Y25.2049
G01 X69.1276 Y25.2207
G01 X69.1353 Y25.2321
G01 X69.1453 Y25.2490
G01 X69.1518 Y25.2611
G01 X69.1602 Y25.2789
G01 X69.1655 Y25.2916
G01 X69.1721 Y25.3101
G01 X69.1761 Y25.3232
G01 X69.1809 Y25.3423
G01 X69.1836 Y25.3558
G01 X69.1864 Y25.3752
G01 X69.1878 Y25.3889
G01 X69.1889 Y25.4154
G01 X69.1889 Y37.5360
G01 X69.1878 Y37.5625
G01 X69.1864 Y37.5762
G01 X69.1836 Y37.5956
G01 X69.1809 Y37.6091
G01 X69.1761 Y37.6282
G01 X69.1721 Y37.6413
G01 X69.1655 Y37.6598
G01 X69.1602 Y37.6725
G01 X69.1518 Y37.6903
G01 X69.1453 Y37.7024
G01 X69.1353 Y37.7192
G01 X69.1276 Y37.7307
G01 X69.1159 Y37.7465
G01 X69.1072 Y37.7571
G01 X69.0892 Y37.7766
G01 X61.1477 Y45.7182
G01 X61.1281 Y45.7361
G01 X61.1175 Y45.7448
G01 X61.1017 Y45.7565
G01 X61.0903 Y45.7642
G01 X61.0735 Y45.7743
G01 X61.0613 Y45.7808
G01 X61.0436 Y45.7892
G01 X61.0309 Y45.7944
G01 X61.0124 Y45.8010
G01 X60.9992 Y45.8050
G01 X60.9802 Y45.8098
G01 X60.9667 Y45.8125
G01 X60.9472 Y45.8154
G01 X60.9335 Y45.8167
G01 X60.9070 Y45.8179
G01 X46.0026 Y45.8179
G01 X38.2162 Y53.6043
G01 X38.2162 Y53.8395
G01 X38.2452 Y53.8395
G01 X38.2589 Y53.8402
G01 X38.2725 Y53.8422
G01 X38.2859 Y53.8455
G01 X38.2988 Y53.8502
G01 X38.3112 Y53.8561
G01 X38.3231 Y53.8631
G01 X38.3341 Y53.8713
G01 X38.3443 Y53.8806
G01 X38.8668 Y54.4031
G01 X38.8760 Y54.4133
G01 X38.8842 Y54.4243
G01 X38.8913 Y54.4361
G01 X38.8972 Y54.4485
G01 X38.9018 Y54.4615
G01 X38.9052 Y54.4748
G01 X38.9072 Y54.4885
G01 X38.9079 Y54.5022
G01 X38.9079 Y55.2408
G01 X38.9072 Y55.2545
G01 X38.9052 Y55.2682
G01 X38.9018 Y55.2815
G01 X38.8972 Y55.2945
G01 X38.8913 Y55.3069
G01 X38.8842 Y55.3187
G01 X38.8760 Y55.3297
G01 X38.8668 Y55.3399
G01 X38.3443 Y55.8624
G01 X38.3341 Y55.8717
G01 X38.3231 Y55.8799
G01 X38.3112 Y55.8869
G01 X38.2988 Y55.8928
G01 X38.2859 Y55.8975
G01 X38.2725 Y55.9008
G01 X38.2589 Y55.9028
G01 X38.2452 Y55.9035
G01 X37.5066 Y55.9035
G01 X37.4928 Y55.9028
G01 X37.4792 Y55.9008
G01 X37.4659 Y55.8975
G01 X37.4529 Y55.8928
G01 X37.4405 Y55.8869
G01 X37.4287 Y55.8799
G01 X37.4176 Y55.8717
G01 X37.4074 Y55.8624
G01 X36.8849 Y55.3399
G01 X36.8757 Y55.3297
G01 X36.8675 Y55.3187
G01 X36.8604 Y55.3069
G01 X36.8545 Y55.2945
G01 X36.8499 Y55.2815
G01 X36.8466 Y55.2682
G01 X36.8445 Y55.2545
G01 X36.8439 Y55.2408
G01 X36.8439 Y54.5022
G01 X36.8445 Y54.4885
G01 X36.8466 Y54.4748
G01 X36.8499 Y54.4615
G01 X36.8545 Y54.4485
G01 X36.8604 Y54.4361
G01 X36.8675 Y54.4243
G01 X36.8757 Y54.4133
G01 X36.8849 Y54.4031
G01 X37.4074 Y53.8806
G01 X37.4176 Y53.8713
G01 X37.4287 Y53.8631
G01 X37.4405 Y53.8561
G01 X37.4529 Y53.8502
G01 X37.4659 Y53.8455
G01 X37.4792 Y53.8422
G01 X37.4928 Y53.8402
G01 X37.5066 Y53.8395
G01 X37.5356 Y53.8395
G01 X37.5356 Y53.4633
G01 X37.5367 Y53.4368
G01 X37.5380 Y53.4231
G01 X37.5409 Y53.4037
G01 X37.5436 Y53.3902
G01 X37.5484 Y53.3712
G01 X37.5524 Y53.3580
G01 X37.5590 Y53.3395
G01 X37.5643 Y53.3268
G01 X37.5726 Y53.3091
G01 X37.5791 Y53.2969
G01 X37.5892 Y53.2801
G01 X37.5969 Y53.2686
G01 X37.6086 Y53.2529
G01 X37.6173 Y53.2422
G01 X37.6352 Y53.2227
G01 X45.6210 Y45.2369
G01 X45.6405 Y45.2190
G01 X45.6512 Y45.2103
G01 X45.6669 Y45.1986
G01 X45.6784 Y45.1909
G01 X45.6952 Y45.1808
G01 X45.7074 Y45.1743
G01 X45.7251 Y45.1660
G01 X45.7378 Y45.1607
G01 X45.7563 Y45.1541
G01 X45.7695 Y45.1501
G01 X45.7885 Y45.1453
G01 X45.8020 Y45.1426
G01 X45.8214 Y45.1397
G01 X45.8351 Y45.1384
G01 X45.8616 Y45.1373
G01 X60.7661 Y45.1373
G01 X68.5083 Y37.3950
G01 X68.5083 Y25.5563
G01 X65.9454 Y22.9934
G01 X65.8961 Y23.0167
G01 X65.8834 Y23.0220
G01 X65.8002 Y23.0518
G01 X65.7871 Y23.0558
G01 X65.7014 Y23.0772
G01 X65.6879 Y23.0799
G01 X65.6005 Y23.0929
G01 X65.5868 Y23.0942
G01 X65.4986 Y23.0985
G01 X65.4849 Y23.0985
G01 X65.3967 Y23.0942
G01 X65.3830 Y23.0929
G01 X65.2956 Y23.0799
G01 X65.2821 Y23.0772
G01 X65.1964 Y23.0558
G01 X65.1833 Y23.0518
G01 X65.1001 Y23.0220
G01 X65.0874 Y23.0167
G01 X65.0075 Y22.9790
G01 X64.9954 Y22.9725
G01 X64.9197 Y22.9271
G01 X64.9082 Y22.9194
G01 X64.8373 Y22.8668
G01 X64.8266 Y22.8581
G01 X64.7612 Y22.7988
G01 X64.7515 Y22.7891
G01 X64.6922 Y22.7236
G01 X64.6834 Y22.7130
G01 X64.6308 Y22.6420
G01 X64.6232 Y22.6306
G01 X64.5778 Y22.5548
G01 X64.5713 Y22.5427
G01 X64.5335 Y22.4629
G01 X64.5283 Y22.4502
G01 X64.4985 Y22.3670
G01 X64.4945 Y22.3538
G01 X64.4730 Y22.2682
G01 X64.4704 Y22.2547
G01 X64.4574 Y22.1673
G01 X64.4561 Y22.1536
G01 X64.4517 Y22.0654
G01 X64.4517 Y22.0516
G01 X64.4561 Y21.9634
G01 X64.4574 Y21.9497
G01 X64.4704 Y21.8624
G01 X64.4730 Y21.8489
G01 X64.4945 Y21.7632
G01 X64.4985 Y21.7500
G01 X64.5283 Y21.6669
G01 X64.5335 Y21.6542
G01 X64.5568 Y21.6049
G01 X56.5713 Y13.6193
G01 X52.0986 Y13.6193
G01 X46.0387 Y19.6791
G01 X46.0192 Y19.6971
G01 X46.0086 Y19.7058
G01 X45.9928 Y19.7175
G01 X45.9814 Y19.7251
G01 X45.9645 Y19.7352
G01 X45.9524 Y19.7417
G01 X45.9346 Y19.7501
G01 X45.9219 Y19.7554
G01 X45.9034 Y19.7620
G01 X45.8903 Y19.7660
G01 X45.8712 Y19.7708
G01 X45.8577 Y19.7734
G01 X45.8383 Y19.7763
G01 X45.8246 Y19.7777
G01 X45.7981 Y19.7788
G01 X14.4737 Y19.7788
G01 X14.4554 Y19.8301
G01 X14.4501 Y19.8429
G01 X14.4123 Y19.9227
G01 X14.4058 Y19.9348
G01 X14.3604 Y20.0106
G01 X14.3528 Y20.0220
G01 X14.3002 Y20.0930
G01 X14.2915 Y20.1036
G01 X14.2321 Y20.1690
G01 X14.2224 Y20.1788
G01 X14.1570 Y20.2381
G01 X14.1463 Y20.2468
G01 X14.0754 Y20.2994
G01 X14.0640 Y20.3071
G01 X13.9882 Y20.3525
G01 X13.9761 Y20.3590
G01 X13.8962 Y20.3967
G01 X13.8835 Y20.4020
G01 X13.8003 Y20.4318
G01 X13.7872 Y20.4357
G01 X13.7015 Y20.4572
G01 X13.6880 Y20.4599
G01 X13.6006 Y20.4728
G01 X13.5870 Y20.4742
G01 X13.4987 Y20.4785
G01 X13.4850 Y20.4785
G01 X13.3968 Y20.4742
G01 X13.3831 Y20.4728
G01 X13.2957 Y20.4599
G01 X13.2822 Y20.4572
G01 X13.1965 Y20.4357
G01 X13.1834 Y20.4318
G01 X13.1002 Y20.4020
G01 X13.0875 Y20.3967
G01 X13.0077 Y20.3590
G01 X12.9955 Y20.3525
G01 X12.9198 Y20.3071
G01 X12.9083 Y20.2994
G01 X12.8374 Y20.2468
G01 X12.8268 Y20.2381
G01 X12.7613 Y20.1788
G01 X12.7516 Y20.1690
G01 X12.6923 Y20.1036
G01 X12.6835 Y20.0930
G01 X12.6309 Y20.0220
G01 X12.6233 Y20.0106
G01 X12.5779 Y19.9348
G01 X12.5714 Y19.9227
G01 X12.5336 Y19.8429
G01 X12.5284 Y19.8301
G01 X12.4986 Y19.7470
G01 X12.4946 Y19.7338
G01 X12.4732 Y19.6481
G01 X12.4705 Y19.6347
G01 X12.4575 Y19.5473
G01 X12.4562 Y19.5336
G01 X12.4518 Y19.4454
G01 X12.4518 Y19.4316
G01 X12.4562 Y19.3434
G01 X12.4575 Y19.3297
G01 X12.4705 Y19.2423
G01 X12.4732 Y19.2289
G01 X12.4946 Y19.1432
G01 X12.4986 Y19.1300
G01 X12.5284 Y19.0469
G01 X12.5336 Y19.0341
G01 X12.5714 Y18.9543
G01 X12.5779 Y18.9422
G01 X12.6233 Y18.8664
G01 X12.6309 Y18.8550
G01 X12.6835 Y18.7840
G01 X12.6923 Y18.7734
G01 X12.7516 Y18.7080
G01 X12.7613 Y18.6982
G01 X12.8268 Y18.6389
G01 X12.8374 Y18.6302
G01 X12.9083 Y18.5776
G01 X12.9198 Y18.5699
G01 X12.9955 Y18.5245
G01 X13.0077 Y18.5180
G01 X13.0875 Y18.4803
G01 X13.1002 Y18.4750
G01 X13.1834 Y18.4452
G01 X13.1965 Y18.4413
G01 X13.2822 Y18.4198
G01 X13.2957 Y18.4171
G01 X13.3831 Y18.4042
G01 X13.3968 Y18.4028
G01 X13.4850 Y18.3985
G01 X13.4987 Y18.3985
G01 X13.5870 Y18.4028
G01 X13.6006 Y18.4042
G01 X13.6880 Y18.4171
G01 X13.7015 Y18.4198
G01 X13.7872 Y18.4413
G01 X13.8003 Y18.4452
G01 X13.8835 Y18.4750
G01 X13.8962 Y18.4803
G01 X13.9761 Y18.5180
G01 X13.9882 Y18.5245
G01 X14.0640 Y18.5699
G01 X14.0754 Y18.5776
G01 X14.1463 Y18.6302
G01 X14.1570 Y18.6389
G01 X14.2224 Y18.6982
G01 X14.2321 Y18.7080
G01 X14.2915 Y18.7734
G01 X14.3002 Y18.7840
G01 X14.3528 Y18.8550
G01 X14.3604 Y18.8664
G01 X14.4058 Y18.9422
G01 X14.4123 Y18.9543
G01 X14.4501 Y19.0341
G01 X14.4554 Y19.0469
G01 X14.4737 Y19.0982
G00 Z2.0000
G00 X14.4737 Y21.6382
G01 F60.00
G01 Z-0.0800
G01 F120.00
G01 X30.9861 Y21.6382
G01 X31.0126 Y21.6393
G01 X31.0263 Y21.6407
G01 X31.0457 Y21.6436
G01 X31.0592 Y21.6462
G01 X31.0783 Y21.6510
G01 X31.0914 Y21.6550
G01 X31.1099 Y21.6616
G01 X31.1226 Y21.6669
G01 X31.1404 Y21.6753
G01 X31.1525 Y21.6818
G01 X31.1694 Y21.6919
G01 X31.1808 Y21.6995
G01 X31.1966 Y21.7112
G01 X31.2072 Y21.7199
G01 X31.2267 Y21.7379
G01 X36.9081 Y27.4193
G01 X37.4295 Y26.8979
G01 X37.4490 Y26.8799
G01 X37.4597 Y26.8712
G01 X37.4754 Y26.8595
G01 X37.4869 Y26.8519
G01 X37.5037 Y26.8418
G01 X37.5159 Y26.8353
G01 X37.5336 Y26.8269
G01 X37.5463 Y26.8216
G01 X37.5648 Y26.8150
G01 X37.5780 Y26.8110
G01 X37.5970 Y26.8063
G01 X37.6105 Y26.8036
G01 X37.6299 Y26.8007
G01 X37.6436 Y26.7993
G01 X37.6701 Y26.7982
G01 X64.5099 Y26.7982
G01 X64.5283 Y26.7469
G01 X64.5335 Y26.7342
G01 X64.5713 Y26.6543
G01 X64.5778 Y26.6422
G01 X64.6232 Y26.5664
G01 X64.6308 Y26.5550
G01 X64.6834 Y26.4840
G01 X64.6922 Y26.4734
G01 X64.7515 Y26.4080
G01 X64.7612 Y26.3982
G01 X64.8266 Y26.3389
G01 X64.8373 Y26.3302
G01 X64.9082 Y26.2776
G01 X64.9197 Y26.2699
G01 X64.9954 Y26.2245
G01 X65.0075 Y26.2180
G01 X65.0874 Y26.1803
G01 X65.1001 Y26.1750
G01 X65.1833 Y26.1453
G01 X65.1964 Y26.1413
G01 X65.2821 Y26.1198
G01 X65.2956 Y26.1171
G01 X65.3830 Y26.1042
G01 X65.3967 Y26.1028
G01 X65.4849 Y26.0985
G01 X65.4986 Y26.0985
G01 X65.5868 Y26.1028
G01 X65.6005 Y26.1042
G01 X65.6879 Y26.1171
G01 X65.7014 Y26.1198
G01 X65.7871 Y26.1413
G01 X65.8002 Y26.1453
G01 X65.8834 Y26.1750
G01 X65.8961 Y26.1803
G01 X65.9760 Y26.2180
G01 X65.9881 Y26.2245
G01 X66.0638 Y26.2699
G01 X66.0753 Y26.2776
G01 X66.1462 Y26.3302
G01 X66.1569 Y26.3389
G01 X66.2223 Y26.3982
G01 X66.2320 Y26.4080
G01 X66.2913 Y26.4734
G01 X66.3001 Y26.4840
G01 X66.3527 Y26.5550
G01 X66.3603 Y26.5664
G01 X66.4057 Y26.6422
G01 X66.4122 Y26.6543
G01 X66.4500 Y26.7342
G01 X66.4552 Y26.7469
G01 X66.4850 Y26.8300
G01 X66.4890 Y26.8432
G01 X66.5105 Y26.9289
G01 X66.5131 Y26.9424
G01 X66.5261 Y27.0297
G01 X66.5274 Y27.0434
G01 X66.5318 Y27.1316
G01 X66.5318 Y27.1454
G01 X66.5274 Y27.2336
G01 X66.5261 Y27.2473
G01 X66.5131 Y27.3347
G01 X66.5105 Y27.3482
G01 X66.4890 Y27.4338
G01 X66.4850 Y27.4470
G01 X66.4552 Y27.5302
G01 X66.4500 Y27.5429
G01 X66.4122 Y27.6227
G01 X66.4057 Y27.6348
G01 X66.3603 Y27.7106
G01 X66.3527 Y27.7220
G01 X66.3437 Y27.7342
G01 X66.9436 Y27.7342
G01 X66.9701 Y27.7353
G01 X66.9838 Y27.7367
G01 X67.0032 Y27.7396
G01 X67.0167 Y27.7422
G01 X67.0358 Y27.7470
G01 X67.0489 Y27.7510
G01 X67.0674 Y27.7576
G01 X67.0801 Y27.7629
G01 X67.0979 Y27.7713
G01 X67.1100 Y27.7778
G01 X67.1269 Y27.7879
G01 X67.1383 Y27.7955
G01 X67.1541 Y27.8072
G01 X67.1647 Y27.8159
G01 X67.1793 Y27.8291
G01 X67.1890 Y27.8389
G01 X67.2022 Y27.8534
G01 X67.2109 Y27.8640
G01 X67.2226 Y27.8798
G01 X67.2303 Y27.8913
G01 X67.2403 Y27.9081
G01 X67.2468 Y27.9202
G01 X67.2552 Y27.9380
G01 X67.2605 Y27.9507
G01 X67.2671 Y27.9692
G01 X67.2711 Y27.9823
G01 X67.2759 Y28.0014
G01 X67.2786 Y28.0149
G01 X67.2814 Y28.0343
G01 X67.2828 Y28.0480
G01 X67.2839 Y28.0745
G01 X67.2839 Y30.4240
G01 X67.2828 Y30.4505
G01 X67.2814 Y30.4642
G01 X67.2786 Y30.4836
G01 X67.2759 Y30.4971
G01 X67.2711 Y30.5162
G01 X67.2671 Y30.5293
G01 X67.2605 Y30.5478
G01 X67.2552 Y30.5605
G01 X67.2468 Y30.5783
G01 X67.2403 Y30.5904
G01 X67.2303 Y30.6072
G01 X67.2226 Y30.6187
G01 X67.2109 Y30.6345
G01 X67.2022 Y30.6451
G01 X67.1842 Y30.6646
G01 X59.1840 Y38.6649
G01 X59.1645 Y38.6828
G01 X59.1538 Y38.6915
G01 X59.1381 Y38.7032
G01 X59.1266 Y38.7109
G01 X59.1098 Y38.7210
G01 X59.0976 Y38.7275
G01 X59.0799 Y38.7358
G01 X59.0672 Y38.7411
G01 X59.0487 Y38.7477
G01 X59.0355 Y38.7517
G01 X59.0165 Y38.7565
G01 X59.0030 Y38.7592
G01 X58.9836 Y38.7621
G01 X58.9699 Y38.7634
G01 X58.9434 Y38.7645
G01 X40.9226 Y38.7645
G01 X33.1362 Y46.5510
G01 X33.1362 Y53.8395
G01 X33.1652 Y53.8395
G01 X33.1789 Y53.8402
G01 X33.1925 Y53.8422
G01 X33.2059 Y53.8455
G01 X33.2188 Y53.8502
G01 X33.2312 Y53.8561
G01 X33.2431 Y53.8631
G01 X33.2541 Y53.8713
G01 X33.2643 Y53.8806
G01 X33.7868 Y54.4031
G01 X33.7960 Y54.4133
G01 X33.8042 Y54.4243
G01 X33.8113 Y54.4361
G01 X33.8172 Y54.4485
G01 X33.8218 Y54.4615
G01 X33.8252 Y54.4748
G01 X33.8272 Y54.4885
G01 X33.8279 Y54.5022
G01 X33.8279 Y55.2408
G01 X33.8272 Y55.2545
G01 X33.8252 Y55.2682
G01 X33.8218 Y55.2815
G01 X33.8172 Y55.2945
G01 X33.8113 Y55.3069
G01 X33.8042 Y55.3187
G01 X33.7960 Y55.3297
G01 X33.7868 Y55.3399
G01 X33.2643 Y55.8624
G01 X33.2541 Y55.8717
G01 X33.2431 Y55.8799
G01 X33.2312 Y55.8869
G01 X33.2188 Y55.8928
G01 X33.2059 Y55.8975
G01 X33.1925 Y55.9008
G01 X33.1789 Y55.9028
G01 X33.1652 Y55.9035
G01 X32.4266 Y55.9035
G01 X32.4128 Y55.9028
G01 X32.3992 Y55.9008
G01 X32.3859 Y55.8975
G01 X32.3729 Y55.8928
G01 X32.3605 Y55.8869
G01 X32.3487 Y55.8799
G01 X32.3376 Y55.8717
G01 X32.3274 Y55.8624
G01 X31.8049 Y55.3399
G01 X31.7957 Y55.3297
G01 X31.7875 Y55.3187
G01 X31.7804 Y55.3069
G01 X31.7745 Y55.2945
G01 X31.7699 Y55.2815
G01 X31.7666 Y55.2682
G01 X31.7645 Y55.2545
G01 X31.7639 Y55.2408
G01 X31.7639 Y54.5022
G01 X31.7645 Y54.4885
G01 X31.7666 Y54.4748
G01 X31.7699 Y54.4615
G01 X31.7745 Y54.4485
G01 X31.7804 Y54.4361
G01 X31.7875 Y54.4243
G01 X31.7957 Y54.4133
G01 X31.8049 Y54.4031
G01 X32.3274 Y53.8806
G01 X32.3376 Y53.8713
G01 X32.3487 Y53.8631
G01 X32.3605 Y53.8561
G01 X32.3729 Y53.8502
G01 X32.3859 Y53.8455
G01 X32.3992 Y53.8422
G01 X32.4128 Y53.8402
G01 X32.4266 Y53.8395
G01 X32.4556 Y53.8395
G01 X32.4556 Y46.4100
G01 X32.4567 Y46.3835
G01 X32.4580 Y46.3698
G01 X32.4609 Y46.3504
G01 X32.4636 Y46.3369
G01 X32.4684 Y46.3178
G01 X32.4724 Y46.3047
G01 X32.4790 Y46.2862
G01 X32.4843 Y46.2735
G01 X32.4926 Y46.2557
G01 X32.4991 Y46.2436
G01 X32.5092 Y46.2268
G01 X32.5169 Y46.2153
G01 X32.5286 Y46.1995
G01 X32.5373 Y46.1889
G01 X32.5552 Y46.1694
G01 X40.5410 Y38.1836
G01 X40.5605 Y38.1657
G01 X40.5712 Y38.1570
G01 X40.5869 Y38.1453
G01 X40.5984 Y38.1376
G01 X40.6152 Y38.1275
G01 X40.6274 Y38.1210
G01 X40.6451 Y38.1126
G01 X40.6578 Y38.1074
G01 X40.6763 Y38.1008
G01 X40.6895 Y38.0968
G01 X40.7085 Y38.0920
G01 X40.7220 Y38.0893
G01 X40.7414 Y38.0864
G01 X40.7551 Y38.0851
G01 X40.7816 Y38.0839
G01 X58.8024 Y38.0839
G01 X66.6033 Y30.2830
G01 X66.6033 Y28.4148
G01 X37.0821 Y28.4148
G01 X37.0556 Y28.4137
G01 X37.0419 Y28.4123
G01 X37.0225 Y28.4094
G01 X37.0090 Y28.4068
G01 X36.9900 Y28.4020
G01 X36.9768 Y28.3980
G01 X36.9583 Y28.3914
G01 X36.9456 Y28.3861
G01 X36.9278 Y28.3777
G01 X36.9157 Y28.3712
G01 X36.8989 Y28.3611
G01 X36.8874 Y28.3535
G01 X36.8717 Y28.3418
G01 X36.8610 Y28.3331
G01 X36.8415 Y28.3151
G01 X30.8452 Y22.3188
G01 X14.4737 Y22.3188
G01 X14.4554 Y22.3701
G01 X14.4501 Y22.3829
G01 X14.4123 Y22.4627
G01 X14.4058 Y22.4748
G01 X14.3604 Y22.5506
G01 X14.3528 Y22.5620
G01 X14.3002 Y22.6330
G01 X14.2915 Y22.6436
G01 X14.2321 Y22.7090
G01 X14.2224 Y22.7188
G01 X14.1570 Y22.7781
G01 X14.1463 Y22.7868
G01 X14.0754 Y22.8394
G01 X14.0640 Y22.8471
G01 X13.9882 Y22.8925
G01 X13.9761 Y22.8990
G01 X13.8962 Y22.9367
G01 X13.8835 Y22.9420
G01 X13.8003 Y22.9718
G01 X13.7872 Y22.9757
G01 X13.7015 Y22.9972
G01 X13.6880 Y22.9999
G01 X13.6006 Y23.0128
G01 X13.5870 Y23.0142
G01 X13.4987 Y23.0185
G01 X13.4850 Y23.0185
G01 X13.3968 Y23.0142
G01 X13.3831 Y23.0128
G01 X13.2957 Y22.9999
G01 X13.2822 Y22.9972
G01 X13.1965 Y22.9757
G01 X13.1834 Y22.9718
G01 X13.1002 Y22.9420
G01 X13.0875 Y22.9367
G01 X13.0077 Y22.8990
G01 X12.9955 Y22.8925
G01 X12.9198 Y22.8471
G01 X12.9083 Y22.8394
G01 X12.8374 Y22.7868
G01 X12.8268 Y22.7781
G01 X12.7613 Y22.7188
G01 X12.7516 Y22.7090
G01 X12.6923 Y22.6436
G01 X12.6835 Y22.6330
G01 X12.6309 Y22.5620
G01 X12.6233 Y22.5506
G01 X12.5779 Y22.4748
G01 X12.5714 Y22.4627
G01 X12.5336 Y22.3829
G01 X12.5284 Y22.3701
G01 X12.4986 Y22.2870
G01 X12.4946 Y22.2738
G01 X12.4732 Y22.1881
G01 X12.4705 Y22.1747
G01 X12.4575 Y22.0873
G01 X12.4562 Y22.0736
G01 X12.4518 Y21.9854
G01 X12.4518 Y21.9716
G01 X12.4562 Y21.8834
G01 X12.4575 Y21.8697
G01 X12.4705 Y21.7823
G01 X12.4732 Y21.7689
G01 X12.4946 Y21.6832
G01 X12.4986 Y21.6700
G01 X12.5284 Y21.5869
G01 X12.5336 Y21.5741
G01 X12.5714 Y21.4943
G01 X12.5779 Y21.4822
G01 X12.6233 Y21.4064
G01 X12.6309 Y21.3950
G01 X12.6835 Y21.3240
G01 X12.6923 Y21.3134
G01 X12.7516 Y21.2480
G01 X12.7613 Y21.2382
G01 X12.8268 Y21.1789
G01 X12.8374 Y21.1702
G01 X12.9083 Y21.1176
G01 X12.9198 Y21.1099
G01 X12.9955 Y21.0645
G01 X13.0077 Y21.0580
G01 X13.0875 Y21.0203
G01 X13.1002 Y21.0150
G01 X13.1834 Y20.9852
G01 X13.1965 Y20.9813
G01 X13.2822 Y20.9598
G01 X13.2957 Y20.9571
G01 X13.3831 Y20.9442
G01 X13.3968 Y20.9428
G01 X13.4850 Y20.9385
G01 X13.4987 Y20.9385
G01 X13.5870 Y20.9428
G01 X13.6006 Y20.9442
G01 X13.6880 Y20.9571
G01 X13.7015 Y20.9598
G01 X13.7872 Y20.9813
G01 X13.8003 Y20.9852
G01 X13.8835 Y21.0150
G01 X13.8962 Y21.0203
G01 X13.9761 Y21.0580
G01 X13.9882 Y21.0645
G01 X14.0640 Y21.1099
G01 X14.0754 Y21.1176
G01 X14.1463 Y21.1702
G01 X14.1570 Y21.1789
G01 X14.2224 Y21.2382
G01 X14.2321 Y21.2480
G01 X14.2915 Y21.3134
G01 X14.3002 Y21.3240
G01 X14.3528 Y21.3950
G01 X14.3604 Y21.4064
G01 X14.4058 Y21.4822
G01 X14.4123 Y21.4943
G01 X14.4501 Y21.5741
G01 X14.4554 Y21.5869
G01 X14.4737 Y21.6382
G00 X14.4737 Y21.6382
G01 F60.00
G01 Z-0.1500
G01 F120.00
G01 X30.9861 Y21.6382
G01 X31.0126 Y21.6393
G01 X31.0263 Y21.6407
G01 X31.0457 Y21.6436
G01 X31.0592 Y21.6462
G01 X31.0783 Y21.6510
G01 X31.0914 Y21.6550
G01 X31.1099 Y21.6616
G01 X31.1226 Y21.6669
G01 X31.1404 Y21.6753
G01 X31.1525 Y21.6818
G01 X31.1694 Y21.6919
G01 X31.1808 Y21.6995
G01 X31.1966 Y21.7112
G01 X31.2072 Y21.7199
G01 X31.2267 Y21.7379
G01 X36.9081 Y27.4193
G01 X37.4295 Y26.8979
G01 X37.4490 Y26.8799
G01 X37.4597 Y26.8712
G01 X37.4754 Y26.8595
G01 X37.4869 Y26.8519
G01 X37.5037 Y26.8418
G01 X37.5159 Y26.8353
G01 X37.5336 Y26.8269
G01 X37.5463 Y26.8216
G01 X37.5648 Y26.8150
G01 X37.5780 Y26.8110
G01 X37.5970 Y26.8063
G01 X37.6105 Y26.8036
G01 X37.6299 Y26.8007
G01 X37.6436 Y26.7993
G01 X37.6701 Y26.7982
G01 X64.5099 Y26.7982
G01 X64.5283 Y26.7469
G01 X64.5335 Y26.7342
G01 X64.5713 Y26.6543
G01 X64.5778 Y26.6422
G01 X64.6232 Y26.5664
G01 X64.6308 Y26.5550
G01 X64.6834 Y26.4840
G01 X64.6922 Y26.4734
G01 X64.7515 Y26.4080
G01 X64.7612 Y26.3982
G01 X64.8266 Y26.3389
G01 X64.8373 Y26.3302
G01 X64.9082 Y26.2776
G01 X64.9197 Y26.2699
G01 X64.9954 Y26.2245
G01 X65.0075 Y26.2180
G01 X65.0874 Y26.1803
G01 X65.1001 Y26.1750
G01 X65.1833 Y26.1453
G01 X65.1964 Y26.1413
G01 X65.2821 Y26.1198
G01 X65.2956 Y26.1171
G01 X65.3830 Y26.1042
G01 X65.3967 Y26.1028
G01 X65.4849 Y26.0985
G01 X65.4986 Y26.0985
G01 X65.5868 Y26.1028
G01 X65.6005 Y26.1042
G01 X65.6879 Y26.1171
G01 X65.7014 Y26.1198
G01 X65.7871 Y26.1413
G01 X65.8002 Y26.1453
G01 X65.8834 Y26.1750
G01 X65.8961 Y26.1803
G01 X65.9760 Y26.2180
G01 X65.9881 Y26.2245
G01 X66.0638 Y26.2699
G01 X66.0753 Y26.2776
G01 X66.1462 Y26.3302
G01 X66.1569 Y26.3389
G01 X66.2223 Y26.3982
G01 X66.2320 Y26.4080
G01 X66.2913 Y26.4734
G01 X66.3001 Y26.4840
G01 X66.3527 Y26.5550
G01 X66.3603 Y26.5664
G01 X66.4057 Y26.6422
G01 X66.4122 Y26.6543
G01 X66.4500 Y26.7342
G01 X66.4552 Y26.7469
G01 X66.4850 Y26.8300
G01 X66.4890 Y26.8432
G01 X66.5105 Y26.9289
G01 X66.5131 Y26.9424
G01 X66.5261 Y27.0297
G01 X66.5274 Y27.0434
G01 X66.5318 Y27.1316
G01 X66.5318 Y27.1454
G01 X66.5274 Y27.2336
G01 X66.5261 Y27.2473
G01 X66.5131 Y27.3347
G01 X66.5105 Y27.3482
G01 X66.4890 Y27.4338
G01 X66.4850 Y27.4470
G01 X66.4552 Y27.5302
G01 X66.4500 Y27.5429
G01 X66.4122 Y27.6227
G01 X66.4057 Y27.6348
G01 X66.3603 Y27.7106
G01 X66.3527 Y27.7220
G01 X66.3437 Y27.7342
G01 X66.9436 Y27.7342
G01 X66.9701 Y27.7353
G01 X66.9838 Y27.7367
G01 X67.0032 Y27.7396
G01 X67.0167 Y27.7422
G01 X67.0358 Y27.7470
G01 X67.0489 Y27.7510
G01 X67.0674 Y27.7576
G01 X67.0801 Y27.7629
G01 X67.0979 Y27.7713
G01 X67.1100 Y27.7778
G01 X67.1269 Y27.7879
G01 X67.1383 Y27.7955
G01 X67.1541 Y27.8072
G01 X67.1647 Y27.8159
G01 X67.1793 Y27.8291
G01 X67.1890 Y27.8389
G01 X67.2022 Y27.8534
G01 X67.2109 Y27.8640
G01 X67.2226 Y27.8798
G01 X67.2303 Y27.8913
G01 X67.2403 Y27.9081
G01 X67.2468 Y27.9202
G01 X67.2552 Y27.9380
G01 X67.2605 Y27.9507
G01 X67.2671 Y27.9692
G01 X67.2711 Y27.9823
G01 X67.2759 Y28.0014
G01 X67.2786 Y28.0149
G01 X67.2814 Y28.0343
G01 X67.2828 Y28.0480
G01 X67.2839 Y28.0745
G01 X67.2839 Y30.4240
G01 X67.2828 Y30.4505
G01 X67.2814 Y30.4642
G01 X67.2786 Y30.4836
G01 X67.2759 Y30.4971
G01 X67.2711 Y30.5162
G01 X67.2671 Y30.5293
G01 X67.2605 Y30.5478
G01 X67.2552 Y30.5605
G01 X67.2468 Y30.5783
G01 X67.2403 Y30.5904
G01 X67.2303 Y30.6072
G01 X67.2226 Y30.6187
G01 X67.2109 Y30.6345
G01 X67.2022 Y30.6451
G01 X67.1842 Y30.6646
G01 X59.1840 Y38.6649
G01 X59.1645 Y38.6828
G01 X59.1538 Y38.6915
G01 X59.1381 Y38.7032
G01 X59.1266 Y38.7109
G01 X59.1098 Y38.7210
G01 X59.0976 Y38.7275
G01 X59.0799 Y38.7358
G01 X59.0672 Y38.7411
G01 X59.0487 Y38.7477
G01 X59.0355 Y38.7517
G01 X59.0165 Y38.7565
G01 X59.0030 Y38.7592
G01 X58.9836 Y38.7621
G01 X58.9699 Y38.7634
G01 X58.9434 Y38.7645
G01 X40.9226 Y38.7645
G01 X33.1362 Y46.5510
G01 X33.1362 Y53.8395
G01 X33.1652 Y53.8395
G01 X33.1789 Y53.8402
G01 X33.1925 Y53.8422
G01 X33.2059 Y53.8455
G01 X33.2188 Y53.8502
G01 X33.2312 Y53.8561
G01 X33.2431 Y53.8631
G01 X33.2541 Y53.8713
G01 X33.2643 Y53.8806
G01 X33.7868 Y54.4031
G01 X33.7960 Y54.4133
G01 X33.8042 Y54.4243
G01 X33.8113 Y54.4361
G01 X33.8172 Y54.4485
G01 X33.8218 Y54.4615
G01 X33.8252 Y54.4748
G01 X33.8272 Y54.4885
G01 X33.8279 Y54.5022
G01 X33.8279 Y55.2408
G01 X33.8272 Y55.2545
G01 X33.8252 Y55.2682
G01 X33.8218 Y55.2815
G01 X33.8172 Y55.2945
G01 X33.8113 Y55.3069
G01 X33.8042 Y55.3187
G01 X33.7960 Y55.3297
G01 X33.7868 Y55.3399
G01 X33.2643 Y55.8624
G01 X33.2541 Y55.8717
G01 X33.2431 Y55.8799
G01 X33.2312 Y55.8869
G01 X33.2188 Y55.8928
G01 X33.2059 Y55.8975
G01 X33.1925 Y55.9008
G01 X33.1789 Y55.9028
G01 X33.1652 Y55.9035
G01 X32.4266 Y55.9035
G01 X32.4128 Y55.9028
G01 X32.3992 Y55.9008
G01 X32.3859 Y55.8975
G01 X32.3729 Y55.8928
G01 X32.3605 Y55.8869
G01 X32.3487 Y55.8799
G01 X32.3376 Y55.8717
G01 X32.3274 Y55.8624
G01 X31.8049 Y55.3399
G01 X31.7957 Y55.3297
G01 X31.7875 Y55.3187
G01 X31.7804 Y55.3069
G01 X31.7745 Y55.2945
G01 X31.7699 Y55.2815
G01 X31.7666 Y55.2682
G01 X31.7645 Y55.2545
G01 X31.7639 Y55.2408
G01 X31.7639 Y54.5022
G01 X31.7645 Y54.4885
G01 X31.7666 Y54.4748
G01 X31.7699 Y54.4615
G01 X31.7745 Y54.4485
G01 X31.7804 Y54.4361
G01 X31.7875 Y54.4243
G01 X31.7957 Y54.4133
G01 X31.8049 Y54.4031
G01 X32.3274 Y53.8806
G01 X32.3376 Y53.8713
G01 X32.3487 Y53.8631
G01 X32.3605 Y53.8561
G01 X32.3729 Y53.8502
G01 X32.3859 Y53.8455
G01 X32.3992 Y53.8422
G01 X32.4128 Y53.8402
G01 X32.4266 Y53.8395
G01 X32.4556 Y53.8395
G01 X32.4556 Y46.4100
G01 X32.4567 Y46.3835
G01 X32.4580 Y46.3698
G01 X32.4609 Y46.3504
G01 X32.4636 Y46.3369
G01 X32.4684 Y46.3178
G01 X32.4724 Y46.3047
G01 X32.4790 Y46.2862
G01 X32.4843 Y46.2735
G01 X32.4926 Y46.2557
G01 X32.4991 Y46.2436
G01 X32.5092 Y46.2268
G01 X32.5169 Y46.2153
G01 X32.5286 Y46.1995
G01 X32.5373 Y46.1889
G01 X32.5552 Y46.1694
G01 X40.5410 Y38.1836
G01 X40.5605 Y38.1657
G01 X40.5712 Y38.1570
G01 X40.5869 Y38.1453
G01 X40.5984 Y38.1376
G01 X40.6152 Y38.1275
G01 X40.6274 Y38.1210
G01 X40.6451 Y38.1126
G01 X40.6578 Y38.1074
G01 X40.6763 Y38.1008
G01 X40.6895 Y38.0968
G01 X40.7085 Y38.0920
G01 X40.7220 Y38.0893
G01 X40.7414 Y38.0864
G01 X40.7551 Y38.0851
G01 X40.7816 Y38.0839
G01 X58.8024 Y38.0839
G01 X66.6033 Y30.2830
G01 X66.6033 Y28.4148
G01 X37.0821 Y28.4148
G01 X37.0556 Y28.4137
G01 X37.0419 Y28.4123
G01 X37.0225 Y28.4094
G01 X37.0090 Y28.4068
G01 X36.9900 Y28.4020
G01 X36.9768 Y28.3980
G01 X36.9583 Y28.3914
G01 X36.9456 Y28.3861
G01 X36.9278 Y28.3777
G01 X36.9157 Y28.3712
G01 X36.8989 Y28.3611
G01 X36.8874 Y28.3535
G01 X36.8717 Y28.3418
G01 X36.8610 Y28.3331
G01 X36.8415 Y28.3151
G01 X30.8452 Y22.3188
G01 X14.4737 Y22.3188
G01 X14.4554 Y22.3701
G01 X14.4501 Y22.3829
G01 X14.4123 Y22.4627
G01 X14.4058 Y22.4748
G01 X14.3604 Y22.5506
G01 X14.3528 Y22.5620
G01 X14.3002 Y22.6330
G01 X14.2915 Y22.6436
G01 X14.2321 Y22.7090
G01 X14.2224 Y22.7188
G01 X14.1570 Y22.7781
G01 X14.1463 Y22.7868
G01 X14.0754 Y22.8394
G01 X14.0640 Y22.8471
G01 X13.9882 Y22.8925
G01 X13.9761 Y22.8990
G01 X13.8962 Y22.9367
G01 X13.8835 Y22.9420
G01 X13.8003 Y22.9718
G01 X13.7872 Y22.9757
G01 X13.7015 Y22.9972
G01 X13.6880 Y22.9999
G01 X13.6006 Y23.0128
G01 X13.5870 Y23.0142
G01 X13.4987 Y23.0185
G01 X13.4850 Y23.0185
G01 X13.3968 Y23.0142
G01 X13.3831 Y23.0128
G01 X13.2957 Y22.9999
G01 X13.2822 Y22.9972
G01 X13.1965 Y22.9757
G01 X13.1834 Y22.9718
G01 X13.1002 Y22.9420
G01 X13.0875 Y22.9367
G01 X13.0077 Y22.8990
G01 X12.9955 Y22.8925
G01 X12.9198 Y22.8471
G01 X12.9083 Y22.8394
G01 X12.8374 Y22.7868
G01 X12.8268 Y22.7781
G01 X12.7613 Y22.7188
G01 X12.7516 Y22.7090
G01 X12.6923 Y22.6436
G01 X12.6835 Y22.6330
G01 X12.6309 Y22.5620
G01 X12.6233 Y22.5506
G01 X12.5779 Y22.4748
G01 X12.5714 Y22.4627
G01 X12.5336 Y22.3829
G01 X12.5284 Y22.3701
G01 X12.4986 Y22.2870
G01 X12.4946 Y22.2738
G01 X12.4732 Y22.1881
G01 X12.4705 Y22.1747
G01 X12.4575 Y22.0873
G01 X12.4562 Y22.0736
G01 X12.4518 Y21.9854
G01 X12.4518 Y21.9716
G01 X12.4562 Y21.8834
G01 X12.4575 Y21.8697
G01 X12.4705 Y21.7823
G01 X12.4732 Y21.7689
G01 X12.4946 Y21.6832
G01 X12.4986 Y21.6700
G01 X12.5284 Y21.5869
G01 X12.5336 Y21.5741
G01 X12.5714 Y21.4943
G01 X12.5779 Y21.4822
G01 X12.6233 Y21.4064
G01 X12.6309 Y21.3950
G01 X12.6835 Y21.3240
G01 X12.6923 Y21.3134
G01 X12.7516 Y21.2480
G01 X12.7613 Y21.2382
G01 X12.8268 Y21.1789
G01 X12.8374 Y21.1702
G01 X12.9083 Y21.1176
G01 X12.9198 Y21.1099
G01 X12.9955 Y21.0645
G01 X13.0077 Y21.0580
G01 X13.0875 Y21.0203
G01 X13.1002 Y21.0150
G01 X13.1834 Y20.9852
G01 X13.1965 Y20.9813
G01 X13.2822 Y20.9598
G01 X13.2957 Y20.9571
G01 X13.3831 Y20.9442
G01 X13.3968 Y20.9428
G01 X13.4850 Y20.9385
G01 X13.4987 Y20.9385
G01 X13.5870 Y20.9428
G01 X13.6006 Y20.9442
G01 X13.6880 Y20.9571
G01 X13.7015 Y20.9598
G01 X13.7872 Y20.9813
G01 X13.8003 Y20.9852
G01 X13.8835 Y21.0150
G01 X13.8962 Y21.0203
G01 X13.9761 Y21.0580
G01 X13.9882 Y21.0645
G01 X14.0640 Y21.1099
G01 X14.0754 Y21.1176
G01 X14.1463 Y21.1702
G01 X14.1570 Y21.1789
G01 X14.2224 Y21.2382
G01 X14.2321 Y21.2480
G01 X14.2915 Y21.3134
G01 X14.3002 Y21.3240
G01 X14.3528 Y21.3950
G01 X14.3604 Y21.4064
G01 X14.4058 Y21.4822
G01 X14.4123 Y21.4943
G01 X14.4501 Y21.5741
G01 X14.4554 Y21.5869
G01 X14.4737 Y21.6382
G00 Z2.0000
G00 X13.9455 Y25.4534
G01 F60.00
G01 Z-0.0800
G01 F120.00
G01 X13.8962 Y25.4767
G01 X13.8835 Y25.4820
G01 X13.8003 Y25.5118
G01 X13.7872 Y25.5157
G01 X13.7015 Y25.5372
G01 X13.6880 Y25.5399
G01 X13.6006 Y25.5528
G01 X13.5870 Y25.5542
G01 X13.4987 Y25.5585
G01 X13.4850 Y25.5585
G01 X13.3968 Y25.5542
G01 X13.3831 Y25.5528
G01 X13.2957 Y25.5399
G01 X13.2822 Y25.5372
G01 X13.1965 Y25.5157
G01 X13.1834 Y25.5118
G01 X13.1002 Y25.4820
G01 X13.0875 Y25.4767
G01 X13.0077 Y25.4390
G01 X12.9955 Y25.4325
G01 X12.9198 Y25.3871
G01 X12.9083 Y25.3794
G01 X12.8374 Y25.3268
G01 X12.8268 Y25.3181
G01 X12.7613 Y25.2588
G01 X12.7516 Y25.2490
G01 X12.6923 Y25.1836
G01 X12.6835 Y25.1730
G01 X12.6309 Y25.1020
G01 X12.6233 Y25.0906
G01 X12.5779 Y25.0148
G01 X12.5714 Y25.0027
G01 X12.5336 Y24.9229
G01 X12.5284 Y24.9101
G01 X12.4986 Y24.8270
G01 X12.4946 Y24.8138
G01 X12.4732 Y24.7281
G01 X12.4705 Y24.7147
G01 X12.4575 Y24.6273
G01 X12.4562 Y24.6136
G01 X12.4518 Y24.5254
G01 X12.4518 Y24.5116
G01 X12.4562 Y24.4234
G01 X12.4575 Y24.4097
G01 X12.4705 Y24.3223
G01 X12.4732 Y24.3089
G01 X12.4946 Y24.2232
G01 X12.4986 Y24.2100
G01 X12.5284 Y24.1269
G01 X12.5336 Y24.1141
G01 X12.5714 Y24.0343
G01 X12.5779 Y24.0222
G01 X12.6233 Y23.9464
G01 X12.6309 Y23.9350
G01 X12.6835 Y23.8640
G01 X12.6923 Y23.8534
G01 X12.7516 Y23.7880
G01 X12.7613 Y23.7782
G01 X12.8268 Y23.7189
G01 X12.8374 Y23.7102
G01 X12.9083 Y23.6576
G01 X12.9198 Y23.6499
G01 X12.9955 Y23.6045
G01 X13.0077 Y23.5980
G01 X13.0875 Y23.5603
G01 X13.1002 Y23.5550
G01 X13.1834 Y23.5252
G01 X13.1965 Y23.5213
G01 X13.2822 Y23.4998
G01 X13.2957 Y23.4971
G01 X13.3831 Y23.4842
G01 X13.3968 Y23.4828
G01 X13.4850 Y23.4785
G01 X13.4987 Y23.4785
G01 X13.5870 Y23.4828
G01 X13.6006 Y23.4842
G01 X13.6880 Y23.4971
G01 X13.7015 Y23.4998
G01 X13.7872 Y23.5213
G01 X13.8003 Y23.5252
G01 X13.8835 Y23.5550
G01 X13.8962 Y23.5603
G01 X13.9761 Y23.5980
G01 X13.9882 Y23.6045
G01 X14.0640 Y23.6499
G01 X14.0754 Y23.6576
G01 X14.1463 Y23.7102
G01 X14.1570 Y23.7189
G01 X14.2224 Y23.7782
G01 X14.2321 Y23.7880
G01 X14.2915 Y23.8534
G01 X14.3002 Y23.8640
G01 X14.3528 Y23.9350
G01 X14.3604 Y23.9464
G01 X14.4058 Y24.0222
G01 X14.4123 Y24.0343
G01 X14.4501 Y24.1141
G01 X14.4554 Y24.1269
G01 X14.4851 Y24.2100
G01 X14.4891 Y24.2232
G01 X14.5106 Y24.3089
G01 X14.5132 Y24.3223
G01 X14.5262 Y24.4097
G01 X14.5276 Y24.4234
G01 X14.5319 Y24.5116
G01 X14.5319 Y24.5254
G01 X14.5276 Y24.6136
G01 X14.5262 Y24.6273
G01 X14.5132 Y24.7147
G01 X14.5106 Y24.7281
G01 X14.4891 Y24.8138
G01 X14.4851 Y24.8270
G01 X14.4554 Y24.9101
G01 X14.4501 Y24.9229
G01 X14.4268 Y24.9722
G01 X27.9565 Y38.5019
G01 X27.9744 Y38.5214
G01 X27.9831 Y38.5320
G01 X27.9948 Y38.5478
G01 X28.0025 Y38.5593
G01 X28.0126 Y38.5761
G01 X28.0191 Y38.5882
G01 X28.0275 Y38.6060
G01 X28.0327 Y38.6187
G01 X28.0393 Y38.6372
G01 X28.0433 Y38.6503
G01 X28.0481 Y38.6694
G01 X28.0508 Y38.6829
G01 X28.0537 Y38.7023
G01 X28.0550 Y38.7160
G01 X28.0562 Y38.7425
G01 X28.0562 Y53.8395
G01 X28.0852 Y53.8395
G01 X28.0989 Y53.8402
G01 X28.1125 Y53.8422
G01 X28.1259 Y53.8455
G01 X28.1388 Y53.8502
G01 X28.1512 Y53.8561
G01 X28.1631 Y53.8631
G01 X28.1741 Y53.8713
G01 X28.1843 Y53.8806
G01 X28.7068 Y54.4031
G01 X28.7160 Y54.4133
G01 X28.7242 Y54.4243
G01 X28.7313 Y54.4361
G01 X28.7372 Y54.4485
G01 X28.7418 Y54.4615
G01 X28.7452 Y54.4748
G01 X28.7472 Y54.4885
G01 X28.7479 Y54.5022
G01 X28.7479 Y55.2408
G01 X28.7472 Y55.2545
G01 X28.7452 Y55.2682
G01 X28.7418 Y55.2815
G01 X28.7372 Y55.2945
G01 X28.7313 Y55.3069
G01 X28.7242 Y55.3187
G01 X28.7160 Y55.3297
G01 X28.7068 Y55.3399
G01 X28.1843 Y55.8624
G01 X28.1741 Y55.8717
G01 X28.1631 Y55.8799
G01 X28.1512 Y55.8869
G01 X28.1388 Y55.8928
G01 X28.1259 Y55.8975
G01 X28.1125 Y55.9008
G01 X28.0989 Y55.9028
G01 X28.0852 Y55.9035
G01 X27.3466 Y55.9035
G01 X27.3328 Y55.9028
G01 X27.3192 Y55.9008
G01 X27.3059 Y55.8975
G01 X27.2929 Y55.8928
G01 X27.2805 Y55.8869
G01 X27.2687 Y55.8799
G01 X27.2576 Y55.8717
G01 X27.2474 Y55.8624
G01 X26.7249 Y55.3399
G01 X26.7157 Y55.3297
G01 X26.7075 Y55.3187
G01 X26.7004 Y55.3069
G01 X26.6945 Y55.2945
G01 X26.6899 Y55.2815
G01 X26.6866 Y55.2682
G01 X26.6845 Y55.2545
G01 X26.6839 Y55.2408
G01 X26.6839 Y54.5022
G01 X26.6845 Y54.4885
G01 X26.6866 Y54.4748
G01 X26.6899 Y54.4615
G01 X26.6945 Y54.4485
G01 X26.7004 Y54.4361
G01 X26.7075 Y54.4243
G01 X26.7157 Y54.4133
G01 X26.7249 Y54.4031
G01 X27.2474 Y53.8806
G01 X27.2576 Y53.8713
G01 X27.2687 Y53.8631
G01 X27.2805 Y53.8561
G01 X27.2929 Y53.8502
G01 X27.3059 Y53.8455
G01 X27.3192 Y53.8422
G01 X27.3328 Y53.8402
G01 X27.3466 Y53.8395
G01 X27.3756 Y53.8395
G01 X27.3756 Y38.8835
G01 X13.9455 Y25.4534
G00 X13.9455 Y25.4534
G01 F60.00
G01 Z-0.1500
G01 F120.00
G01 X13.8962 Y25.4767
G01 X13.8835 Y25.4820
G01 X13.8003 Y25.5118
G01 X13.7872 Y25.5157
G01 X13.7015 Y25.5372
G01 X13.6880 Y25.5399
G01 X13.6006 Y25.5528
G01 X13.5870 Y25.5542
G01 X13.4987 Y25.5585
G01 X13.4850 Y25.5585
G01 X13.3968 Y25.5542
G01 X13.3831 Y25.5528
G01 X13.2957 Y25.5399
G01 X13.2822 Y25.5372
G01 X13.1965 Y25.5157
G01 X13.1834 Y25.5118
G01 X13.1002 Y25.4820
G01 X13.0875 Y25.4767
G01 X13.0077 Y25.4390
G01 X12.9955 Y25.4325
G01 X12.9198 Y25.3871
G01 X12.9083 Y25.3794
G01 X12.8374 Y25.3268
G01 X12.8268 Y25.3181
G01 X12.7613 Y25.2588
G01 X12.7516 Y25.2490
G01 X12.6923 Y25.1836
G01 X12.6835 Y25.1730
G01 X12.6309 Y25.1020
G01 X12.6233 Y25.0906
G01 X12.5779 Y25.0148
G01 X12.5714 Y25.0027
G01 X12.5336 Y24.9229
G01 X12.5284 Y24.9101
G01 X12.4986 Y24.8270
G01 X12.4946 Y24.8138
G01 X12.4732 Y24.7281
G01 X12.4705 Y24.7147
G01 X12.4575 Y24.6273
G01 X12.4562 Y24.6136
G01 X12.4518 Y24.5254
G01 X12.4518 Y24.5116
G01 X12.4562 Y24.4234
G01 X12.4575 Y24.4097
G01 X12.4705 Y24.3223
G01 X12.4732 Y24.3089
G01 X12.4946 Y24.2232
G01 X12.4986 Y24.2100
G01 X12.5284 Y24.1269
G01 X12.5336 Y24.1141
G01 X12.5714 Y24.0343
G01 X12.5779 Y24.0222
G01 X12.6233 Y23.9464
G01 X12.6309 Y23.9350
G01 X12.6835 Y23.8640
G01 X12.6923 Y23.8534
G01 X12.7516 Y23.7880
G01 X12.7613 Y23.7782
G01 X12.8268 Y23.7189
G01 X12.8374 Y23.7102
G01 X12.9083 Y23.6576
G01 X12.9198 Y23.6499
G01 X12.9955 Y23.6045
G01 X13.0077 Y23.5980
G01 X13.0875 Y23.5603
G01 X13.1002 Y23.5550
G01 X13.1834 Y23.5252
G01 X13.1965 Y23.5213
G01 X13.2822 Y23.4998
G01 X13.2957 Y23.4971
G01 X13.3831 Y23.4842
G01 X13.3968 Y23.4828
G01 X13.4850 Y23.4785
G01 X13.4987 Y23.4785
G01 X13.5870 Y23.4828
G01 X13.6006 Y23.4842
G01 X13.6880 Y23.4971
G01 X13.7015 Y23.4998
G01 X13.7872 Y23.5213
G01 X13.8003 Y23.5252
G01 X13.8835 Y23.5550
G01 X13.8962 Y23.5603
G01 X13.9761 Y23.5980
G01 X13.9882 Y23.6045
G01 X14.0640 Y23.6499
G01 X14.0754 Y23.6576
G01 X14.1463 Y23.7102
G01 X14.1570 Y23.7189
G01 X14.2224 Y23.7782
G01 X14.2321 Y23.7880
G01 X14.2915 Y23.8534
G01 X14.3002 Y23.8640
G01 X14.3528 Y23.9350
G01 X14.3604 Y23.9464
G01 X14.4058 Y24.0222
G01 X14.4123 Y24.0343
G01 X14.4501 Y24.1141
G01 X14.4554 Y24.1269
G01 X14.4851 Y24.2100
G01 X14.4891 Y24.2232
G01 X14.5106 Y24.3089
G01 X14.5132 Y24.3223
G01 X14.5262 Y24.4097
G01 X14.5276 Y24.4234
G01 X14.5319 Y24.5116
G01 X14.5319 Y24.5254
G01 X14.5276 Y24.6136
G01 X14.5262 Y24.6273
G01 X14.5132 Y24.7147
G01 X14.5106 Y24.7281
G01 X14.4891 Y24.8138
G01 X14.4851 Y24.8270
G01 X14.4554 Y24.9101
G01 X14.4501 Y24.9229
G01 X14.4268 Y24.9722
G01 X27.9565 Y38.5019
G01 X27.9744 Y38.5214
G01 X27.9831 Y38.5320
G01 X27.9948 Y38.5478
G01 X28.0025 Y38.5593
G01 X28.0126 Y38.5761
G01 X28.0191 Y38.5882
G01 X28.0275 Y38.6060
G01 X28.0327 Y38.6187
G01 X28.0393 Y38.6372
G01 X28.0433 Y38.6503
G01 X28.0481 Y38.6694
G01 X28.0508 Y38.6829
G01 X28.0537 Y38.7023
G01 X28.0550 Y38.7160
G01 X28.0562 Y38.7425
G01 X28.0562 Y53.8395
G01 X28.0852 Y53.8395
G01 X28.0989 Y53.8402
G01 X28.1125 Y53.8422
G01 X28.1259 Y53.8455
G01 X28.1388 Y53.8502
G01 X28.1512 Y53.8561
G01 X28.1631 Y53.8631
G01 X28.1741 Y53.8713
G01 X28.1843 Y53.8806
G01 X28.7068 Y54.4031
G01 X28.7160 Y54.4133
G01 X28.7242 Y54.4243
G01 X28.7313 Y54.4361
G01 X28.7372 Y54.4485
G01 X28.7418 Y54.4615
G01 X28.7452 Y54.4748
G01 X28.7472 Y54.4885
G01 X28.7479 Y54.5022
G01 X28.7479 Y55.2408
G01 X28.7472 Y55.2545
G01 X28.7452 Y55.2682
G01 X28.7418 Y55.2815
G01 X28.7372 Y55.2945
G01 X28.7313 Y55.3069
G01 X28.7242 Y55.3187
G01 X28.7160 Y55.3297
G01 X28.7068 Y55.3399
G01 X28.1843 Y55.8624
G01 X28.1741 Y55.8717
G01 X28.1631 Y55.8799
G01 X28.1512 Y55.8869
G01 X28.1388 Y55.8928
G01 X28.1259 Y55.8975
G01 X28.1125 Y55.9008
G01 X28.0989 Y55.9028
G01 X28.0852 Y55.9035
G01 X27.3466 Y55.9035
G01 X27.3328 Y55.9028
G01 X27.3192 Y55.9008
G01 X27.3059 Y55.8975
G01 X27.2929 Y55.8928
G01 X27.2805 Y55.8869
G01 X27.2687 Y55.8799
G01 X27.2576 Y55.8717
G01 X27.2474 Y55.8624
G01 X26.7249 Y55.3399
G01 X26.7157 Y55.3297
G01 X26.7075 Y55.3187
G01 X26.7004 Y55.3069
G01 X26.6945 Y55.2945
G01 X26.6899 Y55.2815
G01 X26.6866 Y55.2682
G01 X26.6845 Y55.2545
G01 X26.6839 Y55.2408
G01 X26.6839 Y54.5022
G01 X26.6845 Y54.4885
G01 X26.6866 Y54.4748
G01 X26.6899 Y54.4615
G01 X26.6945 Y54.4485
G01 X26.7004 Y54.4361
G01 X26.7075 Y54.4243
G01 X26.7157 Y54.4133
G01 X26.7249 Y54.4031
G01 X27.2474 Y53.8806
G01 X27.2576 Y53.8713
G01 X27.2687 Y53.8631
G01 X27.2805 Y53.8561
G01 X27.2929 Y53.8502
G01 X27.3059 Y53.8455
G01 X27.3192 Y53.8422
G01 X27.3328 Y53.8402
G01 X27.3466 Y53.8395
G01 X27.3756 Y53.8395
G01 X27.3756 Y38.8835
G01 X13.9455 Y25.4534
G00 Z2.0000
G00 X13.9455 Y27.9934
G01 F60.00
G01 Z-0.0800
G01 F120.00
G01 X13.8962 Y28.0167
G01 X13.8835 Y28.0220
G01 X13.8003 Y28.0518
G01 X13.7872 Y28.0557
G01 X13.7015 Y28.0772
G01 X13.6880 Y28.0799
G01 X13.6006 Y28.0928
G01 X13.5870 Y28.0942
G01 X13.4987 Y28.0985
G01 X13.4850 Y28.0985
G01 X13.3968 Y28.0942
G01 X13.3831 Y28.0928
G01 X13.2957 Y28.0799
G01 X13.2822 Y28.0772
G01 X13.1965 Y28.0557
G01 X13.1834 Y28.0518
G01 X13.1002 Y28.0220
G01 X13.0875 Y28.0167
G01 X13.0077 Y27.9790
G01 X12.9955 Y27.9725
G01 X12.9198 Y27.9271
G01 X12.9083 Y27.9194
G01 X12.8374 Y27.8668
G01 X12.8268 Y27.8581
G01 X12.7613 Y27.7988
G01 X12.7516 Y27.7890
G01 X12.6923 Y27.7236
G01 X12.6835 Y27.7130
G01 X12.6309 Y27.6420
G01 X12.6233 Y27.6306
G01 X12.5779 Y27.5548
G01 X12.5714 Y27.5427
G01 X12.5336 Y27.4629
G01 X12.5284 Y27.4501
G01 X12.4986 Y27.3670
G01 X12.4946 Y27.3538
G01 X12.4732 Y27.2681
G01 X12.4705 Y27.2547
G01 X12.4575 Y27.1673
G01 X12.4562 Y27.1536
G01 X12.4518 Y27.0654
G01 X12.4518 Y27.0516
G01 X12.4562 Y26.9634
G01 X12.4575 Y26.9497
G01 X12.4705 Y26.8623
G01 X12.4732 Y26.8489
G01 X12.4946 Y26.7632
G01 X12.4986 Y26.7500
G01 X12.5284 Y26.6669
G01 X12.5336 Y26.6541
G01 X12.5714 Y26.5743
G01 X12.5779 Y26.5622
G01 X12.6233 Y26.4864
G01 X12.6309 Y26.4750
G01 X12.6835 Y26.4040
G01 X12.6923 Y26.3934
G01 X12.7516 Y26.3280
G01 X12.7613 Y26.3182
G01 X12.8268 Y26.2589
G01 X12.8374 Y26.2502
G01 X12.9083 Y26.1976
G01 X12.9198 Y26.1899
G01 X12.9955 Y26.1445
G01 X13.0077 Y26.1380
G01 X13.0875 Y26.1003
G01 X13.1002 Y26.0950
G01 X13.1834 Y26.0652
G01 X13.1965 Y26.0613
G01 X13.2822 Y26.0398
G01 X13.2957 Y26.0371
G01 X13.3831 Y26.0242
G01 X13.3968 Y26.0228
G01 X13.4850 Y26.0185
G01 X13.4987 Y26.0185
G01 X13.5870 Y26.0228
G01 X13.6006 Y26.0242
G01 X13.6880 Y26.0371
G01 X13.7015 Y26.0398
G01 X13.7872 Y26.0613
G01 X13.8003 Y26.0652
G01 X13.8835 Y26.0950
G01 X13.8962 Y26.1003
G01 X13.9761 Y26.1380
G01 X13.9882 Y26.1445
G01 X14.0640 Y26.1899
G01 X14.0754 Y26.1976
G01 X14.1463 Y26.2502
G01 X14.1570 Y26.2589
G01 X14.2224 Y26.3182
G01 X14.2321 Y26.3280
G01 X14.2915 Y26.3934
G01 X14.3002 Y26.4040
G01 X14.3528 Y26.4750
G01 X14.3604 Y26.4864
G01 X14.4058 Y26.5622
G01 X14.4123 Y26.5743
G01 X14.4501 Y26.6541
G01 X14.4554 Y26.6669
G01 X14.4851 Y26.7500
G01 X14.4891 Y26.7632
G01 X14.5106 Y26.8489
G01 X14.5132 Y26.8623
G01 X14.5262 Y26.9497
G01 X14.5276 Y26.9634
G01 X14.5319 Y27.0516
G01 X14.5319 Y27.0654
G01 X14.5276 Y27.1536
G01 X14.5262 Y27.1673
G01 X14.5132 Y27.2547
G01 X14.5106 Y27.2681
G01 X14.4891 Y27.3538
G01 X14.4851 Y27.3670
G01 X14.4554 Y27.4501
G01 X14.4501 Y27.4629
G01 X14.4268 Y27.5122
G01 X25.4165 Y38.5019
G01 X25.4344 Y38.5214
G01 X25.4431 Y38.5320
G01 X25.4548 Y38.5478
G01 X25.4625 Y38.5593
G01 X25.4726 Y38.5761
G01 X25.4791 Y38.5882
G01 X25.4875 Y38.6060
G01 X25.4927 Y38.6187
G01 X25.4993 Y38.6372
G01 X25.5033 Y38.6503
G01 X25.5081 Y38.6694
G01 X25.5108 Y38.6829
G01 X25.5137 Y38.7023
G01 X25.5150 Y38.7160
G01 X25.5162 Y38.7425
G01 X25.5162 Y53.8395
G01 X25.5452 Y53.8395
G01 X25.5589 Y53.8402
G01 X25.5725 Y53.8422
G01 X25.5859 Y53.8455
G01 X25.5988 Y53.8502
G01 X25.6112 Y53.8561
G01 X25.6231 Y53.8631
G01 X25.6341 Y53.8713
G01 X25.6443 Y53.8806
G01 X26.1668 Y54.4031
G01 X26.1760 Y54.4133
G01 X26.1842 Y54.4243
G01 X26.1913 Y54.4361
G01 X26.1972 Y54.4485
G01 X26.2018 Y54.4615
G01 X26.2052 Y54.4748
G01 X26.2072 Y54.4885
G01 X26.2079 Y54.5022
G01 X26.2079 Y55.2408
G01 X26.2072 Y55.2545
G01 X26.2052 Y55.2682
G01 X26.2018 Y55.2815
G01 X26.1972 Y55.2945
G01 X26.1913 Y55.3069
G01 X26.1842 Y55.3187
G01 X26.1760 Y55.3297
G01 X26.1668 Y55.3399
G01 X25.6443 Y55.8624
G01 X25.6341 Y55.8717
G01 X25.6231 Y55.8799
G01 X25.6112 Y55.8869
G01 X25.5988 Y55.8928
G01 X25.5859 Y55.8975
G01 X25.5725 Y55.9008
G01 X25.5589 Y55.9028
G01 X25.5452 Y55.9035
G01 X24.8066 Y55.9035
G01 X24.7928 Y55.9028
G01 X24.7792 Y55.9008
G01 X24.7659 Y55.8975
G01 X24.7529 Y55.8928
G01 X24.7405 Y55.8869
G01 X24.7287 Y55.8799
G01 X24.7176 Y55.8717
G01 X24.7074 Y55.8624
G01 X24.1849 Y55.3399
G01 X24.1757 Y55.3297
G01 X24.1675 Y55.3187
G01 X24.1604 Y55.3069
G01 X24.1545 Y55.2945
G01 X24.1499 Y55.2815
G01 X24.1466 Y55.2682
G01 X24.1445 Y55.2545
G01 X24.1439 Y55.2408
G01 X24.1439 Y54.5022
G01 X24.1445 Y54.4885
G01 X24.1466 Y54.4748
G01 X24.1499 Y54.4615
G01 X24.1545 Y54.4485
G01 X24.1604 Y54.4361
G01 X24.1675 Y54.4243
G01 X24.1757 Y54.4133
G01 X24.1849 Y54.4031
G01 X24.7074 Y53.8806
G01 X24.7176 Y53.8713
G01 X24.7287 Y53.8631
G01 X24.7405 Y53.8561
G01 X24.7529 Y53.8502
G01 X24.7659 Y53.8455
G01 X24.7792 Y53.8422
G01 X24.7928 Y53.8402
G01 X24.8066 Y53.8395
G01 X24.8356 Y53.8395
G01 X24.8356 Y38.8835
G01 X13.9455 Y27.9934
G00 X13.9455 Y27.9934
G01 F60.00
G01 Z-0.1500
G01 F120.00
G01 X13.8962 Y28.0167
G01 X13.8835 Y28.0220
G01 X13.8003 Y28.0518
G01 X13.7872 Y28.0557
G01 X13.7015 Y28.0772
G01 X13.6880 Y28.0799
G01 X13.6006 Y28.0928
G01 X13.5870 Y28.0942
G01 X13.4987 Y28.0985
G01 X13.4850 Y28.0985
G01 X13.3968 Y28.0942
G01 X13.3831 Y28.0928
G01 X13.2957 Y28.0799
G01 X13.2822 Y28.0772
G01 X13.1965 Y28.0557
G01 X13.1834 Y28.0518
G01 X13.1002 Y28.0220
G01 X13.0875 Y28.0167
G01 X13.0077 Y27.9790
G01 X12.9955 Y27.9725
G01 X12.9198 Y27.9271
G01 X12.9083 Y27.9194
G01 X12.8374 Y27.8668
G01 X12.8268 Y27.8581
G01 X12.7613 Y27.7988
G01 X12.7516 Y27.7890
G01 X12.6923 Y27.7236
G01 X12.6835 Y27.7130
G01 X12.6309 Y27.6420
G01 X12.6233 Y27.6306
G01 X12.5779 Y27.5548
G01 X12.5714 Y27.5427
G01 X12.5336 Y27.4629
G01 X12.5284 Y27.4501
G01 X12.4986 Y27.3670
G01 X12.4946 Y27.3538
G01 X12.4732 Y27.2681
G01 X12.4705 Y27.2547
G01 X12.4575 Y27.1673
G01 X12.4562 Y27.1536
G01 X12.4518 Y27.0654
G01 X12.4518 Y27.0516
G01 X12.4562 Y26.9634
G01 X12.4575 Y26.9497
G01 X12.4705 Y26.8623
G01 X12.4732 Y26.8489
G01 X12.4946 Y26.7632
G01 X12.4986 Y26.7500
G01 X12.5284 Y26.6669
G01 X12.5336 Y26.6541
G01 X12.5714 Y26.5743
G01 X12.5779 Y26.5622
G01 X12.6233 Y26.4864
G01 X12.6309 Y26.4750
G01 X12.6835 Y26.4040
G01 X12.6923 Y26.3934
G01 X12.7516 Y26.3280
G01 X12.7613 Y26.3182
G01 X12.8268 Y26.2589
G01 X12.8374 Y26.2502
G01 X12.9083 Y26.1976
G01 X12.9198 Y26.1899
G01 X12.9955 Y26.1445
G01 X13.0077 Y26.1380
G01 X13.0875 Y26.1003
G01 X13.1002 Y26.0950
G01 X13.1834 Y26.0652
G01 X13.1965 Y26.0613
G01 X13.2822 Y26.0398
G01 X13.2957 Y26.0371
G01 X13.3831 Y26.0242
G01 X13.3968 Y26.0228
G01 X13.4850 Y26.0185
G01 X13.4987 Y26.0185
G01 X13.5870 Y26.0228
G01 X13.6006 Y26.0242
G01 X13.6880 Y26.0371
G01 X13.7015 Y26.0398
G01 X13.7872 Y26.0613
G01 X13.8003 Y26.0652
G01 X13.8835 Y26.0950
G01 X13.8962 Y26.1003
G01 X13.9761 Y26.1380
G01 X13.9882 Y26.1445
G01 X14.0640 Y26.1899
G01 X14.0754 Y26.1976
G01 X14.1463 Y26.2502
G01 X14.1570 Y26.2589
G01 X14.2224 Y26.3182
G01 X14.2321 Y26.3280
G01 X14.2915 Y26.3934
G01 X14.3002 Y26.4040
G01 X14.3528 Y26.4750
G01 X14.3604 Y26.4864
G01 X14.4058 Y26.5622
G01 X14.4123 Y26.5743
G01 X14.4501 Y26.6541
G01 X14.4554 Y26.6669
G01 X14.4851 Y26.7500
G01 X14.4891 Y26.7632
G01 X14.5106 Y26.8489
G01 X14.5132 Y26.8623
G01 X14.5262 Y26.9497
G01 X14.5276 Y26.9634
G01 X14.5319 Y27.0516
G01 X14.5319 Y27.0654
G01 X14.5276 Y27.1536
G01 X14.5262 Y27.1673
G01 X14.5132 Y27.2547
G01 X14.5106 Y27.2681
G01 X14.4891 Y27.3538
G01 X14.4851 Y27.3670
G01 X14.4554 Y27.4501
G01 X14.4501 Y27.4629
G01 X14.4268 Y27.5122
G01 X25.4165 Y38.5019
G01 X25.4344 Y38.5214
G01 X25.4431 Y38.5320
G01 X25.4548 Y38.5478
G01 X25.4625 Y38.5593
G01 X25.4726 Y38.5761
G01 X25.4791 Y38.5882
G01 X25.4875 Y38.6060
G01 X25.4927 Y38.6187
G01 X25.4993 Y38.6372
G01 X25.5033 Y38.6503
G01 X25.5081 Y38.6694
G01 X25.5108 Y38.6829
G01 X25.5137 Y38.7023
G01 X25.5150 Y38.7160
G01 X25.5162 Y38.7425
G01 X25.5162 Y53.8395
G01 X25.5452 Y53.8395
G01 X25.5589 Y53.8402
G01 X25.5725 Y53.8422
G01 X25.5859 Y53.8455
G01 X25.5988 Y53.8502
G01 X25.6112 Y53.8561
G01 X25.6231 Y53.8631
G01 X25.6341 Y53.8713
G01 X25.6443 Y53.8806
G01 X26.1668 Y54.4031
G01 X26.1760 Y54.4133
G01 X26.1842 Y54.4243
G01 X26.1913 Y54.4361
G01 X26.1972 Y54.4485
G01 X26.2018 Y54.4615
G01 X26.2052 Y54.4748
G01 X26.2072 Y54.4885
G01 X26.2079 Y54.5022
G01 X26.2079 Y55.2408
G01 X26.2072 Y55.2545
G01 X26.2052 Y55.2682
G01 X26.2018 Y55.2815
G01 X26.1972 Y55.2945
G01 X26.1913 Y55.3069
G01 X26.1842 Y55.3187
G01 X26.1760 Y55.3297
G01 X26.1668 Y55.3399
G01 X25.6443 Y55.8624
G01 X25.6341 Y55.8717
G01 X25.6231 Y55.8799
G01 X25.6112 Y55.8869
G01 X25.5988 Y55.8928
G01 X25.5859 Y55.8975
G01 X25.5725 Y55.9008
G01 X25.5589 Y55.9028
G01 X25.5452 Y55.9035
G01 X24.8066 Y55.9035
G01 X24.7928 Y55.9028
G01 X24.7792 Y55.9008
G01 X24.7659 Y55.8975
G01 X24.7529 Y55.8928
G01 X24.7405 Y55.8869
G01 X24.7287 Y55.8799
G01 X24.7176 Y55.8717
G01 X24.7074 Y55.8624
G01 X24.1849 Y55.3399
G01 X24.1757 Y55.3297
G01 X24.1675 Y55.3187
G01 X24.1604 Y55.3069
G01 X24.1545 Y55.2945
G01 X24.1499 Y55.2815
G01 X24.1466 Y55.2682
G01 X24.1445 Y55.2545
G01 X24.1439 Y55.2408
G01 X24.1439 Y54.5022
G01 X24.1445 Y54.4885
G01 X24.1466 Y54.4748
G01 X24.1499 Y54.4615
G01 X24.1545 Y54.4485
G01 X24.1604 Y54.4361
G01 X24.1675 Y54.4243
G01 X24.1757 Y54.4133
G01 X24.1849 Y54.4031
G01 X24.7074 Y53.8806
G01 X24.7176 Y53.8713
G01 X24.7287 Y53.8631
G01 X24.7405 Y53.8561
G01 X24.7529 Y53.8502
G01 X24.7659 Y53.8455
G01 X24.7792 Y53.8422
G01 X24.7928 Y53.8402
G01 X24.8066 Y53.8395
G01 X24.8356 Y53.8395
G01 X24.8356 Y38.8835
G01 X13.9455 Y27.9934
G00 Z2.0000
G00 X13.9455 Y30.5334
G01 F60.00
G01 Z-0.0800
G01 F120.00
G01 X13.8962 Y30.5567
G01 X13.8835 Y30.5620
G01 X13.8003 Y30.5918
G01 X13.7872 Y30.5957
G01 X13.7015 Y30.6172
G01 X13.6880 Y30.6199
G01 X13.6006 Y30.6328
G01 X13.5870 Y30.6342
G01 X13.4987 Y30.6385
G01 X13.4850 Y30.6385
G01 X13.3968 Y30.6342
G01 X13.3831 Y30.6328
G01 X13.2957 Y30.6199
G01 X13.2822 Y30.6172
G01 X13.1965 Y30.5957
G01 X13.1834 Y30.5918
G01 X13.1002 Y30.5620
G01 X13.0875 Y30.5567
G01 X13.0077 Y30.5190
G01 X12.9955 Y30.5125
G01 X12.9198 Y30.4671
G01 X12.9083 Y30.4594
G01 X12.8374 Y30.4068
G01 X12.8268 Y30.3981
G01 X12.7613 Y30.3388
G01 X12.7516 Y30.3290
G01 X12.6923 Y30.2636
G01 X12.6835 Y30.2530
G01 X12.6309 Y30.1820
G01 X12.6233 Y30.1706
G01 X12.5779 Y30.0948
G01 X12.5714 Y30.0827
G01 X12.5336 Y30.0029
G01 X12.5284 Y29.9901
G01 X12.4986 Y29.9070
G01 X12.4946 Y29.8938
G01 X12.4732 Y29.8081
G01 X12.4705 Y29.7947
G01 X12.4575 Y29.7073
G01 X12.4562 Y29.6936
G01 X12.4518 Y29.6054
G01 X12.4518 Y29.5916
G01 X12.4562 Y29.5034
G01 X12.4575 Y29.4897
G01 X12.4705 Y29.4023
G01 X12.4732 Y29.3889
G01 X12.4946 Y29.3032
G01 X12.4986 Y29.2900
G01 X12.5284 Y29.2069
G01 X12.5336 Y29.1941
G01 X12.5714 Y29.1143
G01 X12.5779 Y29.1022
G01 X12.6233 Y29.0264
G01 X12.6309 Y29.0150
G01 X12.6835 Y28.9440
G01 X12.6923 Y28.9334
G01 X12.7516 Y28.8680
G01 X12.7613 Y28.8582
G01 X12.8268 Y28.7989
G01 X12.8374 Y28.7902
G01 X12.9083 Y28.7376
G01 X12.9198 Y28.7299
G01 X12.9955 Y28.6845
G01 X13.0077 Y28.6780
G01 X13.0875 Y28.6403
G01 X13.1002 Y28.6350
G01 X13.1834 Y28.6052
G01 X13.1965 Y28.6013
G01 X13.2822 Y28.5798
G01 X13.2957 Y28.5771
G01 X13.3831 Y28.5642
G01 X13.3968 Y28.5628
G01 X13.4850 Y28.5585
G01 X13.4987 Y28.5585
G01 X13.5870 Y28.5628
G01 X13.6006 Y28.5642
G01 X13.6880 Y28.5771
G01 X13.7015 Y28.5798
G01 X13.7872 Y28.6013
G01 X13.8003 Y28.6052
G01 X13.8835 Y28.6350
G01 X13.8962 Y28.6403
G01 X13.9761 Y28.6780
G01 X13.9882 Y28.6845
G01 X14.0640 Y28.7299
G01 X14.0754 Y28.7376
G01 X14.1463 Y28.7902
G01 X14.1570 Y28.7989
G01 X14.2224 Y28.8582
G01 X14.2321 Y28.8680
G01 X14.2915 Y28.9334
G01 X14.3002 Y28.9440
G01 X14.3528 Y29.0150
G01 X14.3604 Y29.0264
G01 X14.4058 Y29.1022
G01 X14.4123 Y29.1143
G01 X14.4501 Y29.1941
G01 X14.4554 Y29.2069
G01 X14.4851 Y29.2900
G01 X14.4891 Y29.3032
G01 X14.5106 Y29.3889
G01 X14.5132 Y29.4023
G01 X14.5262 Y29.4897
G01 X14.5276 Y29.5034
G01 X14.5319 Y29.5916
G01 X14.5319 Y29.6054
G01 X14.5276 Y29.6936
G01 X14.5262 Y29.7073
G01 X14.5132 Y29.7947
G01 X14.5106 Y29.8081
G01 X14.4891 Y29.8938
G01 X14.4851 Y29.9070
G01 X14.4554 Y29.9901
G01 X14.4501 Y30.0029
G01 X14.4268 Y30.0522
G01 X22.8765 Y38.5019
G01 X22.8944 Y38.5214
G01 X22.9031 Y38.5320
G01 X22.9148 Y38.5478
G01 X22.9225 Y38.5593
G01 X22.9326 Y38.5761
G01 X22.9391 Y38.5882
G01 X22.9475 Y38.6060
G01 X22.9527 Y38.6187
G01 X22.9593 Y38.6372
G01 X22.9633 Y38.6503
G01 X22.9681 Y38.6694
G01 X22.9708 Y38.6829
G01 X22.9737 Y38.7023
G01 X22.9750 Y38.7160
G01 X22.9762 Y38.7425
G01 X22.9762 Y53.8395
G01 X23.0052 Y53.8395
G01 X23.0189 Y53.8402
G01 X23.0325 Y53.8422
G01 X23.0459 Y53.8455
G01 X23.0588 Y53.8502
G01 X23.0712 Y53.8561
G01 X23.0831 Y53.8631
G01 X23.0941 Y53.8713
G01 X23.1043 Y53.8806
G01 X23.6268 Y54.4031
G01 X23.6360 Y54.4133
G01 X23.6442 Y54.4243
G01 X23.6513 Y54.4361
G01 X23.6572 Y54.4485
G01 X23.6618 Y54.4615
G01 X23.6652 Y54.4748
G01 X23.6672 Y54.4885
G01 X23.6679 Y54.5022
G01 X23.6679 Y55.2408
G01 X23.6672 Y55.2545
G01 X23.6652 Y55.2682
G01 X23.6618 Y55.2815
G01 X23.6572 Y55.2945
G01 X23.6513 Y55.3069
G01 X23.6442 Y55.3187
G01 X23.6360 Y55.3297
G01 X23.6268 Y55.3399
G01 X23.1043 Y55.8624
G01 X23.0941 Y55.8717
G01 X23.0831 Y55.8799
G01 X23.0712 Y55.8869
G01 X23.0588 Y55.8928
G01 X23.0459 Y55.8975
G01 X23.0325 Y55.9008
G01 X23.0189 Y55.9028
G01 X23.0052 Y55.9035
G01 X22.2666 Y55.9035
G01 X22.2528 Y55.9028
G01 X22.2392 Y55.9008
G01 X22.2259 Y55.8975
G01 X22.2129 Y55.8928
G01 X22.2005 Y55.8869
G01 X22.1887 Y55.8799
G01 X22.1776 Y55.8717
G01 X22.1674 Y55.8624
G01 X21.6449 Y55.3399
G01 X21.6357 Y55.3297
G01 X21.6275 Y55.3187
G01 X21.6204 Y55.3069
G01 X21.6145 Y55.2945
G01 X21.6099 Y55.2815
G01 X21.6066 Y55.2682
G01 X21.6045 Y55.2545
G01 X21.6039 Y55.2408
G01 X21.6039 Y54.5022
G01 X21.6045 Y54.4885
G01 X21.6066 Y54.4748
G01 X21.6099 Y54.4615
G01 X21.6145 Y54.4485
G01 X21.6204 Y54.4361
G01 X21.6275 Y54.4243
G01 X21.6357 Y54.4133
G01 X21.6449 Y54.4031
G01 X22.1674 Y53.8806
G01 X22.1776 Y53.8713
G01 X22.1887 Y53.8631
G01 X22.2005 Y53.8561
G01 X22.2129 Y53.8502
G01 X22.2259 Y53.8455
G01 X22.2392 Y53.8422
G01 X22.2528 Y53.8402
G01 X22.2666 Y53.8395
G01 X22.2956 Y53.8395
G01 X22.2956 Y38.8835
G01 X13.9455 Y30.5334
G00 X13.9455 Y30.5334
G01 F60.00
G01 Z-0.1500
G01 F120.00
G01 X13.8962 Y30.5567
G01 X13.8835 Y30.5620
G01 X13.8003 Y30.5918
G01 X13.7872 Y30.5957
G01 X13.7015 Y30.6172
G01 X13.6880 Y30.6199
G01 X13.6006 Y30.6328
G01 X13.5870 Y30.6342
G01 X13.4987 Y30.6385
G01 X13.4850 Y30.6385
G01 X13.3968 Y30.6342
G01 X13.3831 Y30.6328
G01 X13.2957 Y30.6199
G01 X13.2822 Y30.6172
G01 X13.1965 Y30.5957
G01 X13.1834 Y30.5918
G01 X13.1002 Y30.5620
G01 X13.0875 Y30.5567
G01 X13.0077 Y30.5190
G01 X12.9955 Y30.5125
G01 X12.9198 Y30.4671
G01 X12.9083 Y30.4594
G01 X12.8374 Y30.4068
G01 X12.8268 Y30.3981
G01 X12.7613 Y30.3388
G01 X12.7516 Y30.3290
G01 X12.6923 Y30.2636
G01 X12.6835 Y30.2530
G01 X12.6309 Y30.1820
G01 X12.6233 Y30.1706
G01 X12.5779 Y30.0948
G01 X12.5714 Y30.0827
G01 X12.5336 Y30.0029
G01 X12.5284 Y29.9901
G01 X12.4986 Y29.9070
G01 X12.4946 Y29.8938
G01 X12.4732 Y29.8081
G01 X12.4705 Y29.7947
G01 X12.4575 Y29.7073
G01 X12.4562 Y29.6936
G01 X12.4518 Y29.6054
G01 X12.4518 Y29.5916
G01 X12.4562 Y29.5034
G01 X12.4575 Y29.4897
G01 X12.4705 Y29.4023
G01 X12.4732 Y29.3889
G01 X12.4946 Y29.3032
G01 X12.4986 Y29.2900
G01 X12.5284 Y29.2069
G01 X12.5336 Y29.1941
G01 X12.5714 Y29.1143
G01 X12.5779 Y29.1022
G01 X12.6233 Y29.0264
G01 X12.6309 Y29.0150
G01 X12.6835 Y28.9440
G01 X12.6923 Y28.9334
G01 X12.7516 Y28.8680
G01 X12.7613 Y28.8582
G01 X12.8268 Y28.7989
G01 X12.8374 Y28.7902
G01 X12.9083 Y28.7376
G01 X12.9198 Y28.7299
G01 X12.9955 Y28.6845
G01 X13.0077 Y28.6780
G01 X13.0875 Y28.6403
G01 X13.1002 Y28.6350
G01 X13.1834 Y28.6052
G01 X13.1965 Y28.6013
G01 X13.2822 Y28.5798
G01 X13.2957 Y28.5771
G01 X13.3831 Y28.5642
G01 X13.3968 Y28.5628
G01 X13.4850 Y28.5585
G01 X13.4987 Y28.5585
G01 X13.5870 Y28.5628
G01 X13.6006 Y28.5642
G01 X13.6880 Y28.5771
G01 X13.7015 Y28.5798
G01 X13.7872 Y28.6013
G01 X13.8003 Y28.6052
G01 X13.8835 Y28.6350
G01 X13.8962 Y28.6403
G01 X13.9761 Y28.6780
G01 X13.9882 Y28.6845
G01 X14.0640 Y28.7299
G01 X14.0754 Y28.7376
G01 X14.1463 Y28.7902
G01 X14.1570 Y28.7989
G01 X14.2224 Y28.8582
G01 X14.2321 Y28.8680
G01 X14.2915 Y28.9334
G01 X14.3002 Y28.9440
G01 X14.3528 Y29.0150
G01 X14.3604 Y29.0264
G01 X14.4058 Y29.1022
G01 X14.4123 Y29.1143
G01 X14.4501 Y29.1941
G01 X14.4554 Y29.2069
G01 X14.4851 Y29.2900
G01 X14.4891 Y29.3032
G01 X14.5106 Y29.3889
G01 X14.5132 Y29.4023
G01 X14.5262 Y29.4897
G01 X14.5276 Y29.5034
G01 X14.5319 Y29.5916
G01 X14.5319 Y29.6054
G01 X14.5276 Y29.6936
G01 X14.5262 Y29.7073
G01 X14.5132 Y29.7947
G01 X14.5106 Y29.8081
G01 X14.4891 Y29.8938
G01 X14.4851 Y29.9070
G01 X14.4554 Y29.9901
G01 X14.4501 Y30.0029
G01 X14.4268 Y30.0522
G01 X22.8765 Y38.5019
G01 X22.8944 Y38.5214
G01 X22.9031 Y38.5320
G01 X22.9148 Y38.5478
G01 X22.9225 Y38.5593
G01 X22.9326 Y38.5761
G01 X22.9391 Y38.5882
G01 X22.9475 Y38.6060
G01 X22.9527 Y38.6187
G01 X22.9593 Y38.6372
G01 X22.9633 Y38.6503
G01 X22.9681 Y38.6694
G01 X22.9708 Y38.6829
G01 X22.9737 Y38.7023
G01 X22.9750 Y38.7160
G01 X22.9762 Y38.7425
G01 X22.9762 Y53.8395
G01 X23.0052 Y53.8395
G01 X23.0189 Y53.8402
G01 X23.0325 Y53.8422
G01 X23.0459 Y53.8455
G01 X23.0588 Y53.8502
G01 X23.0712 Y53.8561
G01 X23.0831 Y53.8631
G01 X23.0941 Y53.8713
G01 X23.1043 Y53.8806
G01 X23.6268 Y54.4031
G01 X23.6360 Y54.4133
G01 X23.6442 Y54.4243
G01 X23.6513 Y54.4361
G01 X23.6572 Y54.4485
G01 X23.6618 Y54.4615
G01 X23.6652 Y54.4748
G01 X23.6672 Y54.4885
G01 X23.6679 Y54.5022
G01 X23.6679 Y55.2408
G01 X23.6672 Y55.2545
G01 X23.6652 Y55.2682
G01 X23.6618 Y55.2815
G01 X23.6572 Y55.2945
G01 X23.6513 Y55.3069
G01 X23.6442 Y55.3187
G01 X23.6360 Y55.3297
G01 X23.6268 Y55.3399
G01 X23.1043 Y55.8624
G01 X23.0941 Y55.8717
G01 X23.0831 Y55.8799
G01 X23.0712 Y55.8869
G01 X23.0588 Y55.8928
G01 X23.0459 Y55.8975
G01 X23.0325 Y55.9008
G01 X23.0189 Y55.9028
G01 X23.0052 Y55.9035
G01 X22.2666 Y55.9035
G01 X22.2528 Y55.9028
G01 X22.2392 Y55.9008
G01 X22.2259 Y55.8975
G01 X22.2129 Y55.8928
G01 X22.2005 Y55.8869
G01 X22.1887 Y55.8799
G01 X22.1776 Y55.8717
G01 X22.1674 Y55.8624
G01 X21.6449 Y55.3399
G01 X21.6357 Y55.3297
G01 X21.6275 Y55.3187
G01 X21.6204 Y55.3069
G01 X21.6145 Y55.2945
G01 X21.6099 Y55.2815
G01 X21.6066 Y55.2682
G01 X21.6045 Y55.2545
G01 X21.6039 Y55.2408
G01 X21.6039 Y54.5022
G01 X21.6045 Y54.4885
G01 X21.6066 Y54.4748
G01 X21.6099 Y54.4615
G01 X21.6145 Y54.4485
G01 X21.6204 Y54.4361
G01 X21.6275 Y54.4243
G01 X21.6357 Y54.4133
G01 X21.6449 Y54.4031
G01 X22.1674 Y53.8806
G01 X22.1776 Y53.8713
G01 X22.1887 Y53.8631
G01 X22.2005 Y53.8561
G01 X22.2129 Y53.8502
G01 X22.2259 Y53.8455
G01 X22.2392 Y53.8422
G01 X22.2528 Y53.8402
G01 X22.2666 Y53.8395
G01 X22.2956 Y53.8395
G01 X22.2956 Y38.8835
G01 X13.9455 Y30.5334
G00 Z2.0000
G00 X14.1458 Y32.9772
G01 F60.00
G01 Z-0.0800
G01 F120.00
G01 X14.2329 Y32.9026
G01 X14.3213 Y32.8058
G01 X14.3309 Y32.7922
G01 X14.3008 Y32.7922
G01 X14.2915 Y32.8036
G01 X14.2321 Y32.8690
G01 X14.2224 Y32.8788
G01 X14.1570 Y32.9381
G01 X14.1458 Y32.9472
G01 X14.1458 Y32.9772
G00 X14.1458 Y32.9772
G01 F60.00
G01 Z-0.1500
G01 F120.00
G01 X14.2329 Y32.9026
G01 X14.3213 Y32.8058
G01 X14.3309 Y32.7922
G01 X14.3008 Y32.7922
G01 X14.2915 Y32.8036
G01 X14.2321 Y32.8690
G01 X14.2224 Y32.8788
G01 X14.1570 Y32.9381
G01 X14.1458 Y32.9472
G01 X14.1458 Y32.9772
G00 Z2.0000
G00 X12.6828 Y32.7920
G01 F60.00
G01 Z-0.0800
G01 F120.00
G01 X12.6728 Y32.7915
G01 X12.6595 Y32.7896
G01 X12.6204 Y32.7820
G01 X12.6064 Y32.7785
G01 X12.5929 Y32.7736
G01 X12.5800 Y32.7674
G01 X12.5678 Y32.7599
G01 X12.5352 Y32.7375
G01 X12.5250 Y32.7298
G01 X12.5155 Y32.7211
G01 X12.5069 Y32.7116
G01 X12.4991 Y32.7014
G01 X12.4768 Y32.6689
G01 X12.4693 Y32.6567
G01 X12.4630 Y32.6437
G01 X12.4582 Y32.6302
G01 X12.4547 Y32.6163
G01 X12.4471 Y32.5772
G01 X12.4451 Y32.5638
G01 X12.4445 Y32.5504
G01 X12.4445 Y31.7264
G01 X12.4452 Y31.7127
G01 X12.4472 Y31.6992
G01 X12.4548 Y31.6606
G01 X12.4582 Y31.6470
G01 X12.4629 Y31.6338
G01 X12.4689 Y31.6212
G01 X12.4762 Y31.6092
G01 X12.4986 Y31.5762
G01 X12.5066 Y31.5654
G01 X12.5157 Y31.5555
G01 X12.5257 Y31.5464
G01 X12.5365 Y31.5384
G01 X12.5690 Y31.5165
G01 X12.5806 Y31.5095
G01 X12.5928 Y31.5037
G01 X12.6055 Y31.4990
G01 X12.6187 Y31.4956
G01 X12.6578 Y31.4875
G01 X12.6720 Y31.4853
G01 X12.6830 Y31.4847
G01 X12.6923 Y31.4734
G01 X12.7516 Y31.4080
G01 X12.7613 Y31.3982
G01 X12.8268 Y31.3389
G01 X12.8382 Y31.3296
G01 X12.8382 Y31.3009
G01 X12.8322 Y31.3054
G01 X12.8196 Y31.3139
G01 X12.8060 Y31.3210
G01 X12.7649 Y31.3398
G01 X12.7532 Y31.3445
G01 X12.7410 Y31.3482
G01 X12.7286 Y31.3507
G01 X12.7161 Y31.3522
G01 X12.7034 Y31.3525
G01 X12.6587 Y31.3514
G01 X12.6433 Y31.3502
G01 X12.6281 Y31.3473
G01 X12.6134 Y31.3428
G01 X12.5992 Y31.3367
G01 X12.5596 Y31.3169
G01 X12.5462 Y31.3092
G01 X12.5337 Y31.3001
G01 X12.5223 Y31.2897
G01 X12.5120 Y31.2781
G01 X12.4841 Y31.2425
G01 X12.4768 Y31.2324
G01 X12.4705 Y31.2216
G01 X12.4651 Y31.2103
G01 X12.4608 Y31.1985
G01 X12.4575 Y31.1865
G01 X12.4479 Y31.1433
G01 X12.4453 Y31.1281
G01 X12.4445 Y31.1127
G01 X12.4445 Y30.6245
G01 X12.4453 Y30.6093
G01 X12.4478 Y30.5943
G01 X12.4574 Y30.5506
G01 X12.4608 Y30.5383
G01 X12.4652 Y30.5263
G01 X12.4707 Y30.5148
G01 X12.4772 Y30.5038
G01 X12.4847 Y30.4934
G01 X12.5127 Y30.4584
G01 X12.5228 Y30.4470
G01 X12.5341 Y30.4368
G01 X12.5464 Y30.4279
G01 X12.5596 Y30.4204
G01 X12.5992 Y30.4006
G01 X12.6134 Y30.3944
G01 X12.6281 Y30.3899
G01 X12.6433 Y30.3870
G01 X12.6587 Y30.3858
G01 X12.7034 Y30.3848
G01 X12.7189 Y30.3853
G01 X12.7342 Y30.3875
G01 X12.7491 Y30.3914
G01 X12.7636 Y30.3969
G01 X12.8047 Y30.4151
G01 X12.8189 Y30.4225
G01 X12.8322 Y30.4314
G01 X12.9041 Y30.4856
G01 X13.0177 Y30.5512
G01 X13.1380 Y30.6023
G01 X13.2640 Y30.6382
G01 X13.3937 Y30.6584
G01 X13.5247 Y30.6624
G01 X13.6554 Y30.6503
G01 X13.7819 Y30.6228
G01 X13.7968 Y30.6172
G01 X13.8109 Y30.6128
G01 X13.8255 Y30.6098
G01 X13.8631 Y30.6042
G01 X13.8762 Y30.6029
G01 X13.8893 Y30.6028
G01 X13.9025 Y30.6040
G01 X13.9154 Y30.6063
G01 X13.9525 Y30.6150
G01 X13.9651 Y30.6185
G01 X13.9774 Y30.6233
G01 X13.9891 Y30.6291
G01 X14.0003 Y30.6361
G01 X14.0313 Y30.6574
G01 X14.0412 Y30.6650
G01 X14.0505 Y30.6734
G01 X14.1247 Y30.7471
G01 X14.1336 Y30.7568
G01 X14.1416 Y30.7674
G01 X14.1625 Y30.7979
G01 X14.1692 Y30.8088
G01 X14.1749 Y30.8202
G01 X14.1795 Y30.8321
G01 X14.1831 Y30.8444
G01 X14.1917 Y30.8804
G01 X14.1941 Y30.8928
G01 X14.1953 Y30.9053
G01 X14.1955 Y30.9179
G01 X14.1945 Y30.9305
G01 X14.1899 Y30.9671
G01 X14.1876 Y30.9800
G01 X14.1842 Y30.9928
G01 X14.1796 Y31.0051
G01 X14.1738 Y31.0169
G01 X14.1560 Y31.0494
G01 X14.1496 Y31.0600
G01 X14.1458 Y31.0652
G01 X14.1458 Y31.3298
G01 X14.1570 Y31.3389
G01 X14.2224 Y31.3982
G01 X14.2321 Y31.4080
G01 X14.2915 Y31.4734
G01 X14.3006 Y31.4846
G01 X14.5639 Y31.4846
G01 X14.5698 Y31.4802
G01 X14.5804 Y31.4738
G01 X14.6129 Y31.4560
G01 X14.6248 Y31.4503
G01 X14.6371 Y31.4456
G01 X14.6498 Y31.4422
G01 X14.6628 Y31.4399
G01 X14.6994 Y31.4354
G01 X14.7119 Y31.4344
G01 X14.7245 Y31.4345
G01 X14.7371 Y31.4358
G01 X14.7494 Y31.4381
G01 X14.7855 Y31.4468
G01 X14.7978 Y31.4503
G01 X14.8097 Y31.4550
G01 X14.8211 Y31.4607
G01 X14.8319 Y31.4674
G01 X14.8624 Y31.4882
G01 X14.8728 Y31.4961
G01 X14.8825 Y31.5048
G01 X22.2002 Y38.8231
G01 X22.2093 Y38.8331
G01 X22.2174 Y38.8440
G01 X22.2393 Y38.8766
G01 X22.2465 Y38.8885
G01 X22.2525 Y38.9012
G01 X22.2572 Y38.9143
G01 X22.2605 Y38.9279
G01 X22.2681 Y38.9670
G01 X22.2701 Y38.9804
G01 X22.2707 Y38.9938
G01 X22.2707 Y53.6512
G01 X22.2699 Y53.6665
G01 X22.2673 Y53.6817
G01 X22.2577 Y53.7249
G01 X22.2544 Y53.7369
G01 X22.2501 Y53.7486
G01 X22.2448 Y53.7599
G01 X22.2385 Y53.7706
G01 X22.2313 Y53.7807
G01 X22.2038 Y53.8158
G01 X22.1938 Y53.8273
G01 X22.1826 Y53.8376
G01 X22.1416 Y53.8714
G01 X21.6360 Y54.3775
G01 X21.6079 Y54.4115
G01 X21.5814 Y54.4607
G01 X21.5752 Y54.4711
G01 X21.5682 Y54.4810
G01 X21.5458 Y54.5094
G01 X21.5374 Y54.5192
G01 X21.5282 Y54.5281
G01 X21.5181 Y54.5361
G01 X21.5074 Y54.5432
G01 X21.4759 Y54.5620
G01 X21.4643 Y54.5682
G01 X21.4521 Y54.5733
G01 X21.4395 Y54.5773
G01 X21.4266 Y54.5800
G01 X21.3859 Y54.5866
G01 X21.3700 Y54.5883
G01 X21.3540 Y54.5881
G01 X21.3382 Y54.5861
G01 X21.3021 Y54.5795
G01 X21.2897 Y54.5766
G01 X21.2776 Y54.5727
G01 X21.2659 Y54.5676
G01 X21.2547 Y54.5615
G01 X21.2237 Y54.5427
G01 X21.2135 Y54.5359
G01 X21.2040 Y54.5283
G01 X21.1952 Y54.5198
G01 X21.1871 Y54.5106
G01 X21.1642 Y54.4822
G01 X21.1564 Y54.4714
G01 X21.1496 Y54.4599
G01 X21.1238 Y54.4111
G01 X21.0960 Y54.3776
G01 X20.5898 Y53.8713
G01 X20.5562 Y53.8436
G01 X20.5280 Y53.8286
G01 X20.4970 Y53.8192
G01 X20.4531 Y53.8147
G01 X19.7389 Y53.8147
G01 X19.6948 Y53.8192
G01 X19.6636 Y53.8286
G01 X19.6357 Y53.8435
G01 X19.6014 Y53.8716
G01 X19.4611 Y54.0119
G01 X19.4510 Y54.0210
G01 X19.4401 Y54.0292
G01 X19.4076 Y54.0510
G01 X19.3956 Y54.0582
G01 X19.3830 Y54.0642
G01 X19.3698 Y54.0689
G01 X19.3562 Y54.0722
G01 X19.3171 Y54.0799
G01 X19.3038 Y54.0818
G01 X19.2903 Y54.0824
G01 X19.2768 Y54.0818
G01 X19.2635 Y54.0799
G01 X19.2244 Y54.0722
G01 X19.2108 Y54.0689
G01 X19.1976 Y54.0642
G01 X19.1850 Y54.0582
G01 X19.1730 Y54.0510
G01 X19.1405 Y54.0292
G01 X19.1297 Y54.0211
G01 X19.1197 Y54.0121
G01 X19.1106 Y54.0021
G01 X19.1026 Y53.9914
G01 X19.0802 Y53.9583
G01 X19.0729 Y53.9463
G01 X19.0668 Y53.9335
G01 X19.0621 Y53.9203
G01 X19.0587 Y53.9066
G01 X19.0511 Y53.8674
G01 X19.0491 Y53.8541
G01 X19.0485 Y53.8406
G01 X19.0485 Y48.4046
G01 X19.0469 Y48.3673
G01 X19.0428 Y48.3358
G01 X19.0359 Y48.3049
G01 X19.0264 Y48.2747
G01 X19.0142 Y48.2453
G01 X18.9997 Y48.2174
G01 X18.9825 Y48.1907
G01 X18.9627 Y48.1649
G01 X18.9379 Y48.1376
G01 X18.3616 Y47.5613
G01 X18.3538 Y47.5529
G01 X18.3468 Y47.5439
G01 X18.3275 Y47.5170
G01 X18.3190 Y47.5036
G01 X18.3121 Y47.4893
G01 X18.3068 Y47.4744
G01 X18.2976 Y47.4429
G01 X18.2943 Y47.4286
G01 X18.2925 Y47.4141
G01 X18.2921 Y47.3994
G01 X18.2932 Y47.3664
G01 X18.2940 Y47.3550
G01 X18.2957 Y47.3437
G01 X18.3153 Y47.2438
G01 X18.3233 Y47.1244
G01 X18.3154 Y47.0051
G01 X18.2920 Y46.8879
G01 X18.2537 Y46.7747
G01 X18.2008 Y46.6673
G01 X18.1344 Y46.5678
G01 X18.0557 Y46.4781
G01 X17.9654 Y46.3992
G01 X17.8809 Y46.3428
G01 X17.8711 Y46.3356
G01 X17.8619 Y46.3275
G01 X17.8380 Y46.3046
G01 X17.8281 Y46.2941
G01 X17.8193 Y46.2827
G01 X17.8118 Y46.2704
G01 X17.7960 Y46.2414
G01 X17.7895 Y46.2275
G01 X17.7844 Y46.2131
G01 X17.7810 Y46.1981
G01 X17.7754 Y46.1656
G01 X17.7739 Y46.1538
G01 X17.7734 Y46.1419
G01 X17.7734 Y44.7485
G01 X17.7740 Y44.7361
G01 X17.7756 Y44.7238
G01 X17.7817 Y44.6897
G01 X17.7854 Y44.6743
G01 X17.7907 Y44.6595
G01 X17.7977 Y44.6453
G01 X17.8150 Y44.6148
G01 X17.8213 Y44.6047
G01 X17.8285 Y44.5951
G01 X19.0401 Y43.1153
G01 X19.0487 Y43.1058
G01 X19.0581 Y43.0970
G01 X19.0875 Y43.0721
G01 X19.0986 Y43.0637
G01 X19.1104 Y43.0564
G01 X19.1229 Y43.0503
G01 X19.1359 Y43.0455
G01 X19.1730 Y43.0338
G01 X19.1850 Y43.0306
G01 X19.1972 Y43.0285
G01 X19.2096 Y43.0275
G01 X19.2220 Y43.0275
G01 X19.2343 Y43.0287
G01 X19.4279 Y43.0555
G01 X19.5614 Y43.0582
G01 X19.6939 Y43.0447
G01 X19.8241 Y43.0154
G01 X19.9499 Y42.9703
G01 X20.0694 Y42.9108
G01 X20.1802 Y42.8374
G01 X20.2823 Y42.7507
G01 X20.3729 Y42.6529
G01 X20.4506 Y42.5451
G01 X20.5147 Y42.4277
G01 X20.5647 Y42.3042
G01 X20.5990 Y42.1753
G01 X20.6179 Y42.0431
G01 X20.6206 Y41.9099
G01 X20.6071 Y41.7774
G01 X20.5778 Y41.6470
G01 X20.5332 Y41.5213
G01 X20.4738 Y41.4025
G01 X20.3997 Y41.2910
G01 X20.3137 Y41.1892
G01 X20.2156 Y41.0992
G01 X20.1072 Y41.0211
G01 X19.9904 Y40.9566
G01 X19.8667 Y40.9066
G01 X19.7377 Y40.8724
G01 X19.6055 Y40.8534
G01 X19.4728 Y40.8507
G01 X19.3398 Y40.8642
G01 X19.2099 Y40.8935
G01 X19.0843 Y40.9381
G01 X18.9649 Y40.9981
G01 X18.8535 Y41.0715
G01 X18.7521 Y41.1581
G01 X18.6614 Y41.2560
G01 X18.5835 Y41.3641
G01 X18.5191 Y41.4807
G01 X18.4695 Y41.6047
G01 X18.4348 Y41.7336
G01 X18.4163 Y41.8656
G01 X18.4136 Y41.9993
G01 X18.4267 Y42.1318
G01 X18.4560 Y42.2621
G01 X18.5209 Y42.4464
G01 X18.5245 Y42.4583
G01 X18.5270 Y42.4705
G01 X18.5284 Y42.4829
G01 X18.5288 Y42.4954
G01 X18.5280 Y42.5078
G01 X18.5239 Y42.5459
G01 X18.5218 Y42.5593
G01 X18.5185 Y42.5724
G01 X18.5139 Y42.5852
G01 X18.5080 Y42.5974
G01 X18.4897 Y42.6314
G01 X18.4828 Y42.6430
G01 X18.4747 Y42.6539
G01 X17.1327 Y44.2928
G01 X17.0940 Y44.3488
G01 X17.0670 Y44.4073
G01 X17.0504 Y44.4688
G01 X17.0439 Y44.5423
G01 X17.0439 Y46.1419
G01 X17.0434 Y46.1538
G01 X17.0419 Y46.1657
G01 X17.0363 Y46.1982
G01 X17.0331 Y46.2122
G01 X17.0286 Y46.2258
G01 X17.0226 Y46.2388
G01 X17.0074 Y46.2683
G01 X17.0013 Y46.2790
G01 X16.9942 Y46.2891
G01 X16.9863 Y46.2985
G01 X16.9776 Y46.3072
G01 X16.9533 Y46.3296
G01 X16.9451 Y46.3365
G01 X16.9364 Y46.3428
G01 X16.8521 Y46.3991
G01 X16.7623 Y46.4780
G01 X16.6834 Y46.5678
G01 X16.6170 Y46.6673
G01 X16.5642 Y46.7747
G01 X16.5258 Y46.8879
G01 X16.5025 Y47.0051
G01 X16.4946 Y47.1244
G01 X16.5025 Y47.2437
G01 X16.5259 Y47.3614
G01 X16.5641 Y47.4745
G01 X16.6169 Y47.5814
G01 X16.6835 Y47.6811
G01 X16.7624 Y47.7714
G01 X16.8521 Y47.8501
G01 X16.9515 Y47.9165
G01 X17.0590 Y47.9694
G01 X17.1722 Y48.0077
G01 X17.2894 Y48.0311
G01 X17.4087 Y48.0390
G01 X17.5281 Y48.0310
G01 X17.6280 Y48.0114
G01 X17.6383 Y48.0098
G01 X17.6486 Y48.0090
G01 X17.6816 Y48.0074
G01 X17.6936 Y48.0074
G01 X17.7056 Y48.0084
G01 X17.7175 Y48.0104
G01 X17.7292 Y48.0134
G01 X17.7607 Y48.0231
G01 X17.7749 Y48.0283
G01 X17.7885 Y48.0350
G01 X17.8012 Y48.0432
G01 X17.8282 Y48.0625
G01 X17.8372 Y48.0695
G01 X17.8456 Y48.0773
G01 X18.2480 Y48.4796
G01 X18.2574 Y48.4901
G01 X18.2658 Y48.5014
G01 X18.2876 Y48.5345
G01 X18.2946 Y48.5462
G01 X18.3004 Y48.5585
G01 X18.3049 Y48.5714
G01 X18.3082 Y48.5846
G01 X18.3158 Y48.6232
G01 X18.3178 Y48.6368
G01 X18.3185 Y48.6504
G01 X18.3185 Y53.6029
G01 X18.3179 Y53.6152
G01 X18.3163 Y53.6275
G01 X18.3097 Y53.6645
G01 X18.3067 Y53.6779
G01 X18.3023 Y53.6908
G01 X18.2968 Y53.7033
G01 X18.2900 Y53.7151
G01 X18.2697 Y53.7471
G01 X18.2624 Y53.7576
G01 X18.2542 Y53.7673
G01 X18.2451 Y53.7763
G01 X18.2352 Y53.7844
G01 X18.2052 Y53.8067
G01 X18.1941 Y53.8142
G01 X18.1823 Y53.8206
G01 X18.1700 Y53.8259
G01 X18.1572 Y53.8299
G01 X18.1206 Y53.8396
G01 X18.1080 Y53.8423
G01 X18.0953 Y53.8438
G01 X18.0825 Y53.8442
G01 X18.0697 Y53.8434
G01 X18.0321 Y53.8393
G01 X18.0194 Y53.8373
G01 X18.0068 Y53.8342
G01 X17.9572 Y53.8192
G01 X17.9131 Y53.8147
G01 X17.1989 Y53.8147
G01 X17.1548 Y53.8192
G01 X17.1236 Y53.8286
G01 X17.0957 Y53.8435
G01 X17.0614 Y53.8715
G01 X16.5560 Y54.3775
G01 X16.5279 Y54.4115
G01 X16.5017 Y54.4603
G01 X16.5024 Y54.4723
G01 X16.5018 Y54.4863
G01 X16.4993 Y54.5135
G01 X16.4993 Y55.2293
G01 X16.5018 Y55.2565
G01 X16.5024 Y55.2719
G01 X16.5016 Y55.2823
G01 X16.5280 Y55.3316
G01 X16.5562 Y55.3659
G01 X17.0616 Y55.8714
G01 X17.1026 Y55.9052
G01 X17.1138 Y55.9155
G01 X17.1238 Y55.9270
G01 X17.1513 Y55.9620
G01 X17.1585 Y55.9722
G01 X17.1649 Y55.9830
G01 X17.1702 Y55.9943
G01 X17.1745 Y56.0061
G01 X17.1778 Y56.0182
G01 X17.1874 Y56.0619
G01 X17.1899 Y56.0769
G01 X17.1907 Y56.0921
G01 X17.1907 Y56.4690
G01 X17.1923 Y56.5055
G01 X17.1967 Y56.5370
G01 X17.2038 Y56.5686
G01 X17.2134 Y56.5988
G01 X17.2255 Y56.6283
G01 X17.2403 Y56.6568
G01 X17.2571 Y56.6834
G01 X17.2762 Y56.7082
G01 X17.3014 Y56.7356
G01 X17.8496 Y57.2837
G01 X17.8880 Y57.3182
G01 X17.9001 Y57.3273
G01 X17.9411 Y57.3525
G01 X17.9554 Y57.3598
G01 X17.9996 Y57.3775
G01 X18.0147 Y57.3820
G01 X18.0611 Y57.3916
G01 X18.0766 Y57.3933
G01 X18.1289 Y57.3951
G01 X18.6846 Y57.3801
G01 X18.7455 Y57.3741
G01 X18.8083 Y57.3573
G01 X18.8651 Y57.3308
G01 X18.9175 Y57.2939
G01 X18.9626 Y57.2491
G01 X18.9986 Y57.1974
G01 X19.0255 Y57.1397
G01 X19.0420 Y57.0784
G01 X19.0485 Y57.0049
G01 X19.0485 Y56.8749
G01 X19.0492 Y56.8613
G01 X19.0512 Y56.8478
G01 X19.0588 Y56.8092
G01 X19.0622 Y56.7956
G01 X19.0669 Y56.7824
G01 X19.0729 Y56.7697
G01 X19.0802 Y56.7577
G01 X19.1026 Y56.7247
G01 X19.1106 Y56.7139
G01 X19.1197 Y56.7040
G01 X19.1297 Y56.6950
G01 X19.1405 Y56.6869
G01 X19.1730 Y56.6651
G01 X19.1846 Y56.6581
G01 X19.1968 Y56.6522
G01 X19.2095 Y56.6476
G01 X19.2227 Y56.6442
G01 X19.2618 Y56.6361
G01 X19.2760 Y56.6339
G01 X19.2903 Y56.6331
G01 X19.5905 Y56.6331
G01 X19.6049 Y56.6339
G01 X19.6190 Y56.6361
G01 X19.6582 Y56.6442
G01 X19.6713 Y56.6476
G01 X19.6840 Y56.6522
G01 X19.6962 Y56.6581
G01 X19.7078 Y56.6651
G01 X19.7404 Y56.6869
G01 X19.7512 Y56.6950
G01 X19.7612 Y56.7041
G01 X20.3425 Y57.2849
G01 X20.3699 Y57.3102
G01 X20.3947 Y57.3292
G01 X20.4213 Y57.3460
G01 X20.4498 Y57.3608
G01 X20.4793 Y57.3730
G01 X20.5095 Y57.3826
G01 X20.5411 Y57.3896
G01 X20.5718 Y57.3939
G01 X20.6083 Y57.3951
G01 X21.8440 Y57.3951
G01 X21.8585 Y57.3959
G01 X21.8729 Y57.3981
G01 X21.9115 Y57.4063
G01 X21.9243 Y57.4096
G01 X21.9367 Y57.4141
G01 X21.9486 Y57.4198
G01 X21.9600 Y57.4265
G01 X21.9930 Y57.4484
G01 X22.0041 Y57.4565
G01 X22.0143 Y57.4656
G01 X22.0235 Y57.4758
G01 X22.0317 Y57.4867
G01 X22.0541 Y57.5197
G01 X22.0614 Y57.5317
G01 X22.0674 Y57.5444
G01 X22.0721 Y57.5576
G01 X22.0755 Y57.5712
G01 X22.0832 Y57.6098
G01 X22.0851 Y57.6232
G01 X22.0858 Y57.6367
G01 X22.0852 Y57.6503
G01 X22.0832 Y57.6637
G01 X22.0756 Y57.7028
G01 X22.0722 Y57.7165
G01 X22.0675 Y57.7298
G01 X22.0614 Y57.7426
G01 X22.0541 Y57.7546
G01 X22.0317 Y57.7876
G01 X22.0238 Y57.7983
G01 X22.0148 Y57.8081
G01 X21.6360 Y58.1875
G01 X21.6078 Y58.2215
G01 X21.5926 Y58.2499
G01 X21.5835 Y58.2798
G01 X21.5793 Y58.3237
G01 X21.5793 Y59.0390
G01 X21.5835 Y59.0831
G01 X21.5926 Y59.1133
G01 X21.6078 Y59.1413
G01 X21.6362 Y59.1759
G01 X22.1414 Y59.6812
G01 X22.1758 Y59.7093
G01 X22.2253 Y59.7359
G01 X22.2357 Y59.7421
G01 X22.2456 Y59.7492
G01 X22.2741 Y59.7716
G01 X22.2838 Y59.7799
G01 X22.2927 Y59.7892
G01 X22.3007 Y59.7992
G01 X22.3078 Y59.8099
G01 X22.3266 Y59.8414
G01 X22.3330 Y59.8534
G01 X22.3382 Y59.8661
G01 X22.3422 Y59.8791
G01 X22.3449 Y59.8925
G01 X22.3510 Y59.9331
G01 X22.3524 Y59.9478
G01 X22.3522 Y59.9626
G01 X22.3506 Y59.9773
G01 X22.3445 Y60.0133
G01 X22.3416 Y60.0263
G01 X22.3376 Y60.0389
G01 X22.3324 Y60.0511
G01 X22.3261 Y60.0627
G01 X22.3073 Y60.0937
G01 X22.3005 Y60.1038
G01 X22.2929 Y60.1134
G01 X22.2844 Y60.1222
G01 X22.2752 Y60.1303
G01 X22.2468 Y60.1531
G01 X22.2360 Y60.1610
G01 X22.2245 Y60.1678
G01 X22.1754 Y60.1937
G01 X22.1414 Y60.2215
G01 X21.6360 Y60.7275
G01 X21.6078 Y60.7615
G01 X21.5926 Y60.7899
G01 X21.5835 Y60.8198
G01 X21.5793 Y60.8637
G01 X21.5793 Y61.5790
G01 X21.5835 Y61.6231
G01 X21.5926 Y61.6533
G01 X21.6078 Y61.6813
G01 X21.6362 Y61.7159
G01 X22.1414 Y62.2212
G01 X22.1761 Y62.2495
G01 X22.2041 Y62.2648
G01 X22.2343 Y62.2739
G01 X22.2784 Y62.2780
G01 X22.9936 Y62.2780
G01 X23.0375 Y62.2739
G01 X23.0675 Y62.2648
G01 X23.0958 Y62.2495
G01 X23.1298 Y62.2214
G01 X23.6358 Y61.7159
G01 X23.6636 Y61.6819
G01 X23.6896 Y61.6328
G01 X23.6964 Y61.6213
G01 X23.7043 Y61.6105
G01 X23.7271 Y61.5821
G01 X23.7352 Y61.5729
G01 X23.7440 Y61.5645
G01 X23.7535 Y61.5569
G01 X23.7637 Y61.5501
G01 X23.7947 Y61.5313
G01 X23.8069 Y61.5246
G01 X23.8198 Y61.5193
G01 X23.8331 Y61.5152
G01 X23.8468 Y61.5125
G01 X23.8880 Y61.5064
G01 X23.9027 Y61.5050
G01 X23.9175 Y61.5051
G01 X23.9322 Y61.5069
G01 X23.9678 Y61.5130
G01 X23.9804 Y61.5157
G01 X23.9927 Y61.5196
G01 X24.0046 Y61.5247
G01 X24.0159 Y61.5308
G01 X24.0474 Y61.5496
G01 X24.0581 Y61.5566
G01 X24.0682 Y61.5647
G01 X24.0774 Y61.5736
G01 X24.0858 Y61.5833
G01 X24.1082 Y61.6118
G01 X24.1152 Y61.6216
G01 X24.1214 Y61.6320
G01 X24.1480 Y61.6816
G01 X24.1762 Y61.7159
G01 X24.6814 Y62.2212
G01 X24.7161 Y62.2495
G01 X24.7441 Y62.2648
G01 X24.7743 Y62.2739
G01 X24.8184 Y62.2780
G01 X25.5336 Y62.2780
G01 X25.5775 Y62.2739
G01 X25.6075 Y62.2648
G01 X25.6358 Y62.2495
G01 X25.6698 Y62.2214
G01 X26.1758 Y61.7159
G01 X26.2036 Y61.6819
G01 X26.2296 Y61.6328
G01 X26.2364 Y61.6213
G01 X26.2443 Y61.6105
G01 X26.2671 Y61.5821
G01 X26.2752 Y61.5729
G01 X26.2840 Y61.5645
G01 X26.2935 Y61.5569
G01 X26.3037 Y61.5501
G01 X26.3347 Y61.5313
G01 X26.3469 Y61.5246
G01 X26.3598 Y61.5193
G01 X26.3731 Y61.5152
G01 X26.3868 Y61.5125
G01 X26.4280 Y61.5064
G01 X26.4427 Y61.5050
G01 X26.4575 Y61.5051
G01 X26.4722 Y61.5069
G01 X26.5078 Y61.5130
G01 X26.5204 Y61.5157
G01 X26.5327 Y61.5196
G01 X26.5446 Y61.5247
G01 X26.5559 Y61.5308
G01 X26.5874 Y61.5496
G01 X26.5981 Y61.5566
G01 X26.6082 Y61.5647
G01 X26.6174 Y61.5736
G01 X26.6258 Y61.5833
G01 X26.6482 Y61.6118
G01 X26.6552 Y61.6216
G01 X26.6614 Y61.6320
G01 X26.6880 Y61.6816
G01 X26.7162 Y61.7159
G01 X27.2214 Y62.2212
G01 X27.2561 Y62.2495
G01 X27.2841 Y62.2648
G01 X27.3143 Y62.2739
G01 X27.3584 Y62.2780
G01 X28.0736 Y62.2780
G01 X28.1175 Y62.2739
G01 X28.1475 Y62.2648
G01 X28.1758 Y62.2495
G01 X28.2098 Y62.2214
G01 X28.7158 Y61.7159
G01 X28.7438 Y61.6817
G01 X28.7587 Y61.6538
G01 X28.7681 Y61.6225
G01 X28.7726 Y61.5785
G01 X28.7726 Y60.8643
G01 X28.7681 Y60.8204
G01 X28.7587 Y60.7893
G01 X28.7438 Y60.7611
G01 X28.7160 Y60.7276
G01 X28.2098 Y60.2213
G01 X28.1762 Y60.1936
G01 X28.1274 Y60.1678
G01 X28.1160 Y60.1610
G01 X28.1052 Y60.1531
G01 X28.0767 Y60.1303
G01 X28.0676 Y60.1222
G01 X28.0591 Y60.1134
G01 X28.0515 Y60.1038
G01 X28.0447 Y60.0937
G01 X28.0259 Y60.0627
G01 X28.0194 Y60.0508
G01 X28.0142 Y60.0383
G01 X28.0101 Y60.0254
G01 X28.0073 Y60.0122
G01 X28.0007 Y59.9710
G01 X27.9991 Y59.9551
G01 X27.9993 Y59.9391
G01 X28.0013 Y59.9232
G01 X28.0079 Y59.8877
G01 X28.0107 Y59.8756
G01 X28.0146 Y59.8638
G01 X28.0195 Y59.8523
G01 X28.0254 Y59.8414
G01 X28.0442 Y59.8099
G01 X28.0513 Y59.7992
G01 X28.0593 Y59.7892
G01 X28.0682 Y59.7799
G01 X28.0779 Y59.7716
G01 X28.1064 Y59.7492
G01 X28.1162 Y59.7421
G01 X28.1266 Y59.7359
G01 X28.1759 Y59.7095
G01 X28.2098 Y59.6814
G01 X28.7158 Y59.1759
G01 X28.7438 Y59.1417
G01 X28.7587 Y59.1138
G01 X28.7681 Y59.0825
G01 X28.7726 Y59.0385
G01 X28.7726 Y58.3243
G01 X28.7681 Y58.2804
G01 X28.7587 Y58.2493
G01 X28.7438 Y58.2211
G01 X28.7160 Y58.1876
G01 X28.3367 Y57.8082
G01 X28.3272 Y57.7977
G01 X28.3189 Y57.7864
G01 X28.2970 Y57.7534
G01 X28.2900 Y57.7416
G01 X28.2842 Y57.7291
G01 X28.2796 Y57.7162
G01 X28.2764 Y57.7028
G01 X28.2687 Y57.6637
G01 X28.2668 Y57.6503
G01 X28.2662 Y57.6367
G01 X28.2668 Y57.6232
G01 X28.2688 Y57.6098
G01 X28.2764 Y57.5712
G01 X28.2797 Y57.5579
G01 X28.2843 Y57.5451
G01 X28.2901 Y57.5327
G01 X28.2970 Y57.5210
G01 X28.3189 Y57.4880
G01 X28.3272 Y57.4766
G01 X28.3367 Y57.4662
G01 X28.3471 Y57.4567
G01 X28.3585 Y57.4484
G01 X28.3915 Y57.4265
G01 X28.4029 Y57.4197
G01 X28.4149 Y57.4140
G01 X28.4274 Y57.4095
G01 X28.4403 Y57.4062
G01 X28.4794 Y57.3981
G01 X28.4936 Y57.3959
G01 X28.5080 Y57.3951
G01 X55.5163 Y57.3951
G01 X55.5306 Y57.3959
G01 X55.5448 Y57.3981
G01 X55.5839 Y57.4062
G01 X55.5971 Y57.4096
G01 X55.6098 Y57.4142
G01 X55.6220 Y57.4201
G01 X55.6336 Y57.4271
G01 X55.6661 Y57.4489
G01 X55.6770 Y57.4570
G01 X55.6870 Y57.4662
G01 X62.5075 Y64.2866
G01 X62.5166 Y64.2966
G01 X62.5247 Y64.3075
G01 X62.5465 Y64.3401
G01 X62.5538 Y64.3520
G01 X62.5597 Y64.3647
G01 X62.5644 Y64.3778
G01 X62.5678 Y64.3914
G01 X62.5754 Y64.4305
G01 X62.5773 Y64.4439
G01 X62.5780 Y64.4573
G01 X62.5780 Y69.5048
G01 X62.5773 Y69.5183
G01 X62.5754 Y69.5316
G01 X62.5678 Y69.5707
G01 X62.5644 Y69.5843
G01 X62.5597 Y69.5975
G01 X62.5537 Y69.6101
G01 X62.5465 Y69.6221
G01 X62.5247 Y69.6546
G01 X62.5167 Y69.6654
G01 X62.5076 Y69.6754
G01 X62.4977 Y69.6845
G01 X62.4869 Y69.6926
G01 X62.4539 Y69.7149
G01 X62.4418 Y69.7222
G01 X62.4291 Y69.7283
G01 X62.4158 Y69.7330
G01 X62.4021 Y69.7364
G01 X62.3630 Y69.7440
G01 X62.3496 Y69.7460
G01 X62.3362 Y69.7466
G01 X61.9562 Y69.7466
G01 X61.9408 Y69.7458
G01 X61.9256 Y69.7432
G01 X61.8824 Y69.7336
G01 X61.8704 Y69.7303
G01 X61.8587 Y69.7260
G01 X61.8475 Y69.7207
G01 X61.8368 Y69.7144
G01 X61.8266 Y69.7072
G01 X61.7916 Y69.6797
G01 X61.7801 Y69.6697
G01 X61.7698 Y69.6585
G01 X61.7360 Y69.6175
G01 X61.2298 Y69.1113
G01 X61.1962 Y69.0836
G01 X61.1680 Y69.0686
G01 X61.1370 Y69.0592
G01 X61.0931 Y69.0547
G01 X60.3789 Y69.0547
G01 X60.3348 Y69.0592
G01 X60.3036 Y69.0686
G01 X60.2757 Y69.0835
G01 X60.2414 Y69.1115
G01 X59.7360 Y69.6175
G01 X59.7079 Y69.6515
G01 X59.6817 Y69.7003
G01 X59.6824 Y69.7123
G01 X59.6818 Y69.7263
G01 X59.6793 Y69.7535
G01 X59.6793 Y70.4693
G01 X59.6818 Y70.4965
G01 X59.6824 Y70.5119
G01 X59.6816 Y70.5223
G01 X59.7080 Y70.5716
G01 X59.7362 Y70.6059
G01 X60.2414 Y71.1112
G01 X60.2761 Y71.1395
G01 X60.3041 Y71.1548
G01 X60.3343 Y71.1639
G01 X60.3784 Y71.1680
G01 X61.0936 Y71.1680
G01 X61.1375 Y71.1639
G01 X61.1675 Y71.1548
G01 X61.1958 Y71.1395
G01 X61.2298 Y71.1114
G01 X61.7360 Y70.6057
G01 X61.7698 Y70.5647
G01 X61.7801 Y70.5535
G01 X61.7915 Y70.5435
G01 X61.8266 Y70.5161
G01 X61.8390 Y70.5074
G01 X61.8523 Y70.5001
G01 X61.8663 Y70.4943
G01 X61.8809 Y70.4900
G01 X61.9241 Y70.4798
G01 X61.9400 Y70.4771
G01 X61.9562 Y70.4761
G01 X62.9329 Y70.4761
G01 X63.0065 Y70.4700
G01 X63.0677 Y70.4536
G01 X63.1246 Y70.4270
G01 X63.1770 Y70.3901
G01 X63.2221 Y70.3454
G01 X63.2581 Y70.2937
G01 X63.2850 Y70.2359
G01 X63.3015 Y70.1747
G01 X63.3080 Y70.1011
G01 X63.3080 Y64.2115
G01 X63.3064 Y64.1742
G01 X63.3023 Y64.1427
G01 X63.2954 Y64.1116
G01 X63.2858 Y64.0809
G01 X63.2737 Y64.0517
G01 X63.2592 Y64.0238
G01 X63.2420 Y63.9971
G01 X63.2222 Y63.9713
G01 X63.1974 Y63.9440
G01 X56.0296 Y56.7762
G01 X56.0023 Y56.7514
G01 X55.9765 Y56.7316
G01 X55.9498 Y56.7144
G01 X55.9220 Y56.6999
G01 X55.8927 Y56.6879
G01 X55.8620 Y56.6782
G01 X55.8309 Y56.6713
G01 X55.7994 Y56.6673
G01 X55.7621 Y56.6656
G01 X20.8549 Y56.6656
G01 X20.8413 Y56.6650
G01 X20.8278 Y56.6630
G01 X20.7892 Y56.6553
G01 X20.7756 Y56.6519
G01 X20.7624 Y56.6472
G01 X20.7497 Y56.6412
G01 X20.7377 Y56.6339
G01 X20.7047 Y56.6116
G01 X20.6941 Y56.6036
G01 X20.6843 Y56.5947
G01 X20.4110 Y56.3219
G01 X20.4007 Y56.3105
G01 X20.3918 Y56.2980
G01 X20.3694 Y56.2630
G01 X20.3626 Y56.2510
G01 X20.3570 Y56.2384
G01 X20.3526 Y56.2252
G01 X20.3495 Y56.2118
G01 X20.3424 Y56.1711
G01 X20.3407 Y56.1566
G01 X20.3404 Y56.1419
G01 X20.3417 Y56.1273
G01 X20.3445 Y56.1130
G01 X20.3547 Y56.0723
G01 X20.3589 Y56.0586
G01 X20.3645 Y56.0453
G01 X20.3714 Y56.0327
G01 X20.3796 Y56.0208
G01 X20.4050 Y55.9878
G01 X20.4145 Y55.9767
G01 X20.4252 Y55.9666
G01 X20.4368 Y55.9577
G01 X20.4493 Y55.9500
G01 X20.4859 Y55.9302
G01 X20.4990 Y55.9240
G01 X20.5126 Y55.9191
G01 X20.5278 Y55.9146
G01 X20.5558 Y55.8995
G01 X20.5898 Y55.8714
G01 X21.0958 Y55.3659
G01 X21.1236 Y55.3319
G01 X21.1496 Y55.2828
G01 X21.1564 Y55.2713
G01 X21.1643 Y55.2605
G01 X21.1871 Y55.2321
G01 X21.1952 Y55.2229
G01 X21.2040 Y55.2145
G01 X21.2135 Y55.2069
G01 X21.2237 Y55.2001
G01 X21.2547 Y55.1813
G01 X21.2669 Y55.1746
G01 X21.2798 Y55.1693
G01 X21.2931 Y55.1652
G01 X21.3068 Y55.1625
G01 X21.3480 Y55.1564
G01 X21.3627 Y55.1550
G01 X21.3775 Y55.1551
G01 X21.3922 Y55.1569
G01 X21.4278 Y55.1630
G01 X21.4404 Y55.1657
G01 X21.4527 Y55.1696
G01 X21.4646 Y55.1747
G01 X21.4759 Y55.1808
G01 X21.5074 Y55.1996
G01 X21.5181 Y55.2066
G01 X21.5282 Y55.2147
G01 X21.5374 Y55.2236
G01 X21.5458 Y55.2333
G01 X21.5682 Y55.2618
G01 X21.5752 Y55.2716
G01 X21.5814 Y55.2820
G01 X21.6080 Y55.3316
G01 X21.6362 Y55.3659
G01 X22.1414 Y55.8712
G01 X22.1761 Y55.8995
G01 X22.2041 Y55.9148
G01 X22.2343 Y55.9239
G01 X22.2784 Y55.9280
G01 X22.9936 Y55.9280
G01 X23.0375 Y55.9239
G01 X23.0675 Y55.9148
G01 X23.0958 Y55.8995
G01 X23.1298 Y55.8714
G01 X23.6358 Y55.3659
G01 X23.6636 Y55.3319
G01 X23.6896 Y55.2828
G01 X23.6964 Y55.2713
G01 X23.7043 Y55.2605
G01 X23.7271 Y55.2321
G01 X23.7352 Y55.2229
G01 X23.7440 Y55.2145
G01 X23.7535 Y55.2069
G01 X23.7637 Y55.2001
G01 X23.7947 Y55.1813
G01 X23.8069 Y55.1746
G01 X23.8198 Y55.1693
G01 X23.8331 Y55.1652
G01 X23.8468 Y55.1625
G01 X23.8880 Y55.1564
G01 X23.9027 Y55.1550
G01 X23.9175 Y55.1551
G01 X23.9322 Y55.1569
G01 X23.9678 Y55.1630
G01 X23.9804 Y55.1657
G01 X23.9927 Y55.1696
G01 X24.0046 Y55.1747
G01 X24.0159 Y55.1808
G01 X24.0474 Y55.1996
G01 X24.0581 Y55.2066
G01 X24.0682 Y55.2147
G01 X24.0774 Y55.2236
G01 X24.0858 Y55.2333
G01 X24.1082 Y55.2618
G01 X24.1152 Y55.2716
G01 X24.1214 Y55.2820
G01 X24.1480 Y55.3316
G01 X24.1762 Y55.3659
G01 X24.6814 Y55.8712
G01 X24.7161 Y55.8995
G01 X24.7441 Y55.9148
G01 X24.7743 Y55.9239
G01 X24.8184 Y55.9280
G01 X25.5336 Y55.9280
G01 X25.5775 Y55.9239
G01 X25.6075 Y55.9148
G01 X25.6358 Y55.8995
G01 X25.6698 Y55.8714
G01 X26.1758 Y55.3659
G01 X26.2036 Y55.3319
G01 X26.2296 Y55.2828
G01 X26.2364 Y55.2713
G01 X26.2443 Y55.2605
G01 X26.2671 Y55.2321
G01 X26.2752 Y55.2229
G01 X26.2840 Y55.2145
G01 X26.2935 Y55.2069
G01 X26.3037 Y55.2001
G01 X26.3347 Y55.1813
G01 X26.3469 Y55.1746
G01 X26.3598 Y55.1693
G01 X26.3731 Y55.1652
G01 X26.3868 Y55.1625
G01 X26.4280 Y55.1564
G01 X26.4427 Y55.1550
G01 X26.4575 Y55.1551
G01 X26.4722 Y55.1569
G01 X26.5078 Y55.1630
G01 X26.5204 Y55.1657
G01 X26.5327 Y55.1696
G01 X26.5446 Y55.1747
G01 X26.5559 Y55.1808
G01 X26.5874 Y55.1996
G01 X26.5981 Y55.2066
G01 X26.6082 Y55.2147
G01 X26.6174 Y55.2236
G01 X26.6258 Y55.2333
G01 X26.6482 Y55.2618
G01 X26.6552 Y55.2716
G01 X26.6614 Y55.2820
G01 X26.6880 Y55.3316
G01 X26.7162 Y55.3659
G01 X27.2214 Y55.8712
G01 X27.2561 Y55.8995
G01 X27.2841 Y55.9148
G01 X27.3143 Y55.9239
G01 X27.3584 Y55.9280
G01 X28.0736 Y55.9280
G01 X28.1175 Y55.9239
G01 X28.1475 Y55.9148
G01 X28.1758 Y55.8995
G01 X28.2098 Y55.8714
G01 X28.7158 Y55.3659
G01 X28.7436 Y55.3319
G01 X28.7696 Y55.2828
G01 X28.7764 Y55.2713
G01 X28.7843 Y55.2605
G01 X28.8071 Y55.2321
G01 X28.8152 Y55.2229
G01 X28.8240 Y55.2145
G01 X28.8335 Y55.2069
G01 X28.8437 Y55.2001
G01 X28.8747 Y55.1813
G01 X28.8869 Y55.1746
G01 X28.8998 Y55.1693
G01 X28.9131 Y55.1652
G01 X28.9268 Y55.1625
G01 X28.9680 Y55.1564
G01 X28.9827 Y55.1550
G01 X28.9975 Y55.1551
G01 X29.0122 Y55.1569
G01 X29.0478 Y55.1630
G01 X29.0604 Y55.1657
G01 X29.0727 Y55.1696
G01 X29.0846 Y55.1747
G01 X29.0959 Y55.1808
G01 X29.1274 Y55.1996
G01 X29.1381 Y55.2066
G01 X29.1482 Y55.2147
G01 X29.1574 Y55.2236
G01 X29.1658 Y55.2333
G01 X29.1882 Y55.2618
G01 X29.1952 Y55.2716
G01 X29.2014 Y55.2820
G01 X29.2280 Y55.3316
G01 X29.2562 Y55.3659
G01 X29.7614 Y55.8712
G01 X29.7961 Y55.8995
G01 X29.8241 Y55.9148
G01 X29.8543 Y55.9239
G01 X29.8984 Y55.9280
G01 X30.6136 Y55.9280
G01 X30.6575 Y55.9239
G01 X30.6875 Y55.9148
G01 X30.7158 Y55.8995
G01 X30.7498 Y55.8714
G01 X31.2558 Y55.3659
G01 X31.2836 Y55.3319
G01 X31.3096 Y55.2828
G01 X31.3164 Y55.2713
G01 X31.3243 Y55.2605
G01 X31.3471 Y55.2321
G01 X31.3552 Y55.2229
G01 X31.3640 Y55.2145
G01 X31.3735 Y55.2069
G01 X31.3837 Y55.2001
G01 X31.4147 Y55.1813
G01 X31.4269 Y55.1746
G01 X31.4398 Y55.1693
G01 X31.4531 Y55.1652
G01 X31.4668 Y55.1625
G01 X31.5080 Y55.1564
G01 X31.5227 Y55.1550
G01 X31.5375 Y55.1551
G01 X31.5522 Y55.1569
G01 X31.5878 Y55.1630
G01 X31.6004 Y55.1657
G01 X31.6127 Y55.1696
G01 X31.6246 Y55.1747
G01 X31.6359 Y55.1808
G01 X31.6674 Y55.1996
G01 X31.6781 Y55.2066
G01 X31.6882 Y55.2147
G01 X31.6974 Y55.2236
G01 X31.7058 Y55.2333
G01 X31.7282 Y55.2618
G01 X31.7352 Y55.2716
G01 X31.7414 Y55.2820
G01 X31.7680 Y55.3316
G01 X31.7962 Y55.3659
G01 X32.3014 Y55.8712
G01 X32.3361 Y55.8995
G01 X32.3641 Y55.9148
G01 X32.3943 Y55.9239
G01 X32.4384 Y55.9280
G01 X33.1536 Y55.9280
G01 X33.1975 Y55.9239
G01 X33.2275 Y55.9148
G01 X33.2558 Y55.8995
G01 X33.2898 Y55.8714
G01 X33.7958 Y55.3659
G01 X33.8236 Y55.3319
G01 X33.8496 Y55.2828
G01 X33.8564 Y55.2713
G01 X33.8643 Y55.2605
G01 X33.8871 Y55.2321
G01 X33.8952 Y55.2229
G01 X33.9040 Y55.2145
G01 X33.9135 Y55.2069
G01 X33.9237 Y55.2001
G01 X33.9547 Y55.1813
G01 X33.9669 Y55.1746
G01 X33.9798 Y55.1693
G01 X33.9931 Y55.1652
G01 X34.0068 Y55.1625
G01 X34.0480 Y55.1564
G01 X34.0627 Y55.1550
G01 X34.0775 Y55.1551
G01 X34.0922 Y55.1569
G01 X34.1278 Y55.1630
G01 X34.1404 Y55.1657
G01 X34.1527 Y55.1696
G01 X34.1646 Y55.1747
G01 X34.1759 Y55.1808
G01 X34.2074 Y55.1996
G01 X34.2181 Y55.2066
G01 X34.2282 Y55.2147
G01 X34.2374 Y55.2236
G01 X34.2458 Y55.2333
G01 X34.2682 Y55.2618
G01 X34.2752 Y55.2716
G01 X34.2814 Y55.2820
G01 X34.3080 Y55.3316
G01 X34.3362 Y55.3659
G01 X34.8414 Y55.8712
G01 X34.8761 Y55.8995
G01 X34.9041 Y55.9148
G01 X34.9343 Y55.9239
G01 X34.9784 Y55.9280
G01 X35.6936 Y55.9280
G01 X35.7375 Y55.9239
G01 X35.7675 Y55.9148
G01 X35.7958 Y55.8995
G01 X35.8298 Y55.8714
G01 X36.3358 Y55.3659
G01 X36.3636 Y55.3319
G01 X36.3896 Y55.2828
G01 X36.3964 Y55.2713
G01 X36.4043 Y55.2605
G01 X36.4271 Y55.2321
G01 X36.4352 Y55.2229
G01 X36.4440 Y55.2145
G01 X36.4535 Y55.2069
G01 X36.4637 Y55.2001
G01 X36.4947 Y55.1813
G01 X36.5069 Y55.1746
G01 X36.5198 Y55.1693
G01 X36.5331 Y55.1652
G01 X36.5468 Y55.1625
G01 X36.5880 Y55.1564
G01 X36.6027 Y55.1550
G01 X36.6175 Y55.1551
G01 X36.6322 Y55.1569
G01 X36.6678 Y55.1630
G01 X36.6804 Y55.1657
G01 X36.6927 Y55.1696
G01 X36.7046 Y55.1747
G01 X36.7159 Y55.1808
G01 X36.7474 Y55.1996
G01 X36.7581 Y55.2066
G01 X36.7682 Y55.2147
G01 X36.7774 Y55.2236
G01 X36.7858 Y55.2333
G01 X36.8082 Y55.2618
G01 X36.8152 Y55.2716
G01 X36.8214 Y55.2820
G01 X36.8480 Y55.3316
G01 X36.8762 Y55.3659
G01 X37.3814 Y55.8712
G01 X37.4161 Y55.8995
G01 X37.4441 Y55.9148
G01 X37.4743 Y55.9239
G01 X37.5184 Y55.9280
G01 X38.2336 Y55.9280
G01 X38.2775 Y55.9239
G01 X38.3075 Y55.9148
G01 X38.3358 Y55.8995
G01 X38.3698 Y55.8714
G01 X38.8758 Y55.3659
G01 X38.9036 Y55.3319
G01 X38.9296 Y55.2828
G01 X38.9364 Y55.2713
G01 X38.9443 Y55.2605
G01 X38.9671 Y55.2321
G01 X38.9752 Y55.2229
G01 X38.9840 Y55.2145
G01 X38.9935 Y55.2069
G01 X39.0037 Y55.2001
G01 X39.0347 Y55.1813
G01 X39.0469 Y55.1746
G01 X39.0598 Y55.1693
G01 X39.0731 Y55.1652
G01 X39.0868 Y55.1625
G01 X39.1280 Y55.1564
G01 X39.1427 Y55.1550
G01 X39.1575 Y55.1551
G01 X39.1722 Y55.1569
G01 X39.2078 Y55.1630
G01 X39.2204 Y55.1657
G01 X39.2327 Y55.1696
G01 X39.2446 Y55.1747
G01 X39.2559 Y55.1808
G01 X39.2874 Y55.1996
G01 X39.2981 Y55.2066
G01 X39.3082 Y55.2147
G01 X39.3174 Y55.2236
G01 X39.3258 Y55.2333
G01 X39.3482 Y55.2618
G01 X39.3552 Y55.2716
G01 X39.3614 Y55.2820
G01 X39.3880 Y55.3316
G01 X39.4162 Y55.3659
G01 X39.9214 Y55.8712
G01 X39.9561 Y55.8995
G01 X39.9841 Y55.9148
G01 X40.0143 Y55.9239
G01 X40.0584 Y55.9280
G01 X40.7736 Y55.9280
G01 X40.8175 Y55.9239
G01 X40.8475 Y55.9148
G01 X40.8758 Y55.8995
G01 X40.9098 Y55.8714
G01 X41.4158 Y55.3659
G01 X41.4436 Y55.3319
G01 X41.4696 Y55.2828
G01 X41.4764 Y55.2713
G01 X41.4843 Y55.2605
G01 X41.5071 Y55.2321
G01 X41.5152 Y55.2229
G01 X41.5240 Y55.2145
G01 X41.5335 Y55.2069
G01 X41.5437 Y55.2001
G01 X41.5747 Y55.1813
G01 X41.5869 Y55.1746
G01 X41.5998 Y55.1693
G01 X41.6131 Y55.1652
G01 X41.6268 Y55.1625
G01 X41.6680 Y55.1564
G01 X41.6827 Y55.1550
G01 X41.6975 Y55.1551
G01 X41.7122 Y55.1569
G01 X41.7478 Y55.1630
G01 X41.7604 Y55.1657
G01 X41.7727 Y55.1696
G01 X41.7846 Y55.1747
G01 X41.7959 Y55.1808
G01 X41.8274 Y55.1996
G01 X41.8381 Y55.2066
G01 X41.8482 Y55.2147
G01 X41.8574 Y55.2236
G01 X41.8658 Y55.2333
G01 X41.8882 Y55.2618
G01 X41.8952 Y55.2716
G01 X41.9014 Y55.2820
G01 X41.9280 Y55.3316
G01 X41.9562 Y55.3659
G01 X42.4614 Y55.8712
G01 X42.4961 Y55.8995
G01 X42.5241 Y55.9148
G01 X42.5543 Y55.9239
G01 X42.5984 Y55.9280
G01 X43.3136 Y55.9280
G01 X43.3575 Y55.9239
G01 X43.3875 Y55.9148
G01 X43.4158 Y55.8995
G01 X43.4498 Y55.8714
G01 X43.9558 Y55.3659
G01 X43.9836 Y55.3319
G01 X44.0096 Y55.2828
G01 X44.0164 Y55.2713
G01 X44.0243 Y55.2605
G01 X44.0471 Y55.2321
G01 X44.0552 Y55.2229
G01 X44.0640 Y55.2145
G01 X44.0735 Y55.2069
G01 X44.0837 Y55.2001
G01 X44.1147 Y55.1813
G01 X44.1269 Y55.1746
G01 X44.1398 Y55.1693
G01 X44.1531 Y55.1652
G01 X44.1668 Y55.1625
G01 X44.2080 Y55.1564
G01 X44.2227 Y55.1550
G01 X44.2375 Y55.1551
G01 X44.2522 Y55.1569
G01 X44.2878 Y55.1630
G01 X44.3004 Y55.1657
G01 X44.3127 Y55.1696
G01 X44.3246 Y55.1747
G01 X44.3359 Y55.1808
G01 X44.3674 Y55.1996
G01 X44.3781 Y55.2066
G01 X44.3882 Y55.2147
G01 X44.3974 Y55.2236
G01 X44.4058 Y55.2333
G01 X44.4282 Y55.2618
G01 X44.4352 Y55.2716
G01 X44.4414 Y55.2820
G01 X44.4680 Y55.3316
G01 X44.4962 Y55.3659
G01 X45.0014 Y55.8712
G01 X45.0361 Y55.8995
G01 X45.0641 Y55.9148
G01 X45.0943 Y55.9239
G01 X45.1384 Y55.9280
G01 X45.8536 Y55.9280
G01 X45.8975 Y55.9239
G01 X45.9275 Y55.9148
G01 X45.9558 Y55.8995
G01 X45.9898 Y55.8714
G01 X46.4958 Y55.3659
G01 X46.5236 Y55.3319
G01 X46.5496 Y55.2828
G01 X46.5564 Y55.2713
G01 X46.5643 Y55.2605
G01 X46.5871 Y55.2321
G01 X46.5952 Y55.2229
G01 X46.6040 Y55.2145
G01 X46.6135 Y55.2069
G01 X46.6237 Y55.2001
G01 X46.6547 Y55.1813
G01 X46.6669 Y55.1746
G01 X46.6798 Y55.1693
G01 X46.6931 Y55.1652
G01 X46.7068 Y55.1625
G01 X46.7480 Y55.1564
G01 X46.7627 Y55.1550
G01 X46.7775 Y55.1551
G01 X46.7922 Y55.1569
G01 X46.8278 Y55.1630
G01 X46.8404 Y55.1657
G01 X46.8527 Y55.1696
G01 X46.8646 Y55.1747
G01 X46.8759 Y55.1808
G01 X46.9074 Y55.1996
G01 X46.9181 Y55.2066
G01 X46.9282 Y55.2147
G01 X46.9374 Y55.2236
G01 X46.9458 Y55.2333
G01 X46.9682 Y55.2618
G01 X46.9752 Y55.2716
G01 X46.9814 Y55.2820
G01 X47.0080 Y55.3316
G01 X47.0362 Y55.3659
G01 X47.5414 Y55.8712
G01 X47.5761 Y55.8995
G01 X47.6041 Y55.9148
G01 X47.6343 Y55.9239
