(G-CODE GENERATED BY FLATCAM v8.991 - www.flatcam.org - Version Date: 2019/12/27)

(Name: 1)
(Type: G-code from Geometry)
(Units: MM)

(Created on Sunday, 23 July 2023 at 20:42)

(TOOL DIAMETER: 0.8 mm)
(Feedrate: 120.0 mm/min)
(Feedrate_Z: 60.0 mm/min)
(Feedrate rapids 1500.0 mm/min)

(Z_Cut: -2.0 mm)
(Z_Move: 2.0 mm)
(Z Toolchange: 15.0 mm)
(X,Y Toolchange: 0.0000, 0.0000 mm)
(Z Start: None mm)
(Z End: 5.0 mm)
(Steps per circle: 64)
(Preprocessor Geometry: default)

(X range:   12.4753 ...   60.7365  mm)
(Y range:   54.8684 ...   70.1146  mm)

(Spindle Speed: None RPM)
G21
G90
G94

(Tool change)
M06

(Probing new tool)
G30

(Give chance for removing probing wires)
M06

(Zeroing Z-axis after probing)
G92 X0 Y0 Z0


G01 F120.00
G00 Z2.0000

M03
G00 X12.4765 Y54.8690
G01 F60.00
G01 Z-2.0000
G01 F120.00
G01 X12.4759 Y54.8684
G01 X12.4753 Y54.8689
G01 X12.4753 Y54.8741
G01 X12.4758 Y54.8746
G01 X12.4765 Y54.8741
G01 X12.4765 Y54.8690
G00 Z2.0000
G00 X15.0165 Y54.8690
G01 F60.00
G01 Z-2.0000
G01 F120.00
G01 X15.0159 Y54.8684
G01 X15.0153 Y54.8689
G01 X15.0153 Y54.8741
G01 X15.0158 Y54.8746
G01 X15.0165 Y54.8741
G01 X15.0165 Y54.8690
G00 Z2.0000
G00 X17.5565 Y54.8690
G01 F60.00
G01 Z-2.0000
G01 F120.00
G01 X17.5559 Y54.8684
G01 X17.5553 Y54.8689
G01 X17.5553 Y54.8741
G01 X17.5558 Y54.8746
G01 X17.5565 Y54.8741
G01 X17.5565 Y54.8690
G00 Z2.0000
G00 X20.0965 Y54.8690
G01 F60.00
G01 Z-2.0000
G01 F120.00
G01 X20.0959 Y54.8684
G01 X20.0953 Y54.8689
G01 X20.0953 Y54.8741
G01 X20.0958 Y54.8746
G01 X20.0965 Y54.8741
G01 X20.0965 Y54.8690
G00 Z2.0000
G00 X22.6365 Y54.8690
G01 F60.00
G01 Z-2.0000
G01 F120.00
G01 X22.6359 Y54.8684
G01 X22.6353 Y54.8689
G01 X22.6353 Y54.8741
G01 X22.6358 Y54.8746
G01 X22.6365 Y54.8741
G01 X22.6365 Y54.8690
G00 Z2.0000
G00 X25.1765 Y54.8690
G01 F60.00
G01 Z-2.0000
G01 F120.00
G01 X25.1759 Y54.8684
G01 X25.1753 Y54.8689
G01 X25.1753 Y54.8741
G01 X25.1758 Y54.8746
G01 X25.1765 Y54.8741
G01 X25.1765 Y54.8690
G00 Z2.0000
G00 X27.7165 Y54.8690
G01 F60.00
G01 Z-2.0000
G01 F120.00
G01 X27.7159 Y54.8684
G01 X27.7153 Y54.8689
G01 X27.7153 Y54.8741
G01 X27.7158 Y54.8746
G01 X27.7165 Y54.8741
G01 X27.7165 Y54.8690
G00 Z2.0000
G00 X30.2565 Y54.8690
G01 F60.00
G01 Z-2.0000
G01 F120.00
G01 X30.2559 Y54.8684
G01 X30.2553 Y54.8689
G01 X30.2553 Y54.8741
G01 X30.2558 Y54.8746
G01 X30.2565 Y54.8741
G01 X30.2565 Y54.8690
G00 Z2.0000
G00 X32.7965 Y54.8690
G01 F60.00
G01 Z-2.0000
G01 F120.00
G01 X32.7959 Y54.8684
G01 X32.7953 Y54.8689
G01 X32.7953 Y54.8741
G01 X32.7958 Y54.8746
G01 X32.7965 Y54.8741
G01 X32.7965 Y54.8690
G00 Z2.0000
G00 X35.3365 Y54.8690
G01 F60.00
G01 Z-2.0000
G01 F120.00
G01 X35.3359 Y54.8684
G01 X35.3353 Y54.8689
G01 X35.3353 Y54.8741
G01 X35.3358 Y54.8746
G01 X35.3365 Y54.8741
G01 X35.3365 Y54.8690
G00 Z2.0000
G00 X37.8765 Y54.8690
G01 F60.00
G01 Z-2.0000
G01 F120.00
G01 X37.8759 Y54.8684
G01 X37.8753 Y54.8689
G01 X37.8753 Y54.8741
G01 X37.8758 Y54.8746
G01 X37.8765 Y54.8741
G01 X37.8765 Y54.8690
G00 Z2.0000
G00 X40.4165 Y54.8690
G01 F60.00
G01 Z-2.0000
G01 F120.00
G01 X40.4159 Y54.8684
G01 X40.4153 Y54.8689
G01 X40.4153 Y54.8741
G01 X40.4158 Y54.8746
G01 X40.4165 Y54.8741
G01 X40.4165 Y54.8690
G00 Z2.0000
G00 X42.9565 Y54.8690
G01 F60.00
G01 Z-2.0000
G01 F120.00
G01 X42.9559 Y54.8684
G01 X42.9553 Y54.8689
G01 X42.9553 Y54.8741
G01 X42.9558 Y54.8746
G01 X42.9565 Y54.8741
G01 X42.9565 Y54.8690
G00 Z2.0000
G00 X45.4965 Y54.8690
G01 F60.00
G01 Z-2.0000
G01 F120.00
G01 X45.4959 Y54.8684
G01 X45.4953 Y54.8689
G01 X45.4953 Y54.8741
G01 X45.4958 Y54.8746
G01 X45.4965 Y54.8741
G01 X45.4965 Y54.8690
G00 Z2.0000
G00 X48.0365 Y54.8690
G01 F60.00
G01 Z-2.0000
G01 F120.00
G01 X48.0359 Y54.8684
G01 X48.0353 Y54.8689
G01 X48.0353 Y54.8741
G01 X48.0358 Y54.8746
G01 X48.0365 Y54.8741
G01 X48.0365 Y54.8690
G00 Z2.0000
G00 X50.5765 Y54.8690
G01 F60.00
G01 Z-2.0000
G01 F120.00
G01 X50.5759 Y54.8684
G01 X50.5753 Y54.8689
G01 X50.5753 Y54.8741
G01 X50.5758 Y54.8746
G01 X50.5765 Y54.8741
G01 X50.5765 Y54.8690
G00 Z2.0000
G00 X53.1165 Y54.8690
G01 F60.00
G01 Z-2.0000
G01 F120.00
G01 X53.1159 Y54.8684
G01 X53.1153 Y54.8689
G01 X53.1153 Y54.8741
G01 X53.1158 Y54.8746
G01 X53.1165 Y54.8741
G01 X53.1165 Y54.8690
G00 Z2.0000
G00 X55.6565 Y54.8690
G01 F60.00
G01 Z-2.0000
G01 F120.00
G01 X55.6559 Y54.8684
G01 X55.6553 Y54.8689
G01 X55.6553 Y54.8741
G01 X55.6558 Y54.8746
G01 X55.6565 Y54.8741
G01 X55.6565 Y54.8690
G00 Z2.0000
G00 X58.1965 Y54.8690
G01 F60.00
G01 Z-2.0000
G01 F120.00
G01 X58.1959 Y54.8684
G01 X58.1953 Y54.8689
G01 X58.1953 Y54.8741
G01 X58.1958 Y54.8746
G01 X58.1965 Y54.8741
G01 X58.1965 Y54.8690
G00 Z2.0000
G00 X60.7365 Y54.8690
G01 F60.00
G01 Z-2.0000
G01 F120.00
G01 X60.7359 Y54.8684
G01 X60.7353 Y54.8689
G01 X60.7353 Y54.8741
G01 X60.7358 Y54.8746
G01 X60.7365 Y54.8741
G01 X60.7365 Y54.8690
G00 Z2.0000
G00 X60.7365 Y70.1090
G01 F60.00
G01 Z-2.0000
G01 F120.00
G01 X60.7359 Y70.1084
G01 X60.7353 Y70.1089
G01 X60.7353 Y70.1141
G01 X60.7358 Y70.1146
G01 X60.7365 Y70.1141
G01 X60.7365 Y70.1090
G00 Z2.0000
G00 X58.1965 Y70.1090
G01 F60.00
G01 Z-2.0000
G01 F120.00
G01 X58.1959 Y70.1084
G01 X58.1953 Y70.1089
G01 X58.1953 Y70.1141
G01 X58.1958 Y70.1146
G01 X58.1965 Y70.1141
G01 X58.1965 Y70.1090
G00 Z2.0000
G00 X55.6565 Y70.1090
G01 F60.00
G01 Z-2.0000
G01 F120.00
G01 X55.6559 Y70.1084
G01 X55.6553 Y70.1089
G01 X55.6553 Y70.1141
G01 X55.6558 Y70.1146
G01 X55.6565 Y70.1141
G01 X55.6565 Y70.1090
G00 Z2.0000
G00 X53.1165 Y70.1090
G01 F60.00
G01 Z-2.0000
G01 F120.00
G01 X53.1159 Y70.1084
G01 X53.1153 Y70.1089
G01 X53.1153 Y70.1141
G01 X53.1158 Y70.1146
G01 X53.1165 Y70.1141
G01 X53.1165 Y70.1090
G00 Z2.0000
G00 X50.5765 Y70.1090
G01 F60.00
G01 Z-2.0000
G01 F120.00
G01 X50.5759 Y70.1084
G01 X50.5753 Y70.1089
G01 X50.5753 Y70.1141
G01 X50.5758 Y70.1146
G01 X50.5765 Y70.1141
G01 X50.5765 Y70.1090
G00 Z2.0000
G00 X48.0365 Y70.1090
G01 F60.00
G01 Z-2.0000
G01 F120.00
G01 X48.0359 Y70.1084
G01 X48.0353 Y70.1089
G01 X48.0353 Y70.1141
G01 X48.0358 Y70.1146
G01 X48.0365 Y70.1141
G01 X48.0365 Y70.1090
G00 Z2.0000
G00 X45.4965 Y70.1090
G01 F60.00
G01 Z-2.0000
G01 F120.00
G01 X45.4959 Y70.1084
G01 X45.4953 Y70.1089
G01 X45.4953 Y70.1141
G01 X45.4958 Y70.1146
G01 X45.4965 Y70.1141
G01 X45.4965 Y70.1090
G00 Z2.0000
G00 X42.9565 Y70.1090
G01 F60.00
G01 Z-2.0000
G01 F120.00
G01 X42.9559 Y70.1084
G01 X42.9553 Y70.1089
G01 X42.9553 Y70.1141
G01 X42.9558 Y70.1146
G01 X42.9565 Y70.1141
G01 X42.9565 Y70.1090
G00 Z2.0000
G00 X40.4165 Y70.1090
G01 F60.00
G01 Z-2.0000
G01 F120.00
G01 X40.4159 Y70.1084
G01 X40.4153 Y70.1089
G01 X40.4153 Y70.1141
G01 X40.4158 Y70.1146
G01 X40.4165 Y70.1141
G01 X40.4165 Y70.1090
G00 Z2.0000
G00 X37.8765 Y70.1090
G01 F60.00
G01 Z-2.0000
G01 F120.00
G01 X37.8759 Y70.1084
G01 X37.8753 Y70.1089
G01 X37.8753 Y70.1141
G01 X37.8758 Y70.1146
G01 X37.8765 Y70.1141
G01 X37.8765 Y70.1090
G00 Z2.0000
G00 X35.3365 Y70.1090
G01 F60.00
G01 Z-2.0000
G01 F120.00
G01 X35.3359 Y70.1084
G01 X35.3353 Y70.1089
G01 X35.3353 Y70.1141
G01 X35.3358 Y70.1146
G01 X35.3365 Y70.1141
G01 X35.3365 Y70.1090
G00 Z2.0000
G00 X32.7965 Y70.1090
G01 F60.00
G01 Z-2.0000
G01 F120.00
G01 X32.7959 Y70.1084
G01 X32.7953 Y70.1089
G01 X32.7953 Y70.1141
G01 X32.7958 Y70.1146
G01 X32.7965 Y70.1141
G01 X32.7965 Y70.1090
G00 Z2.0000
G00 X30.2565 Y70.1090
G01 F60.00
G01 Z-2.0000
G01 F120.00
G01 X30.2559 Y70.1084
G01 X30.2553 Y70.1089
G01 X30.2553 Y70.1141
G01 X30.2558 Y70.1146
G01 X30.2565 Y70.1141
G01 X30.2565 Y70.1090
G00 Z2.0000
G00 X27.7165 Y70.1090
G01 F60.00
G01 Z-2.0000
G01 F120.00
G01 X27.7159 Y70.1084
G01 X27.7153 Y70.1089
G01 X27.7153 Y70.1141
G01 X27.7158 Y70.1146
G01 X27.7165 Y70.1141
G01 X27.7165 Y70.1090
G00 Z2.0000
G00 X25.1765 Y70.1090
G01 F60.00
G01 Z-2.0000
G01 F120.00
G01 X25.1759 Y70.1084
G01 X25.1753 Y70.1089
G01 X25.1753 Y70.1141
G01 X25.1758 Y70.1146
G01 X25.1765 Y70.1141
G01 X25.1765 Y70.1090
G00 Z2.0000
G00 X22.6365 Y70.1090
G01 F60.00
G01 Z-2.0000
G01 F120.00
G01 X22.6359 Y70.1084
G01 X22.6353 Y70.1089
G01 X22.6353 Y70.1141
G01 X22.6358 Y70.1146
G01 X22.6365 Y70.1141
G01 X22.6365 Y70.1090
G00 Z2.0000
G00 X20.0965 Y70.1090
G01 F60.00
G01 Z-2.0000
G01 F120.00
G01 X20.0959 Y70.1084
G01 X20.0953 Y70.1089
G01 X20.0953 Y70.1141
G01 X20.0958 Y70.1146
G01 X20.0965 Y70.1141
G01 X20.0965 Y70.1090
G00 Z2.0000
G00 X17.5565 Y70.1090
G01 F60.00
G01 Z-2.0000
G01 F120.00
G01 X17.5559 Y70.1084
G01 X17.5553 Y70.1089
G01 X17.5553 Y70.1141
G01 X17.5558 Y70.1146
G01 X17.5565 Y70.1141
G01 X17.5565 Y70.1090
G00 Z2.0000
G00 X15.0165 Y70.1090
G01 F60.00
G01 Z-2.0000
G01 F120.00
G01 X15.0159 Y70.1084
G01 X15.0153 Y70.1089
G01 X15.0153 Y70.1141
G01 X15.0158 Y70.1146
G01 X15.0165 Y70.1141
G01 X15.0165 Y70.1090
G00 Z2.0000
G00 X12.4765 Y70.1090
G01 F60.00
G01 Z-2.0000
G01 F120.00
G01 X12.4759 Y70.1084
G01 X12.4753 Y70.1089
G01 X12.4753 Y70.1141
G01 X12.4758 Y70.1146
G01 X12.4765 Y70.1141
G01 X12.4765 Y70.1090
G00 Z2.0000
M05
G00 Z2.0000
G00 Z5.00
G00 X0.0 Y0.0

