(G-CODE GENERATED BY FLATCAM v8.991 - www.flatcam.org - Version Date: 2019/12/27)

(Name: 2)
(Type: G-code from Excellon)
(Units: MM)

(Created on Sunday, 23 July 2023 at 20:41)

(Feedrate: 120.0 mm/min)
(Feedrate rapids 1500.0 mm/min)

(Z_Cut: -2.0 mm)
(Z_Move: 2.0 mm)
(Z Toolchange: 15.0 mm)
(X,Y Toolchange: 0.0000, 0.0000 mm)
(Z Start: None mm)
(Z End: 5.0 mm)
(Steps per circle: 64)
(Preprocessor Excellon: default)

(X range:    9.4599 ...   65.9424  mm)
(Y range:   14.2900 ...   88.8185  mm)

(Spindle Speed: None RPM)
G21
G90
G94

(Tool change)
M06

(Probing new tool)
G30

(Give chance for removing probing wires)
M06

(Zeroing Z-axis after probing)
G92 X0 Y0 Z0


G01 F120.00
G00 Z2.0000

M03
G00 X46.1309 Y14.7400
G01 Z-2.0000
G01 Z0
G00 Z2.0000
G00 X53.7509 Y14.7400
G01 Z-2.0000
G01 Z0
G00 Z2.0000
G00 X19.5169 Y41.9540
G01 Z-2.0000
G01 Z0
G00 Z2.0000
G00 X15.7069 Y35.3560
G01 Z-2.0000
G01 Z0
G00 Z2.0000
M03
G00 X14.9089 Y47.1250
G01 Z-2.0000
G01 Z0
G00 Z2.0000
G00 X17.4089 Y47.1250
G01 Z-2.0000
G01 Z0
G00 Z2.0000
G00 X65.4919 Y29.6790
G01 Z-2.0000
G01 Z0
G00 Z2.0000
G00 X65.4919 Y27.1390
G01 Z-2.0000
G01 Z0
G00 Z2.0000
G00 X65.4919 Y24.5990
G01 Z-2.0000
G01 Z0
G00 Z2.0000
G00 X65.4919 Y22.0590
G01 Z-2.0000
G01 Z0
G00 Z2.0000
G00 X13.4919 Y16.8990
G01 Z-2.0000
G01 Z0
G00 Z2.0000
G00 X13.4919 Y19.4390
G01 Z-2.0000
G01 Z0
G00 Z2.0000
G00 X13.4919 Y21.9790
G01 Z-2.0000
G01 Z0
G00 Z2.0000
G00 X13.4919 Y24.5190
G01 Z-2.0000
G01 Z0
G00 Z2.0000
G00 X13.4919 Y27.0590
G01 Z-2.0000
G01 Z0
G00 Z2.0000
G00 X13.4919 Y29.5990
G01 Z-2.0000
G01 Z0
G00 Z2.0000
G00 X13.4919 Y32.1390
G01 Z-2.0000
G01 Z0
G00 Z2.0000
G00 X13.4919 Y34.6790
G01 Z-2.0000
G01 Z0
G00 Z2.0000
M05
G00 Z5.00
G00 X0.0 Y0.0

