(G-CODE GENERATED BY FLATCAM v8.991 - www.flatcam.org - Version Date: 2019/12/27)

(Name: 7)
(Type: G-code from Geometry)
(Units: MM)

(Created on Sunday, 23 July 2023 at 20:48)

(TOOL DIAMETER: 2.5 mm)
(Feedrate: 120.0 mm/min)
(Feedrate_Z: 60.0 mm/min)
(Feedrate rapids 1500.0 mm/min)

(Z_Cut: -2.0 mm)
(DepthPerCut: 0.4 mm <=>5 passes)
(Z_Move: 2.0 mm)
(Z Toolchange: 15.0 mm)
(X,Y Toolchange: 0.0000, 0.0000 mm)
(Z Start: None mm)
(Z End: 5.0 mm)
(Steps per circle: 64)
(Preprocessor Geometry: default)

(X range:    1.5592 ...   78.1145  mm)
(Y range:    1.1470 ...   97.5066  mm)

(Spindle Speed: None RPM)
G21
G90
G94

(Tool change)
M06

(Probing new tool)
G30

(Give chance for removing probing wires)
M06

(Zeroing Z-axis after probing)
G92 X0 Y0 Z0


G01 F120.00
G00 Z2.0000

M03
G00 X1.5592 Y52.5000
G01 F60.00
G01 Z-0.4000
G01 F120.00
G01 X1.5592 Y6.3970
G01 X1.5845 Y5.8824
G01 X1.6601 Y5.3728
G01 X1.7853 Y4.8730
G01 X1.9589 Y4.3879
G01 X2.1792 Y3.9222
G01 X2.4440 Y3.4803
G01 X2.7509 Y3.0664
G01 X3.0969 Y2.6847
G01 X3.4787 Y2.3387
G01 X3.8925 Y2.0318
G01 X4.3344 Y1.7669
G01 X4.8002 Y1.5466
G01 X5.2852 Y1.3731
G01 X5.7850 Y1.2479
G01 X6.2947 Y1.1723
G01 X6.8092 Y1.1470
G01 X72.8645 Y1.1470
G00 X72.8645 Y1.1470
G01 F60.00
G01 Z-0.8000
G01 F120.00
G01 X6.8092 Y1.1470
G01 X6.2947 Y1.1723
G01 X5.7850 Y1.2479
G01 X5.2852 Y1.3731
G01 X4.8002 Y1.5466
G01 X4.3344 Y1.7669
G01 X3.8925 Y2.0318
G01 X3.4787 Y2.3387
G01 X3.0969 Y2.6847
G01 X2.7509 Y3.0664
G01 X2.4440 Y3.4803
G01 X2.1792 Y3.9222
G01 X1.9589 Y4.3879
G01 X1.7853 Y4.8730
G01 X1.6601 Y5.3728
G01 X1.5845 Y5.8824
G01 X1.5592 Y6.3970
G01 X1.5592 Y52.5000
G00 X1.5592 Y52.5000
G01 F60.00
G01 Z-1.2000
G01 F120.00
G01 X1.5592 Y6.3970
G01 X1.5845 Y5.8824
G01 X1.6601 Y5.3728
G01 X1.7853 Y4.8730
G01 X1.9589 Y4.3879
G01 X2.1792 Y3.9222
G01 X2.4440 Y3.4803
G01 X2.7509 Y3.0664
G01 X3.0969 Y2.6847
G01 X3.4787 Y2.3387
G01 X3.8925 Y2.0318
G01 X4.3344 Y1.7669
G01 X4.8002 Y1.5466
G01 X5.2852 Y1.3731
G01 X5.7850 Y1.2479
G01 X6.2947 Y1.1723
G01 X6.8092 Y1.1470
G01 X72.8645 Y1.1470
G00 X72.8645 Y1.1470
G01 F60.00
G01 Z-1.6000
G01 F120.00
G01 X6.8092 Y1.1470
G01 X6.2947 Y1.1723
G01 X5.7850 Y1.2479
G01 X5.2852 Y1.3731
G01 X4.8002 Y1.5466
G01 X4.3344 Y1.7669
G01 X3.8925 Y2.0318
G01 X3.4787 Y2.3387
G01 X3.0969 Y2.6847
G01 X2.7509 Y3.0664
G01 X2.4440 Y3.4803
G01 X2.1792 Y3.9222
G01 X1.9589 Y4.3879
G01 X1.7853 Y4.8730
G01 X1.6601 Y5.3728
G01 X1.5845 Y5.8824
G01 X1.5592 Y6.3970
G01 X1.5592 Y52.5000
G00 X1.5592 Y52.5000
G01 F60.00
G01 Z-2.0000
G01 F120.00
G01 X1.5592 Y6.3970
G01 X1.5845 Y5.8824
G01 X1.6601 Y5.3728
G01 X1.7853 Y4.8730
G01 X1.9589 Y4.3879
G01 X2.1792 Y3.9222
G01 X2.4440 Y3.4803
G01 X2.7509 Y3.0664
G01 X3.0969 Y2.6847
G01 X3.4787 Y2.3387
G01 X3.8925 Y2.0318
G01 X4.3344 Y1.7669
G01 X4.8002 Y1.5466
G01 X5.2852 Y1.3731
G01 X5.7850 Y1.2479
G01 X6.2947 Y1.1723
G01 X6.8092 Y1.1470
G01 X72.8645 Y1.1470
G00 Z2.0000
G00 X72.8645 Y1.1470
G01 F60.00
G01 Z-0.4000
G01 F120.00
G01 X73.3791 Y1.1723
G01 X73.8887 Y1.2479
G01 X74.3885 Y1.3731
G01 X74.8736 Y1.5466
G01 X75.3393 Y1.7669
G01 X75.7812 Y2.0318
G01 X76.1951 Y2.3387
G01 X76.5768 Y2.6847
G01 X76.9228 Y3.0664
G01 X77.2297 Y3.4803
G01 X77.4946 Y3.9222
G01 X77.7149 Y4.3879
G01 X77.8884 Y4.8730
G01 X78.0136 Y5.3728
G01 X78.0892 Y5.8824
G01 X78.1145 Y6.3970
G01 X78.1145 Y52.5000
G00 X78.1145 Y52.5000
G01 F60.00
G01 Z-0.8000
G01 F120.00
G01 X78.1145 Y6.3970
G01 X78.0892 Y5.8824
G01 X78.0136 Y5.3728
G01 X77.8884 Y4.8730
G01 X77.7149 Y4.3879
G01 X77.4946 Y3.9222
G01 X77.2297 Y3.4803
G01 X76.9228 Y3.0664
G01 X76.5768 Y2.6847
G01 X76.1951 Y2.3387
G01 X75.7812 Y2.0318
G01 X75.3393 Y1.7669
G01 X74.8736 Y1.5466
G01 X74.3885 Y1.3731
G01 X73.8887 Y1.2479
G01 X73.3791 Y1.1723
G01 X72.8645 Y1.1470
G00 X72.8645 Y1.1470
G01 F60.00
G01 Z-1.2000
G01 F120.00
G01 X73.3791 Y1.1723
G01 X73.8887 Y1.2479
G01 X74.3885 Y1.3731
G01 X74.8736 Y1.5466
G01 X75.3393 Y1.7669
G01 X75.7812 Y2.0318
G01 X76.1951 Y2.3387
G01 X76.5768 Y2.6847
G01 X76.9228 Y3.0664
G01 X77.2297 Y3.4803
G01 X77.4946 Y3.9222
G01 X77.7149 Y4.3879
G01 X77.8884 Y4.8730
G01 X78.0136 Y5.3728
G01 X78.0892 Y5.8824
G01 X78.1145 Y6.3970
G01 X78.1145 Y52.5000
G00 X78.1145 Y52.5000
G01 F60.00
G01 Z-1.6000
G01 F120.00
G01 X78.1145 Y6.3970
G01 X78.0892 Y5.8824
G01 X78.0136 Y5.3728
G01 X77.8884 Y4.8730
G01 X77.7149 Y4.3879
G01 X77.4946 Y3.9222
G01 X77.2297 Y3.4803
G01 X76.9228 Y3.0664
G01 X76.5768 Y2.6847
G01 X76.1951 Y2.3387
G01 X75.7812 Y2.0318
G01 X75.3393 Y1.7669
G01 X74.8736 Y1.5466
G01 X74.3885 Y1.3731
G01 X73.8887 Y1.2479
G01 X73.3791 Y1.1723
G01 X72.8645 Y1.1470
G00 X72.8645 Y1.1470
G01 F60.00
G01 Z-2.0000
G01 F120.00
G01 X73.3791 Y1.1723
G01 X73.8887 Y1.2479
G01 X74.3885 Y1.3731
G01 X74.8736 Y1.5466
G01 X75.3393 Y1.7669
G01 X75.7812 Y2.0318
G01 X76.1951 Y2.3387
G01 X76.5768 Y2.6847
G01 X76.9228 Y3.0664
G01 X77.2297 Y3.4803
G01 X77.4946 Y3.9222
G01 X77.7149 Y4.3879
G01 X77.8884 Y4.8730
G01 X78.0136 Y5.3728
G01 X78.0892 Y5.8824
G01 X78.1145 Y6.3970
G01 X78.1145 Y52.5000
G00 Z2.0000
G00 X78.1145 Y55.5000
G01 F60.00
G01 Z-0.4000
G01 F120.00
G01 X78.1145 Y92.2566
G01 X78.0892 Y92.7712
G01 X78.0136 Y93.2808
G01 X77.8884 Y93.7806
G01 X77.7149 Y94.2657
G01 X77.4946 Y94.7315
G01 X77.2297 Y95.1734
G01 X76.9228 Y95.5872
G01 X76.5768 Y95.9689
G01 X76.1951 Y96.3149
G01 X75.7812 Y96.6218
G01 X75.3393 Y96.8867
G01 X74.8736 Y97.1070
G01 X74.3885 Y97.2806
G01 X73.8887 Y97.4057
G01 X73.3791 Y97.4813
G01 X72.8645 Y97.5066
G01 X6.8092 Y97.5066
G01 X6.2947 Y97.4813
G01 X5.7850 Y97.4057
G01 X5.2852 Y97.2806
G01 X4.8002 Y97.1070
G01 X4.3344 Y96.8867
G01 X3.8925 Y96.6218
G01 X3.4787 Y96.3149
G01 X3.0969 Y95.9689
G01 X2.7509 Y95.5872
G01 X2.4440 Y95.1734
G01 X2.1792 Y94.7315
G01 X1.9589 Y94.2657
G01 X1.7853 Y93.7806
G01 X1.6601 Y93.2808
G01 X1.5845 Y92.7712
G01 X1.5592 Y92.2566
G01 X1.5592 Y55.5000
G00 X1.5592 Y55.5000
G01 F60.00
G01 Z-0.8000
G01 F120.00
G01 X1.5592 Y92.2566
G01 X1.5845 Y92.7712
G01 X1.6601 Y93.2808
G01 X1.7853 Y93.7806
G01 X1.9589 Y94.2657
G01 X2.1792 Y94.7315
G01 X2.4440 Y95.1734
G01 X2.7509 Y95.5872
G01 X3.0969 Y95.9689
G01 X3.4787 Y96.3149
G01 X3.8925 Y96.6218
G01 X4.3344 Y96.8867
G01 X4.8002 Y97.1070
G01 X5.2852 Y97.2806
G01 X5.7850 Y97.4057
G01 X6.2947 Y97.4813
G01 X6.8092 Y97.5066
G01 X72.8645 Y97.5066
G01 X73.3791 Y97.4813
G01 X73.8887 Y97.4057
G01 X74.3885 Y97.2806
G01 X74.8736 Y97.1070
G01 X75.3393 Y96.8867
G01 X75.7812 Y96.6218
G01 X76.1951 Y96.3149
G01 X76.5768 Y95.9689
G01 X76.9228 Y95.5872
G01 X77.2297 Y95.1734
G01 X77.4946 Y94.7315
G01 X77.7149 Y94.2657
G01 X77.8884 Y93.7806
G01 X78.0136 Y93.2808
G01 X78.0892 Y92.7712
G01 X78.1145 Y92.2566
G01 X78.1145 Y55.5000
G00 X78.1145 Y55.5000
G01 F60.00
G01 Z-1.2000
G01 F120.00
G01 X78.1145 Y92.2566
G01 X78.0892 Y92.7712
G01 X78.0136 Y93.2808
G01 X77.8884 Y93.7806
G01 X77.7149 Y94.2657
G01 X77.4946 Y94.7315
G01 X77.2297 Y95.1734
G01 X76.9228 Y95.5872
G01 X76.5768 Y95.9689
G01 X76.1951 Y96.3149
G01 X75.7812 Y96.6218
G01 X75.3393 Y96.8867
G01 X74.8736 Y97.1070
G01 X74.3885 Y97.2806
G01 X73.8887 Y97.4057
G01 X73.3791 Y97.4813
G01 X72.8645 Y97.5066
G01 X6.8092 Y97.5066
G01 X6.2947 Y97.4813
G01 X5.7850 Y97.4057
G01 X5.2852 Y97.2806
G01 X4.8002 Y97.1070
G01 X4.3344 Y96.8867
G01 X3.8925 Y96.6218
G01 X3.4787 Y96.3149
G01 X3.0969 Y95.9689
G01 X2.7509 Y95.5872
G01 X2.4440 Y95.1734
G01 X2.1792 Y94.7315
G01 X1.9589 Y94.2657
G01 X1.7853 Y93.7806
G01 X1.6601 Y93.2808
G01 X1.5845 Y92.7712
G01 X1.5592 Y92.2566
G01 X1.5592 Y55.5000
G00 X1.5592 Y55.5000
G01 F60.00
G01 Z-1.6000
G01 F120.00
G01 X1.5592 Y92.2566
G01 X1.5845 Y92.7712
G01 X1.6601 Y93.2808
G01 X1.7853 Y93.7806
G01 X1.9589 Y94.2657
G01 X2.1792 Y94.7315
G01 X2.4440 Y95.1734
G01 X2.7509 Y95.5872
G01 X3.0969 Y95.9689
G01 X3.4787 Y96.3149
G01 X3.8925 Y96.6218
G01 X4.3344 Y96.8867
G01 X4.8002 Y97.1070
G01 X5.2852 Y97.2806
G01 X5.7850 Y97.4057
G01 X6.2947 Y97.4813
G01 X6.8092 Y97.5066
G01 X72.8645 Y97.5066
G01 X73.3791 Y97.4813
G01 X73.8887 Y97.4057
G01 X74.3885 Y97.2806
G01 X74.8736 Y97.1070
G01 X75.3393 Y96.8867
G01 X75.7812 Y96.6218
G01 X76.1951 Y96.3149
G01 X76.5768 Y95.9689
G01 X76.9228 Y95.5872
G01 X77.2297 Y95.1734
G01 X77.4946 Y94.7315
G01 X77.7149 Y94.2657
G01 X77.8884 Y93.7806
G01 X78.0136 Y93.2808
G01 X78.0892 Y92.7712
G01 X78.1145 Y92.2566
G01 X78.1145 Y55.5000
G00 X78.1145 Y55.5000
G01 F60.00
G01 Z-2.0000
G01 F120.00
G01 X78.1145 Y92.2566
G01 X78.0892 Y92.7712
G01 X78.0136 Y93.2808
G01 X77.8884 Y93.7806
G01 X77.7149 Y94.2657
G01 X77.4946 Y94.7315
G01 X77.2297 Y95.1734
G01 X76.9228 Y95.5872
G01 X76.5768 Y95.9689
G01 X76.1951 Y96.3149
G01 X75.7812 Y96.6218
G01 X75.3393 Y96.8867
G01 X74.8736 Y97.1070
G01 X74.3885 Y97.2806
G01 X73.8887 Y97.4057
G01 X73.3791 Y97.4813
G01 X72.8645 Y97.5066
G01 X6.8092 Y97.5066
G01 X6.2947 Y97.4813
G01 X5.7850 Y97.4057
G01 X5.2852 Y97.2806
G01 X4.8002 Y97.1070
G01 X4.3344 Y96.8867
G01 X3.8925 Y96.6218
G01 X3.4787 Y96.3149
G01 X3.0969 Y95.9689
G01 X2.7509 Y95.5872
G01 X2.4440 Y95.1734
G01 X2.1792 Y94.7315
G01 X1.9589 Y94.2657
G01 X1.7853 Y93.7806
G01 X1.6601 Y93.2808
G01 X1.5845 Y92.7712
G01 X1.5592 Y92.2566
G01 X1.5592 Y55.5000
G00 Z2.0000
M05
G00 Z2.0000
G00 Z5.00
G00 X0.0 Y0.0

