(G-CODE GENERATED BY FLATCAM v8.991 - www.flatcam.org - Version Date: 2019/12/27)

(Name: 0)
(Type: G-code from Geometry)
(Units: MM)

(Created on Thursday, 20 July 2023 at 13:33)

(TOOL DIAMETER: 0.2804 mm)
(Feedrate: 120.0 mm/min)
(Feedrate_Z: 60.0 mm/min)
(Feedrate rapids 1500.0 mm/min)

(Z_Cut: -0.15 mm)
(Z_Move: 2.0 mm)
(Z Toolchange: 15.0 mm)
(X,Y Toolchange: 0.0000, 0.0000 mm)
(Z Start: None mm)
(Z End: 5.0 mm)
(Steps per circle: 64)
(Preprocessor Geometry: default)

(X range:   30.8329 ...   66.7471  mm)
(Y range:    0.4529 ...   22.7171  mm)

(Spindle Speed: None RPM)
G21
G90
G94

(Acceleration settings)
M204 P144000 T144000

(Rapid speed)
G00 F2400.00

(Auto leveling map probing)
G29 L30 R67 F0 B23 N16 N9

(Acceleration settings)
M204 P36000 T36000

(Rapid speed)
G00 F1200.00

(Tool change)
M06

(Probing new tool)
G30

(Give chance for removing probing wires)
M06

(Zeroing Z-axis after probing)
G92 X0 Y0 Z0


G01 F120.00
G00 Z2.0000

M03
G00 X30.8329 Y10.6850
G01 F60.00
G01 Z-0.1500
G01 F120.00
G01 X30.8329 Y1.3029
G01 X30.8370 Y1.2196
G01 X30.8493 Y1.1371
G01 X30.8695 Y1.0562
G01 X30.8976 Y0.9777
G01 X30.9333 Y0.9022
G01 X30.9762 Y0.8307
G01 X31.0259 Y0.7637
G01 X31.0819 Y0.7019
G01 X31.1437 Y0.6459
G01 X31.2107 Y0.5962
G01 X31.2822 Y0.5533
G01 X31.3577 Y0.5176
G01 X31.4362 Y0.4895
G01 X31.5171 Y0.4693
G01 X31.5996 Y0.4570
G01 X31.6829 Y0.4529
G01 X47.8900 Y0.4529
G00 Z2.0000
G00 X49.8900 Y0.4529
G01 F60.00
G01 Z-0.1500
G01 F120.00
G01 X65.8971 Y0.4529
G00 Z2.0000
G00 X65.8971 Y0.4529
G01 F60.00
G01 Z-0.1500
G01 F120.00
G01 X65.9804 Y0.4570
G01 X66.0629 Y0.4693
G01 X66.1438 Y0.4895
G01 X66.2223 Y0.5176
G01 X66.2978 Y0.5533
G01 X66.3693 Y0.5962
G01 X66.4363 Y0.6459
G01 X66.4981 Y0.7019
G01 X66.5541 Y0.7637
G01 X66.6038 Y0.8307
G01 X66.6467 Y0.9022
G01 X66.6824 Y0.9777
G01 X66.7105 Y1.0562
G01 X66.7307 Y1.1371
G01 X66.7430 Y1.2196
G01 X66.7471 Y1.3029
G01 X66.7471 Y10.6850
G00 Z2.0000
G00 X66.7471 Y12.6850
G01 F60.00
G01 Z-0.1500
G01 F120.00
G01 X66.7471 Y21.8671
G01 X66.7430 Y21.9504
G01 X66.7307 Y22.0329
G01 X66.7105 Y22.1138
G01 X66.6824 Y22.1923
G01 X66.6467 Y22.2678
G01 X66.6038 Y22.3393
G01 X66.5541 Y22.4063
G01 X66.4981 Y22.4681
G01 X66.4363 Y22.5241
G01 X66.3693 Y22.5738
G01 X66.2978 Y22.6167
G01 X66.2223 Y22.6524
G01 X66.1438 Y22.6805
G01 X66.0629 Y22.7007
G01 X65.9804 Y22.7130
G01 X65.8971 Y22.7171
G01 X49.8900 Y22.7171
G00 Z2.0000
G00 X47.8900 Y22.7171
G01 F60.00
G01 Z-0.1500
G01 F120.00
G01 X31.6829 Y22.7171
G01 X31.5996 Y22.7130
G01 X31.5171 Y22.7007
G01 X31.4362 Y22.6805
G01 X31.3577 Y22.6524
G01 X31.2822 Y22.6167
G01 X31.2107 Y22.5738
G01 X31.1437 Y22.5241
G01 X31.0819 Y22.4681
G01 X31.0259 Y22.4063
G01 X30.9762 Y22.3393
G01 X30.9333 Y22.2678
G01 X30.8976 Y22.1923
G01 X30.8695 Y22.1138
G01 X30.8493 Y22.0329
G01 X30.8370 Y21.9504
G01 X30.8329 Y21.8671
G01 X30.8329 Y12.6850
G00 Z2.0000
G00 X39.7986 Y10.0475
G01 F60.00
G01 Z-0.1500
G01 F120.00
G01 X39.7941 Y10.1396
G01 X39.7928 Y10.1533
G01 X39.7792 Y10.2445
G01 X39.7765 Y10.2580
G01 X39.7541 Y10.3475
G01 X39.7501 Y10.3606
G01 X39.7191 Y10.4475
G01 X39.7138 Y10.4602
G01 X39.6744 Y10.5436
G01 X39.6679 Y10.5557
G01 X39.6205 Y10.6348
G01 X39.6128 Y10.6462
G01 X39.5579 Y10.7203
G01 X39.5492 Y10.7310
G01 X39.4872 Y10.7993
G01 X39.4775 Y10.8090
G01 X39.4092 Y10.8710
G01 X39.3985 Y10.8797
G01 X39.3244 Y10.9346
G01 X39.3130 Y10.9423
G01 X39.2339 Y10.9897
G01 X39.2218 Y10.9962
G01 X39.1384 Y11.0356
G01 X39.1257 Y11.0409
G01 X39.0388 Y11.0719
G01 X39.0257 Y11.0759
G01 X38.9362 Y11.0983
G01 X38.9227 Y11.1010
G01 X38.8315 Y11.1146
G01 X38.8178 Y11.1159
G01 X38.7257 Y11.1204
G01 X38.7119 Y11.1204
G01 X38.6198 Y11.1159
G01 X38.6061 Y11.1146
G01 X38.5149 Y11.1010
G01 X38.5014 Y11.0983
G01 X38.4119 Y11.0759
G01 X38.3988 Y11.0719
G01 X38.3119 Y11.0409
G01 X38.2992 Y11.0356
G01 X38.2158 Y10.9962
G01 X38.2037 Y10.9897
G01 X38.1246 Y10.9423
G01 X38.1132 Y10.9346
G01 X38.0391 Y10.8797
G01 X38.0284 Y10.8710
G01 X37.9601 Y10.8090
G01 X37.9504 Y10.7993
G01 X37.8884 Y10.7310
G01 X37.8797 Y10.7203
G01 X37.8248 Y10.6462
G01 X37.8171 Y10.6348
G01 X37.7697 Y10.5557
G01 X37.7632 Y10.5436
G01 X37.7238 Y10.4602
G01 X37.7185 Y10.4475
G01 X37.6875 Y10.3606
G01 X37.6835 Y10.3475
G01 X37.6611 Y10.2580
G01 X37.6584 Y10.2445
G01 X37.6448 Y10.1533
G01 X37.6435 Y10.1396
G01 X37.6390 Y10.0475
G01 X37.6390 Y10.0337
G01 X37.6435 Y9.9416
G01 X37.6448 Y9.9279
G01 X37.6584 Y9.8367
G01 X37.6611 Y9.8232
G01 X37.6835 Y9.7337
G01 X37.6875 Y9.7206
G01 X37.7185 Y9.6337
G01 X37.7238 Y9.6210
G01 X37.7632 Y9.5376
G01 X37.7697 Y9.5255
G01 X37.8171 Y9.4464
G01 X37.8248 Y9.4350
G01 X37.8797 Y9.3609
G01 X37.8884 Y9.3502
G01 X37.9504 Y9.2819
G01 X37.9601 Y9.2722
G01 X38.0284 Y9.2102
G01 X38.0391 Y9.2015
G01 X38.1132 Y9.1466
G01 X38.1246 Y9.1389
G01 X38.2037 Y9.0915
G01 X38.2158 Y9.0850
G01 X38.2992 Y9.0456
G01 X38.3119 Y9.0403
G01 X38.3988 Y9.0093
G01 X38.4119 Y9.0053
G01 X38.5014 Y8.9829
G01 X38.5149 Y8.9802
G01 X38.6061 Y8.9666
G01 X38.6198 Y8.9653
G01 X38.7119 Y8.9608
G01 X38.7257 Y8.9608
G01 X38.8178 Y8.9653
G01 X38.8315 Y8.9666
G01 X38.9227 Y8.9802
G01 X38.9362 Y8.9829
G01 X39.0257 Y9.0053
G01 X39.0388 Y9.0093
G01 X39.1257 Y9.0403
G01 X39.1384 Y9.0456
G01 X39.2218 Y9.0850
G01 X39.2339 Y9.0915
G01 X39.3130 Y9.1389
G01 X39.3244 Y9.1466
G01 X39.3985 Y9.2015
G01 X39.4092 Y9.2102
G01 X39.4775 Y9.2722
G01 X39.4872 Y9.2819
G01 X39.5492 Y9.3502
G01 X39.5579 Y9.3609
G01 X39.6128 Y9.4350
G01 X39.6205 Y9.4464
G01 X39.6679 Y9.5255
G01 X39.6744 Y9.5376
G01 X39.7138 Y9.6210
G01 X39.7191 Y9.6337
G01 X39.7501 Y9.7206
G01 X39.7541 Y9.7337
G01 X39.7765 Y9.8232
G01 X39.7792 Y9.8367
G01 X39.7928 Y9.9279
G01 X39.7941 Y9.9416
G01 X39.7986 Y10.0337
G01 X39.7986 Y10.0475
G00 Z2.0000
G00 X39.7986 Y5.5263
G01 F60.00
G01 Z-0.1500
G01 F120.00
G01 X39.7941 Y5.6184
G01 X39.7928 Y5.6321
G01 X39.7792 Y5.7233
G01 X39.7765 Y5.7368
G01 X39.7541 Y5.8263
G01 X39.7501 Y5.8394
G01 X39.7191 Y5.9263
G01 X39.7138 Y5.9390
G01 X39.6744 Y6.0224
G01 X39.6679 Y6.0345
G01 X39.6205 Y6.1136
G01 X39.6128 Y6.1250
G01 X39.5579 Y6.1991
G01 X39.5492 Y6.2098
G01 X39.4872 Y6.2781
G01 X39.4775 Y6.2878
G01 X39.4092 Y6.3498
G01 X39.3985 Y6.3585
G01 X39.3244 Y6.4134
G01 X39.3130 Y6.4211
G01 X39.2339 Y6.4685
G01 X39.2218 Y6.4750
G01 X39.1384 Y6.5144
G01 X39.1257 Y6.5197
G01 X39.0388 Y6.5507
G01 X39.0257 Y6.5547
G01 X38.9362 Y6.5771
G01 X38.9227 Y6.5798
G01 X38.8315 Y6.5934
G01 X38.8178 Y6.5947
G01 X38.7257 Y6.5992
G01 X38.7119 Y6.5992
G01 X38.6198 Y6.5947
G01 X38.6061 Y6.5934
G01 X38.5149 Y6.5798
G01 X38.5014 Y6.5771
G01 X38.4119 Y6.5547
G01 X38.3988 Y6.5507
G01 X38.3119 Y6.5197
G01 X38.2992 Y6.5144
G01 X38.2158 Y6.4750
G01 X38.2037 Y6.4685
G01 X38.1246 Y6.4211
G01 X38.1132 Y6.4134
G01 X38.0391 Y6.3585
G01 X38.0284 Y6.3498
G01 X37.9601 Y6.2878
G01 X37.9504 Y6.2781
G01 X37.8884 Y6.2098
G01 X37.8797 Y6.1991
G01 X37.8248 Y6.1250
G01 X37.8171 Y6.1136
G01 X37.7697 Y6.0345
G01 X37.7632 Y6.0224
G01 X37.7238 Y5.9390
G01 X37.7185 Y5.9263
G01 X37.6875 Y5.8394
G01 X37.6835 Y5.8263
G01 X37.6611 Y5.7368
G01 X37.6584 Y5.7233
G01 X37.6448 Y5.6321
G01 X37.6435 Y5.6184
G01 X37.6390 Y5.5263
G01 X37.6390 Y5.5125
G01 X37.6435 Y5.4204
G01 X37.6448 Y5.4067
G01 X37.6584 Y5.3155
G01 X37.6611 Y5.3020
G01 X37.6835 Y5.2125
G01 X37.6875 Y5.1994
G01 X37.7185 Y5.1125
G01 X37.7238 Y5.0998
G01 X37.7632 Y5.0164
G01 X37.7697 Y5.0043
G01 X37.8171 Y4.9252
G01 X37.8248 Y4.9138
G01 X37.8797 Y4.8397
G01 X37.8884 Y4.8290
G01 X37.9504 Y4.7607
G01 X37.9601 Y4.7510
G01 X38.0284 Y4.6890
G01 X38.0391 Y4.6803
G01 X38.1132 Y4.6254
G01 X38.1246 Y4.6177
G01 X38.2037 Y4.5703
G01 X38.2158 Y4.5638
G01 X38.2992 Y4.5244
G01 X38.3119 Y4.5191
G01 X38.3988 Y4.4881
G01 X38.4119 Y4.4841
G01 X38.5014 Y4.4617
G01 X38.5149 Y4.4590
G01 X38.6061 Y4.4454
G01 X38.6198 Y4.4441
G01 X38.7119 Y4.4396
G01 X38.7257 Y4.4396
G01 X38.8178 Y4.4441
G01 X38.8315 Y4.4454
G01 X38.9227 Y4.4590
G01 X38.9362 Y4.4617
G01 X39.0257 Y4.4841
G01 X39.0388 Y4.4881
G01 X39.1257 Y4.5191
G01 X39.1384 Y4.5244
G01 X39.2218 Y4.5638
G01 X39.2339 Y4.5703
G01 X39.3130 Y4.6177
G01 X39.3244 Y4.6254
G01 X39.3985 Y4.6803
G01 X39.4092 Y4.6890
G01 X39.4775 Y4.7510
G01 X39.4872 Y4.7607
G01 X39.5492 Y4.8290
G01 X39.5579 Y4.8397
G01 X39.6128 Y4.9138
G01 X39.6205 Y4.9252
G01 X39.6679 Y5.0043
G01 X39.6744 Y5.0164
G01 X39.7138 Y5.0998
G01 X39.7191 Y5.1125
G01 X39.7501 Y5.1994
G01 X39.7541 Y5.2125
G01 X39.7765 Y5.3020
G01 X39.7792 Y5.3155
G01 X39.7928 Y5.4067
G01 X39.7941 Y5.4204
G01 X39.7986 Y5.5125
G01 X39.7986 Y5.5263
G00 Z2.0000
G00 X46.0647 Y4.8457
G01 F60.00
G01 Z-0.1500
G01 F120.00
G01 X56.7927 Y4.8457
G01 X57.1852 Y4.4532
G01 X57.2086 Y4.4317
G01 X57.2193 Y4.4229
G01 X57.2393 Y4.4081
G01 X57.2507 Y4.4004
G01 X57.2721 Y4.3876
G01 X57.2843 Y4.3811
G01 X57.3068 Y4.3705
G01 X57.3195 Y4.3652
G01 X57.3430 Y4.3568
G01 X57.3562 Y4.3528
G01 X57.3804 Y4.3468
G01 X57.3939 Y4.3441
G01 X57.4185 Y4.3404
G01 X57.4322 Y4.3391
G01 X57.4640 Y4.3377
G01 X59.4960 Y4.3377
G01 X59.5278 Y4.3391
G01 X59.5415 Y4.3404
G01 X59.5661 Y4.3441
G01 X59.5796 Y4.3468
G01 X59.6038 Y4.3528
G01 X59.6170 Y4.3568
G01 X59.6405 Y4.3652
G01 X59.6532 Y4.3705
G01 X59.6757 Y4.3811
G01 X59.6879 Y4.3876
G01 X59.7093 Y4.4004
G01 X59.7207 Y4.4081
G01 X59.7407 Y4.4229
G01 X59.7514 Y4.4317
G01 X59.7748 Y4.4532
G01 X60.7797 Y5.4580
G01 X60.8026 Y5.4523
G01 X60.8161 Y5.4496
G01 X60.9073 Y5.4360
G01 X60.9210 Y5.4347
G01 X61.0131 Y5.4302
G01 X61.0269 Y5.4302
G01 X61.1190 Y5.4347
G01 X61.1327 Y5.4360
G01 X61.2239 Y5.4496
G01 X61.2374 Y5.4523
G01 X61.3269 Y5.4747
G01 X61.3400 Y5.4787
G01 X61.4269 Y5.5097
G01 X61.4396 Y5.5150
G01 X61.5230 Y5.5544
G01 X61.5351 Y5.5609
G01 X61.6142 Y5.6083
G01 X61.6256 Y5.6160
G01 X61.6997 Y5.6709
G01 X61.7104 Y5.6796
G01 X61.7787 Y5.7416
G01 X61.7884 Y5.7513
G01 X61.8504 Y5.8196
G01 X61.8591 Y5.8303
G01 X61.9140 Y5.9044
G01 X61.9217 Y5.9158
G01 X61.9691 Y5.9949
G01 X61.9756 Y6.0070
G01 X62.0150 Y6.0904
G01 X62.0203 Y6.1031
G01 X62.0513 Y6.1900
G01 X62.0553 Y6.2031
G01 X62.0777 Y6.2926
G01 X62.0804 Y6.3061
G01 X62.0940 Y6.3973
G01 X62.0953 Y6.4110
G01 X62.0998 Y6.5031
G01 X62.0998 Y6.5169
G01 X62.0953 Y6.6090
G01 X62.0940 Y6.6227
G01 X62.0804 Y6.7139
G01 X62.0777 Y6.7274
G01 X62.0553 Y6.8169
G01 X62.0513 Y6.8300
G01 X62.0203 Y6.9169
G01 X62.0150 Y6.9296
G01 X61.9756 Y7.0130
G01 X61.9691 Y7.0251
G01 X61.9217 Y7.1042
G01 X61.9140 Y7.1156
G01 X61.8591 Y7.1897
G01 X61.8504 Y7.2004
G01 X61.7884 Y7.2687
G01 X61.7787 Y7.2784
G01 X61.7104 Y7.3404
G01 X61.6997 Y7.3491
G01 X61.6256 Y7.4040
G01 X61.6142 Y7.4117
G01 X61.5351 Y7.4591
G01 X61.5230 Y7.4656
G01 X61.4396 Y7.5050
G01 X61.4269 Y7.5103
G01 X61.3400 Y7.5413
G01 X61.3269 Y7.5453
G01 X61.2374 Y7.5677
G01 X61.2239 Y7.5704
G01 X61.1327 Y7.5840
G01 X61.1190 Y7.5853
G01 X61.0269 Y7.5898
G01 X61.0131 Y7.5898
G01 X60.9210 Y7.5853
G01 X60.9073 Y7.5840
G01 X60.8161 Y7.5704
G01 X60.8026 Y7.5677
G01 X60.7131 Y7.5453
G01 X60.7000 Y7.5413
G01 X60.6131 Y7.5103
G01 X60.6004 Y7.5050
G01 X60.5170 Y7.4656
G01 X60.5049 Y7.4591
G01 X60.4258 Y7.4117
G01 X60.4144 Y7.4040
G01 X60.3403 Y7.3491
G01 X60.3296 Y7.3404
G01 X60.2613 Y7.2784
G01 X60.2516 Y7.2687
G01 X60.1896 Y7.2004
G01 X60.1809 Y7.1897
G01 X60.1260 Y7.1156
G01 X60.1183 Y7.1042
G01 X60.0709 Y7.0251
G01 X60.0644 Y7.0130
G01 X60.0250 Y6.9296
G01 X60.0197 Y6.9169
G01 X59.9887 Y6.8300
G01 X59.9847 Y6.8169
G01 X59.9623 Y6.7274
G01 X59.9596 Y6.7139
G01 X59.9460 Y6.6227
G01 X59.9447 Y6.6090
G01 X59.9402 Y6.5169
G01 X59.9402 Y6.5031
G01 X59.9447 Y6.4110
G01 X59.9460 Y6.3973
G01 X59.9596 Y6.3061
G01 X59.9623 Y6.2926
G01 X59.9847 Y6.2031
G01 X59.9887 Y6.1900
G01 X60.0197 Y6.1031
G01 X60.0250 Y6.0904
G01 X60.0644 Y6.0070
G01 X60.0709 Y5.9949
G01 X60.1199 Y5.9135
G01 X59.3327 Y5.1263
G01 X57.6273 Y5.1263
G01 X57.2348 Y5.5188
G01 X57.2114 Y5.5403
G01 X57.2007 Y5.5491
G01 X57.1807 Y5.5639
G01 X57.1693 Y5.5716
G01 X57.1479 Y5.5844
G01 X57.1357 Y5.5909
G01 X57.1132 Y5.6015
G01 X57.1005 Y5.6068
G01 X57.0770 Y5.6152
G01 X57.0638 Y5.6192
G01 X57.0396 Y5.6252
G01 X57.0261 Y5.6279
G01 X57.0015 Y5.6316
G01 X56.9878 Y5.6329
G01 X56.9629 Y5.6342
G01 X46.2948 Y5.6343
G01 X46.2816 Y5.7233
G01 X46.2789 Y5.7368
G01 X46.2565 Y5.8263
G01 X46.2525 Y5.8394
G01 X46.2215 Y5.9263
G01 X46.2162 Y5.9390
G01 X46.1768 Y6.0224
G01 X46.1703 Y6.0345
G01 X46.1229 Y6.1136
G01 X46.1152 Y6.1250
G01 X46.0603 Y6.1991
G01 X46.0516 Y6.2098
G01 X45.9896 Y6.2781
G01 X45.9799 Y6.2878
G01 X45.9116 Y6.3498
G01 X45.9009 Y6.3585
G01 X45.8268 Y6.4134
G01 X45.8154 Y6.4211
G01 X45.7363 Y6.4685
G01 X45.7242 Y6.4750
G01 X45.6408 Y6.5144
G01 X45.6281 Y6.5197
G01 X45.5412 Y6.5507
G01 X45.5281 Y6.5547
G01 X45.4386 Y6.5771
G01 X45.4251 Y6.5798
G01 X45.3339 Y6.5934
G01 X45.3202 Y6.5947
G01 X45.2281 Y6.5992
G01 X45.2143 Y6.5992
G01 X45.1222 Y6.5947
G01 X45.1085 Y6.5934
G01 X45.0173 Y6.5798
G01 X45.0038 Y6.5771
G01 X44.9143 Y6.5547
G01 X44.9012 Y6.5507
G01 X44.8143 Y6.5197
G01 X44.8016 Y6.5144
G01 X44.7182 Y6.4750
G01 X44.7061 Y6.4685
G01 X44.6270 Y6.4211
G01 X44.6156 Y6.4134
G01 X44.5415 Y6.3585
G01 X44.5308 Y6.3498
G01 X44.4625 Y6.2878
G01 X44.4528 Y6.2781
G01 X44.3908 Y6.2098
G01 X44.3821 Y6.1991
G01 X44.3272 Y6.1250
G01 X44.3195 Y6.1136
G01 X44.2721 Y6.0345
G01 X44.2656 Y6.0224
G01 X44.2262 Y5.9390
G01 X44.2209 Y5.9263
G01 X44.1899 Y5.8394
G01 X44.1859 Y5.8263
G01 X44.1635 Y5.7368
G01 X44.1608 Y5.7233
G01 X44.1472 Y5.6321
G01 X44.1459 Y5.6184
G01 X44.1414 Y5.5263
G01 X44.1414 Y5.5125
G01 X44.1459 Y5.4204
G01 X44.1472 Y5.4067
G01 X44.1608 Y5.3155
G01 X44.1635 Y5.3020
G01 X44.1859 Y5.2125
G01 X44.1899 Y5.1994
G01 X44.2209 Y5.1125
G01 X44.2262 Y5.0998
G01 X44.2656 Y5.0164
G01 X44.2721 Y5.0043
G01 X44.3195 Y4.9252
G01 X44.3272 Y4.9138
G01 X44.3821 Y4.8397
G01 X44.3908 Y4.8290
G01 X44.4528 Y4.7607
G01 X44.4625 Y4.7510
G01 X44.5308 Y4.6890
G01 X44.5415 Y4.6803
G01 X44.6156 Y4.6254
G01 X44.6270 Y4.6177
G01 X44.7061 Y4.5703
G01 X44.7182 Y4.5638
G01 X44.8016 Y4.5244
G01 X44.8143 Y4.5191
G01 X44.9012 Y4.4881
G01 X44.9143 Y4.4841
G01 X45.0038 Y4.4617
G01 X45.0173 Y4.4590
G01 X45.1085 Y4.4454
G01 X45.1222 Y4.4441
G01 X45.2143 Y4.4396
G01 X45.2281 Y4.4396
G01 X45.3202 Y4.4441
G01 X45.3339 Y4.4454
G01 X45.4251 Y4.4590
G01 X45.4386 Y4.4617
G01 X45.5281 Y4.4841
G01 X45.5412 Y4.4881
G01 X45.6281 Y4.5191
G01 X45.6408 Y4.5244
G01 X45.7242 Y4.5638
G01 X45.7363 Y4.5703
G01 X45.8154 Y4.6177
G01 X45.8268 Y4.6254
G01 X45.9009 Y4.6803
G01 X45.9116 Y4.6890
G01 X45.9799 Y4.7510
G01 X45.9896 Y4.7607
G01 X46.0516 Y4.8290
G01 X46.0647 Y4.8457
G00 Z2.0000
G00 X44.9783 Y11.0920
G01 F60.00
G01 Z-0.1500
G01 F120.00
G01 X44.9143 Y11.0759
G01 X44.9012 Y11.0719
G01 X44.8143 Y11.0409
G01 X44.8016 Y11.0356
G01 X44.7182 Y10.9962
G01 X44.7061 Y10.9897
G01 X44.6270 Y10.9423
G01 X44.6156 Y10.9346
G01 X44.5415 Y10.8797
G01 X44.5308 Y10.8710
G01 X44.4625 Y10.8090
G01 X44.4528 Y10.7993
G01 X44.3908 Y10.7310
G01 X44.3821 Y10.7203
G01 X44.3272 Y10.6462
G01 X44.3195 Y10.6348
G01 X44.2721 Y10.5557
G01 X44.2656 Y10.5436
G01 X44.2262 Y10.4602
G01 X44.2209 Y10.4475
G01 X44.1899 Y10.3606
G01 X44.1859 Y10.3475
G01 X44.1635 Y10.2580
G01 X44.1608 Y10.2445
G01 X44.1472 Y10.1533
G01 X44.1459 Y10.1396
G01 X44.1414 Y10.0475
G01 X44.1414 Y10.0337
G01 X44.1459 Y9.9416
G01 X44.1472 Y9.9279
G01 X44.1608 Y9.8367
G01 X44.1635 Y9.8232
G01 X44.1859 Y9.7337
G01 X44.1899 Y9.7206
G01 X44.2209 Y9.6337
G01 X44.2262 Y9.6210
G01 X44.2656 Y9.5376
G01 X44.2721 Y9.5255
G01 X44.3195 Y9.4464
G01 X44.3272 Y9.4350
G01 X44.3821 Y9.3609
G01 X44.3908 Y9.3502
G01 X44.4528 Y9.2819
G01 X44.4625 Y9.2722
G01 X44.5308 Y9.2102
G01 X44.5415 Y9.2015
G01 X44.6156 Y9.1466
G01 X44.6270 Y9.1389
G01 X44.7061 Y9.0915
G01 X44.7182 Y9.0850
G01 X44.8016 Y9.0456
G01 X44.8143 Y9.0403
G01 X44.9012 Y9.0093
G01 X44.9143 Y9.0053
G01 X45.0038 Y8.9829
G01 X45.0173 Y8.9802
G01 X45.1085 Y8.9666
G01 X45.1222 Y8.9653
G01 X45.2143 Y8.9608
G01 X45.2281 Y8.9608
G01 X45.3202 Y8.9653
G01 X45.3339 Y8.9666
G01 X45.4251 Y8.9802
G01 X45.4386 Y8.9829
G01 X45.5281 Y9.0053
G01 X45.5412 Y9.0093
G01 X45.6281 Y9.0403
G01 X45.6408 Y9.0456
G01 X45.7242 Y9.0850
G01 X45.7363 Y9.0915
G01 X45.8154 Y9.1389
G01 X45.8268 Y9.1466
G01 X45.9009 Y9.2015
G01 X45.9116 Y9.2102
G01 X45.9799 Y9.2722
G01 X45.9896 Y9.2819
G01 X46.0516 Y9.3502
G01 X46.0603 Y9.3609
G01 X46.1152 Y9.4350
G01 X46.1229 Y9.4464
G01 X46.1703 Y9.5255
G01 X46.1768 Y9.5376
G01 X46.2162 Y9.6210
G01 X46.2215 Y9.6337
G01 X46.2525 Y9.7206
G01 X46.2565 Y9.7337
G01 X46.2789 Y9.8232
G01 X46.2816 Y9.8367
G01 X46.2952 Y9.9279
G01 X46.2965 Y9.9416
G01 X46.3010 Y10.0337
G01 X46.3010 Y10.0475
G01 X46.2965 Y10.1396
G01 X46.2952 Y10.1533
G01 X46.2816 Y10.2445
G01 X46.2789 Y10.2580
G01 X46.2565 Y10.3475
G01 X46.2525 Y10.3606
G01 X46.2215 Y10.4475
G01 X46.2162 Y10.4602
G01 X46.1768 Y10.5436
G01 X46.1703 Y10.5557
G01 X46.1229 Y10.6348
G01 X46.1152 Y10.6462
G01 X46.0603 Y10.7203
G01 X46.0516 Y10.7310
G01 X45.9896 Y10.7993
G01 X45.9799 Y10.8090
G01 X45.9116 Y10.8710
G01 X45.9009 Y10.8797
G01 X45.8897 Y10.8880
G01 X50.2477 Y15.2460
G01 X50.2822 Y15.2148
G01 X50.2928 Y15.2061
G01 X50.3529 Y15.1615
G01 X50.3644 Y15.1538
G01 X50.4285 Y15.1154
G01 X50.4407 Y15.1089
G01 X50.5083 Y15.0769
G01 X50.5210 Y15.0716
G01 X50.5915 Y15.0464
G01 X50.6046 Y15.0424
G01 X50.6772 Y15.0243
G01 X50.6907 Y15.0216
G01 X50.7647 Y15.0106
G01 X50.7784 Y15.0093
G01 X50.8531 Y15.0056
G01 X50.8669 Y15.0056
G01 X50.9416 Y15.0093
G01 X50.9553 Y15.0106
G01 X51.0293 Y15.0216
G01 X51.0428 Y15.0243
G01 X51.1154 Y15.0424
G01 X51.1285 Y15.0464
G01 X51.1990 Y15.0716
G01 X51.2117 Y15.0769
G01 X51.2793 Y15.1089
G01 X51.2915 Y15.1154
G01 X51.3556 Y15.1538
G01 X51.3671 Y15.1615
G01 X51.4272 Y15.2061
G01 X51.4378 Y15.2148
G01 X51.4932 Y15.2650
G01 X51.5030 Y15.2748
G01 X51.5532 Y15.3302
G01 X51.5619 Y15.3408
G01 X51.6065 Y15.4009
G01 X51.6142 Y15.4124
G01 X51.6526 Y15.4765
G01 X51.6591 Y15.4887
G01 X51.6911 Y15.5563
G01 X51.6964 Y15.5690
G01 X51.7216 Y15.6395
G01 X51.7256 Y15.6526
G01 X51.7437 Y15.7252
G01 X51.7464 Y15.7387
G01 X51.7574 Y15.8127
G01 X51.7587 Y15.8264
G01 X51.7626 Y15.9080
G01 X51.7624 Y17.4389
G01 X51.7587 Y17.5136
G01 X51.7574 Y17.5273
G01 X51.7464 Y17.6013
G01 X51.7437 Y17.6148
G01 X51.7256 Y17.6874
G01 X51.7216 Y17.7005
G01 X51.6964 Y17.7710
G01 X51.6911 Y17.7837
G01 X51.6591 Y17.8513
G01 X51.6526 Y17.8635
G01 X51.6142 Y17.9276
G01 X51.6065 Y17.9391
G01 X51.5619 Y17.9992
G01 X51.5532 Y18.0098
G01 X51.5030 Y18.0652
G01 X51.4932 Y18.0750
G01 X51.4378 Y18.1252
G01 X51.4272 Y18.1339
G01 X51.3671 Y18.1785
G01 X51.3556 Y18.1862
G01 X51.2915 Y18.2246
G01 X51.2793 Y18.2311
G01 X51.2117 Y18.2631
G01 X51.1990 Y18.2684
G01 X51.1285 Y18.2936
G01 X51.1154 Y18.2976
G01 X51.0428 Y18.3157
G01 X51.0293 Y18.3184
G01 X50.9553 Y18.3294
G01 X50.9416 Y18.3307
G01 X50.8669 Y18.3344
G01 X50.8531 Y18.3344
G01 X50.7784 Y18.3307
G01 X50.7647 Y18.3294
G01 X50.6907 Y18.3184
G01 X50.6772 Y18.3157
G01 X50.6046 Y18.2976
G01 X50.5915 Y18.2936
G01 X50.5210 Y18.2684
G01 X50.5083 Y18.2631
G01 X50.4407 Y18.2311
G01 X50.4285 Y18.2246
G01 X50.3644 Y18.1862
G01 X50.3529 Y18.1785
G01 X50.2928 Y18.1339
G01 X50.2822 Y18.1252
G01 X50.2268 Y18.0750
G01 X50.2170 Y18.0652
G01 X50.1668 Y18.0098
G01 X50.1581 Y17.9992
G01 X50.1135 Y17.9391
G01 X50.1058 Y17.9276
G01 X50.0674 Y17.8635
G01 X50.0609 Y17.8513
G01 X50.0289 Y17.7837
G01 X50.0236 Y17.7710
G01 X49.9984 Y17.7005
G01 X49.9944 Y17.6874
G01 X49.9763 Y17.6148
G01 X49.9736 Y17.6013
G01 X49.9626 Y17.5273
G01 X49.9613 Y17.5136
G01 X49.9574 Y17.4320
G01 X49.9574 Y16.0711
G01 X44.9783 Y11.0920
G00 Z2.0000
G00 X53.0057 Y15.0971
G01 F60.00
G01 Z-0.1500
G01 F120.00
G01 X53.0057 Y11.8440
G01 X53.0071 Y11.8122
G01 X53.0084 Y11.7985
G01 X53.0121 Y11.7739
G01 X53.0148 Y11.7604
G01 X53.0208 Y11.7362
G01 X53.0248 Y11.7230
G01 X53.0332 Y11.6995
G01 X53.0385 Y11.6868
G01 X53.0491 Y11.6643
G01 X53.0556 Y11.6521
G01 X53.0684 Y11.6307
G01 X53.0761 Y11.6193
G01 X53.0909 Y11.5993
G01 X53.0997 Y11.5886
G01 X53.1212 Y11.5652
G01 X57.5799 Y7.1065
G01 X57.5309 Y7.0251
G01 X57.5244 Y7.0130
G01 X57.4850 Y6.9296
G01 X57.4797 Y6.9169
G01 X57.4487 Y6.8300
G01 X57.4447 Y6.8169
G01 X57.4223 Y6.7274
G01 X57.4196 Y6.7139
G01 X57.4060 Y6.6227
G01 X57.4047 Y6.6090
G01 X57.4002 Y6.5169
G01 X57.4002 Y6.5031
G01 X57.4047 Y6.4110
G01 X57.4060 Y6.3973
G01 X57.4196 Y6.3061
G01 X57.4223 Y6.2926
G01 X57.4447 Y6.2031
G01 X57.4487 Y6.1900
G01 X57.4797 Y6.1031
G01 X57.4850 Y6.0904
G01 X57.5244 Y6.0070
G01 X57.5309 Y5.9949
G01 X57.5783 Y5.9158
G01 X57.5860 Y5.9044
G01 X57.6409 Y5.8303
G01 X57.6496 Y5.8196
G01 X57.7116 Y5.7513
G01 X57.7213 Y5.7416
G01 X57.7896 Y5.6796
G01 X57.8003 Y5.6709
G01 X57.8744 Y5.6160
G01 X57.8858 Y5.6083
G01 X57.9649 Y5.5609
G01 X57.9770 Y5.5544
G01 X58.0604 Y5.5150
G01 X58.0731 Y5.5097
G01 X58.1600 Y5.4787
G01 X58.1731 Y5.4747
G01 X58.2626 Y5.4523
G01 X58.2761 Y5.4496
G01 X58.3673 Y5.4360
G01 X58.3810 Y5.4347
G01 X58.4731 Y5.4302
G01 X58.4869 Y5.4302
G01 X58.5790 Y5.4347
G01 X58.5927 Y5.4360
G01 X58.6839 Y5.4496
G01 X58.6974 Y5.4523
G01 X58.7869 Y5.4747
G01 X58.8000 Y5.4787
G01 X58.8869 Y5.5097
G01 X58.8996 Y5.5150
G01 X58.9830 Y5.5544
G01 X58.9951 Y5.5609
G01 X59.0742 Y5.6083
G01 X59.0856 Y5.6160
G01 X59.1597 Y5.6709
G01 X59.1704 Y5.6796
G01 X59.2387 Y5.7416
G01 X59.2484 Y5.7513
G01 X59.3104 Y5.8196
G01 X59.3191 Y5.8303
G01 X59.3740 Y5.9044
G01 X59.3817 Y5.9158
G01 X59.4291 Y5.9949
G01 X59.4356 Y6.0070
G01 X59.4750 Y6.0904
G01 X59.4803 Y6.1031
G01 X59.5113 Y6.1900
G01 X59.5153 Y6.2031
G01 X59.5377 Y6.2926
G01 X59.5404 Y6.3061
G01 X59.5540 Y6.3973
G01 X59.5553 Y6.4110
G01 X59.5598 Y6.5031
G01 X59.5598 Y6.5169
G01 X59.5553 Y6.6090
G01 X59.5540 Y6.6227
G01 X59.5404 Y6.7139
G01 X59.5377 Y6.7274
G01 X59.5153 Y6.8169
G01 X59.5113 Y6.8300
G01 X59.4803 Y6.9169
G01 X59.4750 Y6.9296
G01 X59.4356 Y7.0130
G01 X59.4291 Y7.0251
G01 X59.3817 Y7.1042
G01 X59.3740 Y7.1156
G01 X59.3191 Y7.1897
G01 X59.3104 Y7.2004
G01 X59.2484 Y7.2687
G01 X59.2387 Y7.2784
G01 X59.1704 Y7.3404
G01 X59.1597 Y7.3491
G01 X59.0856 Y7.4040
G01 X59.0742 Y7.4117
G01 X58.9951 Y7.4591
G01 X58.9830 Y7.4656
G01 X58.8996 Y7.5050
G01 X58.8869 Y7.5103
G01 X58.8000 Y7.5413
G01 X58.7869 Y7.5453
G01 X58.6974 Y7.5677
G01 X58.6839 Y7.5704
G01 X58.5927 Y7.5840
G01 X58.5790 Y7.5853
G01 X58.4869 Y7.5898
G01 X58.4731 Y7.5898
G01 X58.3810 Y7.5853
G01 X58.3673 Y7.5840
G01 X58.2761 Y7.5704
G01 X58.2626 Y7.5677
G01 X58.2397 Y7.5620
G01 X53.7943 Y12.0073
G01 X53.7943 Y15.0971
G01 X53.8193 Y15.1089
G01 X53.8315 Y15.1154
G01 X53.8956 Y15.1538
G01 X53.9071 Y15.1615
G01 X53.9672 Y15.2061
G01 X53.9778 Y15.2148
G01 X54.0332 Y15.2650
G01 X54.0430 Y15.2748
G01 X54.0932 Y15.3302
G01 X54.1019 Y15.3408
G01 X54.1465 Y15.4009
G01 X54.1542 Y15.4124
G01 X54.1926 Y15.4765
G01 X54.1991 Y15.4887
G01 X54.2311 Y15.5563
G01 X54.2364 Y15.5690
G01 X54.2616 Y15.6395
G01 X54.2656 Y15.6526
G01 X54.2837 Y15.7252
G01 X54.2864 Y15.7387
G01 X54.2974 Y15.8127
G01 X54.2987 Y15.8264
G01 X54.3026 Y15.9080
G01 X54.3024 Y17.4389
G01 X54.2987 Y17.5136
G01 X54.2974 Y17.5273
G01 X54.2864 Y17.6013
G01 X54.2837 Y17.6148
G01 X54.2656 Y17.6874
G01 X54.2616 Y17.7005
G01 X54.2364 Y17.7710
G01 X54.2311 Y17.7837
G01 X54.1991 Y17.8513
G01 X54.1926 Y17.8635
G01 X54.1542 Y17.9276
G01 X54.1465 Y17.9391
G01 X54.1019 Y17.9992
G01 X54.0932 Y18.0098
G01 X54.0430 Y18.0652
G01 X54.0332 Y18.0750
G01 X53.9778 Y18.1252
G01 X53.9672 Y18.1339
G01 X53.9071 Y18.1785
G01 X53.8956 Y18.1862
G01 X53.8315 Y18.2246
G01 X53.8193 Y18.2311
G01 X53.7517 Y18.2631
G01 X53.7390 Y18.2684
G01 X53.6685 Y18.2936
G01 X53.6554 Y18.2976
G01 X53.5828 Y18.3157
G01 X53.5693 Y18.3184
G01 X53.4953 Y18.3294
G01 X53.4816 Y18.3307
G01 X53.4069 Y18.3344
G01 X53.3931 Y18.3344
G01 X53.3184 Y18.3307
G01 X53.3047 Y18.3294
G01 X53.2307 Y18.3184
G01 X53.2172 Y18.3157
G01 X53.1446 Y18.2976
G01 X53.1315 Y18.2936
G01 X53.0610 Y18.2684
G01 X53.0483 Y18.2631
G01 X52.9807 Y18.2311
G01 X52.9685 Y18.2246
G01 X52.9044 Y18.1862
G01 X52.8929 Y18.1785
G01 X52.8328 Y18.1339
G01 X52.8222 Y18.1252
G01 X52.7668 Y18.0750
G01 X52.7570 Y18.0652
G01 X52.7068 Y18.0098
G01 X52.6981 Y17.9992
G01 X52.6535 Y17.9391
G01 X52.6458 Y17.9276
G01 X52.6074 Y17.8635
G01 X52.6009 Y17.8513
G01 X52.5689 Y17.7837
G01 X52.5636 Y17.7710
G01 X52.5384 Y17.7005
G01 X52.5344 Y17.6874
G01 X52.5163 Y17.6148
G01 X52.5136 Y17.6013
G01 X52.5026 Y17.5273
G01 X52.5013 Y17.5136
G01 X52.4974 Y17.4320
G01 X52.4974 Y15.9080
G01 X52.5013 Y15.8264
G01 X52.5026 Y15.8127
G01 X52.5136 Y15.7387
G01 X52.5163 Y15.7252
G01 X52.5344 Y15.6526
G01 X52.5384 Y15.6395
G01 X52.5636 Y15.5690
G01 X52.5689 Y15.5563
G01 X52.6009 Y15.4887
G01 X52.6074 Y15.4765
G01 X52.6458 Y15.4124
G01 X52.6535 Y15.4009
G01 X52.6981 Y15.3408
G01 X52.7068 Y15.3302
G01 X52.7570 Y15.2748
G01 X52.7668 Y15.2650
G01 X52.8222 Y15.2148
G01 X52.8328 Y15.2061
G01 X52.8929 Y15.1615
G01 X52.9044 Y15.1538
G01 X52.9685 Y15.1154
G01 X52.9807 Y15.1089
G01 X53.0057 Y15.0971
G00 Z2.0000
M05
G00 Z2.0000
G00 Z5.00
G00 X0.0 Y0.0

