(G-CODE GENERATED BY FLATCAM v8.991 - www.flatcam.org - Version Date: 2019/12/27)

(Name: 1)
(Type: G-code from Geometry)
(Units: MM)

(Created on Thursday, 20 July 2023 at 13:09)

(TOOL DIAMETER: 0.7 mm)
(Feedrate: 120.0 mm/min)
(Feedrate_Z: 60.0 mm/min)
(Feedrate rapids 1500.0 mm/min)

(Z_Cut: -0.0299 mm)
(Z_Move: 2.0 mm)
(Z Toolchange: 15.0 mm)
(X,Y Toolchange: 0.0000, 0.0000 mm)
(Z Start: None mm)
(Z End: 2.0 mm)
(Steps per circle: 64)
(Preprocessor Geometry: default)

(X range:   38.1294 ...   61.6094  mm)
(Y range:    4.9300 ...   17.8440  mm)

(Spindle Speed: None RPM)
G21
G90
G94

(Tool change)
M06

(Probing new tool)
G30

(Give chance for removing probing wires)
M06

(Zeroing Z-axis after probing)
G92 X0 Y0 Z0


G01 F120.00
G00 Z2.0000

M03
G00 X38.8877 Y5.5194
G01 F60.00
G01 Z-0.0299
G01 F120.00
G01 X38.8869 Y5.5028
G01 X38.8844 Y5.4865
G01 X38.8804 Y5.4704
G01 X38.8748 Y5.4548
G01 X38.8677 Y5.4398
G01 X38.8592 Y5.4256
G01 X38.8493 Y5.4123
G01 X38.8382 Y5.4000
G01 X38.8259 Y5.3889
G01 X38.8126 Y5.3790
G01 X38.7984 Y5.3705
G01 X38.7834 Y5.3634
G01 X38.7678 Y5.3578
G01 X38.7517 Y5.3538
G01 X38.7354 Y5.3513
G01 X38.7188 Y5.3505
G01 X38.7022 Y5.3513
G01 X38.6859 Y5.3538
G01 X38.6698 Y5.3578
G01 X38.6542 Y5.3634
G01 X38.6392 Y5.3705
G01 X38.6250 Y5.3790
G01 X38.6117 Y5.3889
G01 X38.5994 Y5.4000
G01 X38.5883 Y5.4123
G01 X38.5784 Y5.4256
G01 X38.5699 Y5.4398
G01 X38.5628 Y5.4548
G01 X38.5572 Y5.4704
G01 X38.5532 Y5.4865
G01 X38.5507 Y5.5028
G01 X38.5499 Y5.5194
G01 X38.5507 Y5.5360
G01 X38.5532 Y5.5523
G01 X38.5572 Y5.5684
G01 X38.5628 Y5.5840
G01 X38.5699 Y5.5990
G01 X38.5784 Y5.6132
G01 X38.5883 Y5.6265
G01 X38.5994 Y5.6388
G01 X38.6117 Y5.6499
G01 X38.6250 Y5.6598
G01 X38.6392 Y5.6683
G01 X38.6542 Y5.6754
G01 X38.6698 Y5.6810
G01 X38.6859 Y5.6850
G01 X38.7022 Y5.6875
G01 X38.7188 Y5.6883
G01 X38.7354 Y5.6875
G01 X38.7517 Y5.6850
G01 X38.7678 Y5.6810
G01 X38.7834 Y5.6754
G01 X38.7984 Y5.6683
G01 X38.8126 Y5.6598
G01 X38.8259 Y5.6499
G01 X38.8382 Y5.6388
G01 X38.8493 Y5.6265
G01 X38.8592 Y5.6132
G01 X38.8677 Y5.5990
G01 X38.8748 Y5.5840
G01 X38.8804 Y5.5684
G01 X38.8844 Y5.5523
G01 X38.8869 Y5.5360
G01 X38.8877 Y5.5194
G01 X39.0979 Y5.5194
G01 X39.0961 Y5.4822
G01 X39.0906 Y5.4454
G01 X39.0816 Y5.4093
G01 X39.0691 Y5.3743
G01 X39.0532 Y5.3407
G01 X39.0340 Y5.3088
G01 X39.0119 Y5.2789
G01 X38.9869 Y5.2513
G01 X38.9593 Y5.2263
G01 X38.9294 Y5.2042
G01 X38.8975 Y5.1850
G01 X38.8639 Y5.1691
G01 X38.8289 Y5.1566
G01 X38.7928 Y5.1476
G01 X38.7560 Y5.1421
G01 X38.7188 Y5.1403
G01 X38.6816 Y5.1421
G01 X38.6448 Y5.1476
G01 X38.6087 Y5.1566
G01 X38.5737 Y5.1691
G01 X38.5401 Y5.1850
G01 X38.5082 Y5.2042
G01 X38.4783 Y5.2263
G01 X38.4507 Y5.2513
G01 X38.4257 Y5.2789
G01 X38.4036 Y5.3088
G01 X38.3844 Y5.3407
G01 X38.3685 Y5.3743
G01 X38.3560 Y5.4093
G01 X38.3470 Y5.4454
G01 X38.3415 Y5.4822
G01 X38.3397 Y5.5194
G01 X38.3415 Y5.5566
G01 X38.3470 Y5.5934
G01 X38.3560 Y5.6295
G01 X38.3685 Y5.6645
G01 X38.3844 Y5.6981
G01 X38.4036 Y5.7300
G01 X38.4257 Y5.7599
G01 X38.4507 Y5.7875
G01 X38.4783 Y5.8125
G01 X38.5082 Y5.8346
G01 X38.5401 Y5.8538
G01 X38.5737 Y5.8697
G01 X38.6087 Y5.8822
G01 X38.6448 Y5.8912
G01 X38.6816 Y5.8967
G01 X38.7188 Y5.8985
G01 X38.7560 Y5.8967
G01 X38.7928 Y5.8912
G01 X38.8289 Y5.8822
G01 X38.8639 Y5.8697
G01 X38.8975 Y5.8538
G01 X38.9294 Y5.8346
G01 X38.9593 Y5.8125
G01 X38.9869 Y5.7875
G01 X39.0119 Y5.7599
G01 X39.0340 Y5.7300
G01 X39.0532 Y5.6981
G01 X39.0691 Y5.6645
G01 X39.0816 Y5.6295
G01 X39.0906 Y5.5934
G01 X39.0961 Y5.5566
G01 X39.0979 Y5.5194
G01 X39.3082 Y5.5194
G01 X39.3053 Y5.4616
G01 X39.2969 Y5.4044
G01 X39.2828 Y5.3483
G01 X39.2633 Y5.2939
G01 X39.2386 Y5.2416
G01 X39.2088 Y5.1920
G01 X39.1744 Y5.1455
G01 X39.1356 Y5.1026
G01 X39.0927 Y5.0638
G01 X39.0462 Y5.0294
G01 X38.9966 Y4.9996
G01 X38.9443 Y4.9749
G01 X38.8899 Y4.9554
G01 X38.8338 Y4.9413
G01 X38.7766 Y4.9329
G01 X38.7188 Y4.9300
G01 X38.6610 Y4.9329
G01 X38.6038 Y4.9413
G01 X38.5477 Y4.9554
G01 X38.4933 Y4.9749
G01 X38.4410 Y4.9996
G01 X38.3914 Y5.0294
G01 X38.3449 Y5.0638
G01 X38.3020 Y5.1026
G01 X38.2632 Y5.1455
G01 X38.2288 Y5.1920
G01 X38.1990 Y5.2416
G01 X38.1743 Y5.2939
G01 X38.1548 Y5.3483
G01 X38.1407 Y5.4044
G01 X38.1323 Y5.4616
G01 X38.1294 Y5.5194
G01 X38.1323 Y5.5772
G01 X38.1407 Y5.6344
G01 X38.1548 Y5.6905
G01 X38.1743 Y5.7449
G01 X38.1990 Y5.7972
G01 X38.2288 Y5.8468
G01 X38.2632 Y5.8933
G01 X38.3020 Y5.9362
G01 X38.3449 Y5.9750
G01 X38.3914 Y6.0094
G01 X38.4410 Y6.0392
G01 X38.4933 Y6.0639
G01 X38.5477 Y6.0834
G01 X38.6038 Y6.0975
G01 X38.6610 Y6.1059
G01 X38.7188 Y6.1088
G01 X38.7766 Y6.1059
G01 X38.8338 Y6.0975
G01 X38.8899 Y6.0834
G01 X38.9443 Y6.0639
G01 X38.9966 Y6.0392
G01 X39.0462 Y6.0094
G01 X39.0927 Y5.9750
G01 X39.1356 Y5.9362
G01 X39.1744 Y5.8933
G01 X39.2088 Y5.8468
G01 X39.2386 Y5.7972
G01 X39.2633 Y5.7449
G01 X39.2828 Y5.6905
G01 X39.2969 Y5.6344
G01 X39.3053 Y5.5772
G01 X39.3082 Y5.5194
G00 Z2.0000
G00 X39.3082 Y10.0406
G01 F60.00
G01 Z-0.0299
G01 F120.00
G01 X39.3053 Y10.0984
G01 X39.2969 Y10.1556
G01 X39.2828 Y10.2117
G01 X39.2633 Y10.2661
G01 X39.2386 Y10.3184
G01 X39.2088 Y10.3680
G01 X39.1744 Y10.4145
G01 X39.1356 Y10.4574
G01 X39.0927 Y10.4962
G01 X39.0462 Y10.5306
G01 X38.9966 Y10.5604
G01 X38.9443 Y10.5851
G01 X38.8899 Y10.6046
G01 X38.8338 Y10.6187
G01 X38.7766 Y10.6271
G01 X38.7188 Y10.6300
G01 X38.6610 Y10.6271
G01 X38.6038 Y10.6187
G01 X38.5477 Y10.6046
G01 X38.4933 Y10.5851
G01 X38.4410 Y10.5604
G01 X38.3914 Y10.5306
G01 X38.3449 Y10.4962
G01 X38.3020 Y10.4574
G01 X38.2632 Y10.4145
G01 X38.2288 Y10.3680
G01 X38.1990 Y10.3184
G01 X38.1743 Y10.2661
G01 X38.1548 Y10.2117
G01 X38.1407 Y10.1556
G01 X38.1323 Y10.0984
G01 X38.1294 Y10.0406
G01 X38.1323 Y9.9828
G01 X38.1407 Y9.9256
G01 X38.1548 Y9.8695
G01 X38.1743 Y9.8151
G01 X38.1990 Y9.7628
G01 X38.2288 Y9.7132
G01 X38.2632 Y9.6667
G01 X38.3020 Y9.6238
G01 X38.3449 Y9.5850
G01 X38.3914 Y9.5506
G01 X38.4410 Y9.5208
G01 X38.4933 Y9.4961
G01 X38.5477 Y9.4766
G01 X38.6038 Y9.4625
G01 X38.6610 Y9.4541
G01 X38.7188 Y9.4512
G01 X38.7766 Y9.4541
G01 X38.8338 Y9.4625
G01 X38.8899 Y9.4766
G01 X38.9443 Y9.4961
G01 X38.9966 Y9.5208
G01 X39.0462 Y9.5506
G01 X39.0927 Y9.5850
G01 X39.1356 Y9.6238
G01 X39.1744 Y9.6667
G01 X39.2088 Y9.7132
G01 X39.2386 Y9.7628
G01 X39.2633 Y9.8151
G01 X39.2828 Y9.8695
G01 X39.2969 Y9.9256
G01 X39.3053 Y9.9828
G01 X39.3082 Y10.0406
G01 X39.0979 Y10.0406
G01 X39.0961 Y10.0778
G01 X39.0906 Y10.1146
G01 X39.0816 Y10.1507
G01 X39.0691 Y10.1857
G01 X39.0532 Y10.2193
G01 X39.0340 Y10.2512
G01 X39.0119 Y10.2811
G01 X38.9869 Y10.3087
G01 X38.9593 Y10.3337
G01 X38.9294 Y10.3558
G01 X38.8975 Y10.3750
G01 X38.8639 Y10.3909
G01 X38.8289 Y10.4034
G01 X38.7928 Y10.4124
G01 X38.7560 Y10.4179
G01 X38.7188 Y10.4197
G01 X38.6816 Y10.4179
G01 X38.6448 Y10.4124
G01 X38.6087 Y10.4034
G01 X38.5737 Y10.3909
G01 X38.5401 Y10.3750
G01 X38.5082 Y10.3558
G01 X38.4783 Y10.3337
G01 X38.4507 Y10.3087
G01 X38.4257 Y10.2811
G01 X38.4036 Y10.2512
G01 X38.3844 Y10.2193
G01 X38.3685 Y10.1857
G01 X38.3560 Y10.1507
G01 X38.3470 Y10.1146
G01 X38.3415 Y10.0778
G01 X38.3397 Y10.0406
G01 X38.3415 Y10.0034
G01 X38.3470 Y9.9666
G01 X38.3560 Y9.9305
G01 X38.3685 Y9.8955
G01 X38.3844 Y9.8619
G01 X38.4036 Y9.8300
G01 X38.4257 Y9.8001
G01 X38.4507 Y9.7725
G01 X38.4783 Y9.7475
G01 X38.5082 Y9.7254
G01 X38.5401 Y9.7062
G01 X38.5737 Y9.6903
G01 X38.6087 Y9.6778
G01 X38.6448 Y9.6688
G01 X38.6816 Y9.6633
G01 X38.7188 Y9.6615
G01 X38.7560 Y9.6633
G01 X38.7928 Y9.6688
G01 X38.8289 Y9.6778
G01 X38.8639 Y9.6903
G01 X38.8975 Y9.7062
G01 X38.9294 Y9.7254
G01 X38.9593 Y9.7475
G01 X38.9869 Y9.7725
G01 X39.0119 Y9.8001
G01 X39.0340 Y9.8300
G01 X39.0532 Y9.8619
G01 X39.0691 Y9.8955
G01 X39.0816 Y9.9305
G01 X39.0906 Y9.9666
G01 X39.0961 Y10.0034
G01 X39.0979 Y10.0406
G01 X38.8877 Y10.0406
G01 X38.8869 Y10.0572
G01 X38.8844 Y10.0735
G01 X38.8804 Y10.0896
G01 X38.8748 Y10.1052
G01 X38.8677 Y10.1202
G01 X38.8592 Y10.1344
G01 X38.8493 Y10.1477
G01 X38.8382 Y10.1600
G01 X38.8259 Y10.1711
G01 X38.8126 Y10.1810
G01 X38.7984 Y10.1895
G01 X38.7834 Y10.1966
G01 X38.7678 Y10.2022
G01 X38.7517 Y10.2062
G01 X38.7354 Y10.2087
G01 X38.7188 Y10.2095
G01 X38.7022 Y10.2087
G01 X38.6859 Y10.2062
G01 X38.6698 Y10.2022
G01 X38.6542 Y10.1966
G01 X38.6392 Y10.1895
G01 X38.6250 Y10.1810
G01 X38.6117 Y10.1711
G01 X38.5994 Y10.1600
G01 X38.5883 Y10.1477
G01 X38.5784 Y10.1344
G01 X38.5699 Y10.1202
G01 X38.5628 Y10.1052
G01 X38.5572 Y10.0896
G01 X38.5532 Y10.0735
G01 X38.5507 Y10.0572
G01 X38.5499 Y10.0406
G01 X38.5507 Y10.0240
G01 X38.5532 Y10.0077
G01 X38.5572 Y9.9916
G01 X38.5628 Y9.9760
G01 X38.5699 Y9.9610
G01 X38.5784 Y9.9468
G01 X38.5883 Y9.9335
G01 X38.5994 Y9.9212
G01 X38.6117 Y9.9101
G01 X38.6250 Y9.9002
G01 X38.6392 Y9.8917
G01 X38.6542 Y9.8846
G01 X38.6698 Y9.8790
G01 X38.6859 Y9.8750
G01 X38.7022 Y9.8725
G01 X38.7188 Y9.8717
G01 X38.7354 Y9.8725
G01 X38.7517 Y9.8750
G01 X38.7678 Y9.8790
G01 X38.7834 Y9.8846
G01 X38.7984 Y9.8917
G01 X38.8126 Y9.9002
G01 X38.8259 Y9.9101
G01 X38.8382 Y9.9212
G01 X38.8493 Y9.9335
G01 X38.8592 Y9.9468
G01 X38.8677 Y9.9610
G01 X38.8748 Y9.9760
G01 X38.8804 Y9.9916
G01 X38.8844 Y10.0077
G01 X38.8869 Y10.0240
G01 X38.8877 Y10.0406
G00 Z2.0000
G00 X45.3901 Y10.0406
G01 F60.00
G01 Z-0.0299
G01 F120.00
G01 X45.3893 Y10.0240
G01 X45.3868 Y10.0077
G01 X45.3828 Y9.9916
G01 X45.3772 Y9.9760
G01 X45.3701 Y9.9610
G01 X45.3616 Y9.9468
G01 X45.3517 Y9.9335
G01 X45.3406 Y9.9212
G01 X45.3283 Y9.9101
G01 X45.3150 Y9.9002
G01 X45.3008 Y9.8917
G01 X45.2858 Y9.8846
G01 X45.2702 Y9.8790
G01 X45.2541 Y9.8750
G01 X45.2378 Y9.8725
G01 X45.2212 Y9.8717
G01 X45.2046 Y9.8725
G01 X45.1883 Y9.8750
G01 X45.1722 Y9.8790
G01 X45.1566 Y9.8846
G01 X45.1416 Y9.8917
G01 X45.1274 Y9.9002
G01 X45.1141 Y9.9101
G01 X45.1018 Y9.9212
G01 X45.0907 Y9.9335
G01 X45.0808 Y9.9468
G01 X45.0723 Y9.9610
G01 X45.0652 Y9.9760
G01 X45.0596 Y9.9916
G01 X45.0556 Y10.0077
G01 X45.0531 Y10.0240
G01 X45.0523 Y10.0406
G01 X45.0531 Y10.0572
G01 X45.0556 Y10.0735
G01 X45.0596 Y10.0896
G01 X45.0652 Y10.1052
G01 X45.0723 Y10.1202
G01 X45.0808 Y10.1344
G01 X45.0907 Y10.1477
G01 X45.1018 Y10.1600
G01 X45.1141 Y10.1711
G01 X45.1274 Y10.1810
G01 X45.1416 Y10.1895
G01 X45.1566 Y10.1966
G01 X45.1722 Y10.2022
G01 X45.1883 Y10.2062
G01 X45.2046 Y10.2087
G01 X45.2212 Y10.2095
G01 X45.2378 Y10.2087
G01 X45.2541 Y10.2062
G01 X45.2702 Y10.2022
G01 X45.2858 Y10.1966
G01 X45.3008 Y10.1895
G01 X45.3150 Y10.1810
G01 X45.3283 Y10.1711
G01 X45.3406 Y10.1600
G01 X45.3517 Y10.1477
G01 X45.3616 Y10.1344
G01 X45.3701 Y10.1202
G01 X45.3772 Y10.1052
G01 X45.3828 Y10.0896
G01 X45.3868 Y10.0735
G01 X45.3893 Y10.0572
G01 X45.3901 Y10.0406
G01 X45.6003 Y10.0406
G01 X45.5985 Y10.0034
G01 X45.5930 Y9.9666
G01 X45.5840 Y9.9305
G01 X45.5715 Y9.8955
G01 X45.5556 Y9.8619
G01 X45.5364 Y9.8300
G01 X45.5143 Y9.8001
G01 X45.4893 Y9.7725
G01 X45.4617 Y9.7475
G01 X45.4318 Y9.7254
G01 X45.3999 Y9.7062
G01 X45.3663 Y9.6903
G01 X45.3313 Y9.6778
G01 X45.2952 Y9.6688
G01 X45.2584 Y9.6633
G01 X45.2212 Y9.6615
G01 X45.1840 Y9.6633
G01 X45.1472 Y9.6688
G01 X45.1111 Y9.6778
G01 X45.0761 Y9.6903
G01 X45.0425 Y9.7062
G01 X45.0106 Y9.7254
G01 X44.9807 Y9.7475
G01 X44.9531 Y9.7725
G01 X44.9281 Y9.8001
G01 X44.9060 Y9.8300
G01 X44.8868 Y9.8619
G01 X44.8709 Y9.8955
G01 X44.8584 Y9.9305
G01 X44.8494 Y9.9666
G01 X44.8439 Y10.0034
G01 X44.8421 Y10.0406
G01 X44.8439 Y10.0778
G01 X44.8494 Y10.1146
G01 X44.8584 Y10.1507
G01 X44.8709 Y10.1857
G01 X44.8868 Y10.2193
G01 X44.9060 Y10.2512
G01 X44.9281 Y10.2811
G01 X44.9531 Y10.3087
G01 X44.9807 Y10.3337
G01 X45.0106 Y10.3558
G01 X45.0425 Y10.3750
G01 X45.0761 Y10.3909
G01 X45.1111 Y10.4034
G01 X45.1472 Y10.4124
G01 X45.1840 Y10.4179
G01 X45.2212 Y10.4197
G01 X45.2584 Y10.4179
G01 X45.2952 Y10.4124
G01 X45.3313 Y10.4034
G01 X45.3663 Y10.3909
G01 X45.3999 Y10.3750
G01 X45.4318 Y10.3558
G01 X45.4617 Y10.3337
G01 X45.4893 Y10.3087
G01 X45.5143 Y10.2811
G01 X45.5364 Y10.2512
G01 X45.5556 Y10.2193
G01 X45.5715 Y10.1857
G01 X45.5840 Y10.1507
G01 X45.5930 Y10.1146
G01 X45.5985 Y10.0778
G01 X45.6003 Y10.0406
G01 X45.8106 Y10.0406
G01 X45.8077 Y9.9828
G01 X45.7993 Y9.9256
G01 X45.7852 Y9.8695
G01 X45.7657 Y9.8151
G01 X45.7410 Y9.7628
G01 X45.7112 Y9.7132
G01 X45.6768 Y9.6667
G01 X45.6380 Y9.6238
G01 X45.5951 Y9.5850
G01 X45.5486 Y9.5506
G01 X45.4990 Y9.5208
G01 X45.4467 Y9.4961
G01 X45.3923 Y9.4766
G01 X45.3362 Y9.4625
G01 X45.2790 Y9.4541
G01 X45.2212 Y9.4512
G01 X45.1634 Y9.4541
G01 X45.1062 Y9.4625
G01 X45.0501 Y9.4766
G01 X44.9957 Y9.4961
G01 X44.9434 Y9.5208
G01 X44.8938 Y9.5506
G01 X44.8473 Y9.5850
G01 X44.8044 Y9.6238
G01 X44.7656 Y9.6667
G01 X44.7312 Y9.7132
G01 X44.7014 Y9.7628
G01 X44.6767 Y9.8151
G01 X44.6572 Y9.8695
G01 X44.6431 Y9.9256
G01 X44.6347 Y9.9828
G01 X44.6318 Y10.0406
G01 X44.6347 Y10.0984
G01 X44.6431 Y10.1556
G01 X44.6572 Y10.2117
G01 X44.6767 Y10.2661
G01 X44.7014 Y10.3184
G01 X44.7312 Y10.3680
G01 X44.7656 Y10.4145
G01 X44.8044 Y10.4574
G01 X44.8473 Y10.4962
G01 X44.8938 Y10.5306
G01 X44.9434 Y10.5604
G01 X44.9957 Y10.5851
G01 X45.0501 Y10.6046
G01 X45.1062 Y10.6187
G01 X45.1634 Y10.6271
G01 X45.2212 Y10.6300
G01 X45.2790 Y10.6271
G01 X45.3362 Y10.6187
G01 X45.3923 Y10.6046
G01 X45.4467 Y10.5851
G01 X45.4990 Y10.5604
G01 X45.5486 Y10.5306
G01 X45.5951 Y10.4962
G01 X45.6380 Y10.4574
G01 X45.6768 Y10.4145
G01 X45.7112 Y10.3680
G01 X45.7410 Y10.3184
G01 X45.7657 Y10.2661
G01 X45.7852 Y10.2117
G01 X45.7993 Y10.1556
G01 X45.8077 Y10.0984
G01 X45.8106 Y10.0406
G00 Z2.0000
G00 X45.8106 Y5.5194
G01 F60.00
G01 Z-0.0299
G01 F120.00
G01 X45.8077 Y5.5772
G01 X45.7993 Y5.6344
G01 X45.7852 Y5.6905
G01 X45.7657 Y5.7449
G01 X45.7410 Y5.7972
G01 X45.7112 Y5.8468
G01 X45.6768 Y5.8933
G01 X45.6380 Y5.9362
G01 X45.5951 Y5.9750
G01 X45.5486 Y6.0094
G01 X45.4990 Y6.0392
G01 X45.4467 Y6.0639
G01 X45.3923 Y6.0834
G01 X45.3362 Y6.0975
G01 X45.2790 Y6.1059
G01 X45.2212 Y6.1088
G01 X45.1634 Y6.1059
G01 X45.1062 Y6.0975
G01 X45.0501 Y6.0834
G01 X44.9957 Y6.0639
G01 X44.9434 Y6.0392
G01 X44.8938 Y6.0094
G01 X44.8473 Y5.9750
G01 X44.8044 Y5.9362
G01 X44.7656 Y5.8933
G01 X44.7312 Y5.8468
G01 X44.7014 Y5.7972
G01 X44.6767 Y5.7449
G01 X44.6572 Y5.6905
G01 X44.6431 Y5.6344
G01 X44.6347 Y5.5772
G01 X44.6318 Y5.5194
G01 X44.6347 Y5.4616
G01 X44.6431 Y5.4044
G01 X44.6572 Y5.3483
G01 X44.6767 Y5.2939
G01 X44.7014 Y5.2416
G01 X44.7312 Y5.1920
G01 X44.7656 Y5.1455
G01 X44.8044 Y5.1026
G01 X44.8473 Y5.0638
G01 X44.8938 Y5.0294
G01 X44.9434 Y4.9996
G01 X44.9957 Y4.9749
G01 X45.0501 Y4.9554
G01 X45.1062 Y4.9413
G01 X45.1634 Y4.9329
G01 X45.2212 Y4.9300
G01 X45.2790 Y4.9329
G01 X45.3362 Y4.9413
G01 X45.3923 Y4.9554
G01 X45.4467 Y4.9749
G01 X45.4990 Y4.9996
G01 X45.5486 Y5.0294
G01 X45.5951 Y5.0638
G01 X45.6380 Y5.1026
G01 X45.6768 Y5.1455
G01 X45.7112 Y5.1920
G01 X45.7410 Y5.2416
G01 X45.7657 Y5.2939
G01 X45.7852 Y5.3483
G01 X45.7993 Y5.4044
G01 X45.8077 Y5.4616
G01 X45.8106 Y5.5194
G01 X45.6003 Y5.5194
G01 X45.5985 Y5.5566
G01 X45.5930 Y5.5934
G01 X45.5840 Y5.6295
G01 X45.5715 Y5.6645
G01 X45.5556 Y5.6981
G01 X45.5364 Y5.7300
G01 X45.5143 Y5.7599
G01 X45.4893 Y5.7875
G01 X45.4617 Y5.8125
G01 X45.4318 Y5.8346
G01 X45.3999 Y5.8538
G01 X45.3663 Y5.8697
G01 X45.3313 Y5.8822
G01 X45.2952 Y5.8912
G01 X45.2584 Y5.8967
G01 X45.2212 Y5.8985
G01 X45.1840 Y5.8967
G01 X45.1472 Y5.8912
G01 X45.1111 Y5.8822
G01 X45.0761 Y5.8697
G01 X45.0425 Y5.8538
G01 X45.0106 Y5.8346
G01 X44.9807 Y5.8125
G01 X44.9531 Y5.7875
G01 X44.9281 Y5.7599
G01 X44.9060 Y5.7300
G01 X44.8868 Y5.6981
G01 X44.8709 Y5.6645
G01 X44.8584 Y5.6295
G01 X44.8494 Y5.5934
G01 X44.8439 Y5.5566
G01 X44.8421 Y5.5194
G01 X44.8439 Y5.4822
G01 X44.8494 Y5.4454
G01 X44.8584 Y5.4093
G01 X44.8709 Y5.3743
G01 X44.8868 Y5.3407
G01 X44.9060 Y5.3088
G01 X44.9281 Y5.2789
G01 X44.9531 Y5.2513
G01 X44.9807 Y5.2263
G01 X45.0106 Y5.2042
G01 X45.0425 Y5.1850
G01 X45.0761 Y5.1691
G01 X45.1111 Y5.1566
G01 X45.1472 Y5.1476
G01 X45.1840 Y5.1421
G01 X45.2212 Y5.1403
G01 X45.2584 Y5.1421
G01 X45.2952 Y5.1476
G01 X45.3313 Y5.1566
G01 X45.3663 Y5.1691
G01 X45.3999 Y5.1850
G01 X45.4318 Y5.2042
G01 X45.4617 Y5.2263
G01 X45.4893 Y5.2513
G01 X45.5143 Y5.2789
G01 X45.5364 Y5.3088
G01 X45.5556 Y5.3407
G01 X45.5715 Y5.3743
G01 X45.5840 Y5.4093
G01 X45.5930 Y5.4454
G01 X45.5985 Y5.4822
G01 X45.6003 Y5.5194
G01 X45.3901 Y5.5194
G01 X45.3893 Y5.5360
G01 X45.3868 Y5.5523
G01 X45.3828 Y5.5684
G01 X45.3772 Y5.5840
G01 X45.3701 Y5.5990
G01 X45.3616 Y5.6132
G01 X45.3517 Y5.6265
G01 X45.3406 Y5.6388
G01 X45.3283 Y5.6499
G01 X45.3150 Y5.6598
G01 X45.3008 Y5.6683
G01 X45.2858 Y5.6754
G01 X45.2702 Y5.6810
G01 X45.2541 Y5.6850
G01 X45.2378 Y5.6875
G01 X45.2212 Y5.6883
G01 X45.2046 Y5.6875
G01 X45.1883 Y5.6850
G01 X45.1722 Y5.6810
G01 X45.1566 Y5.6754
G01 X45.1416 Y5.6683
G01 X45.1274 Y5.6598
G01 X45.1141 Y5.6499
G01 X45.1018 Y5.6388
G01 X45.0907 Y5.6265
G01 X45.0808 Y5.6132
G01 X45.0723 Y5.5990
G01 X45.0652 Y5.5840
G01 X45.0596 Y5.5684
G01 X45.0556 Y5.5523
G01 X45.0531 Y5.5360
G01 X45.0523 Y5.5194
G01 X45.0531 Y5.5028
G01 X45.0556 Y5.4865
G01 X45.0596 Y5.4704
G01 X45.0652 Y5.4548
G01 X45.0723 Y5.4398
G01 X45.0808 Y5.4256
G01 X45.0907 Y5.4123
G01 X45.1018 Y5.4000
G01 X45.1141 Y5.3889
G01 X45.1274 Y5.3790
G01 X45.1416 Y5.3705
G01 X45.1566 Y5.3634
G01 X45.1722 Y5.3578
G01 X45.1883 Y5.3538
G01 X45.2046 Y5.3513
G01 X45.2212 Y5.3505
G01 X45.2378 Y5.3513
G01 X45.2541 Y5.3538
G01 X45.2702 Y5.3578
G01 X45.2858 Y5.3634
G01 X45.3008 Y5.3705
G01 X45.3150 Y5.3790
G01 X45.3283 Y5.3889
G01 X45.3406 Y5.4000
G01 X45.3517 Y5.4123
G01 X45.3616 Y5.4256
G01 X45.3701 Y5.4398
G01 X45.3772 Y5.4548
G01 X45.3828 Y5.4704
G01 X45.3868 Y5.4865
G01 X45.3893 Y5.5028
G01 X45.3901 Y5.5194
G00 Z2.0000
G00 X50.4476 Y17.4234
G01 F60.00
G01 Z-0.0299
G01 F120.00
G01 X50.4500 Y17.4724
G01 X50.4560 Y17.5124
G01 X50.4658 Y17.5516
G01 X50.4794 Y17.5896
G01 X50.4967 Y17.6262
G01 X50.5175 Y17.6609
G01 X50.5416 Y17.6933
G01 X50.5687 Y17.7233
G01 X50.5987 Y17.7504
G01 X50.6311 Y17.7745
G01 X50.6658 Y17.7953
G01 X50.7024 Y17.8126
G01 X50.7404 Y17.8262
G01 X50.7796 Y17.8360
G01 X50.8196 Y17.8420
G01 X50.8600 Y17.8440
G01 X50.9004 Y17.8420
G01 X50.9404 Y17.8360
G01 X50.9796 Y17.8262
G01 X51.0176 Y17.8126
G01 X51.0542 Y17.7953
G01 X51.0889 Y17.7745
G01 X51.1213 Y17.7504
G01 X51.1513 Y17.7233
G01 X51.1784 Y17.6933
G01 X51.2025 Y17.6609
G01 X51.2233 Y17.6262
G01 X51.2406 Y17.5896
G01 X51.2542 Y17.5516
G01 X51.2640 Y17.5124
G01 X51.2700 Y17.4724
G01 X51.2724 Y17.4234
G01 X51.2724 Y15.9166
G01 X51.2700 Y15.8676
G01 X51.2640 Y15.8276
G01 X51.2542 Y15.7884
G01 X51.2406 Y15.7504
G01 X51.2233 Y15.7138
G01 X51.2025 Y15.6791
G01 X51.1784 Y15.6467
G01 X51.1513 Y15.6167
G01 X51.1213 Y15.5896
G01 X51.0889 Y15.5655
G01 X51.0542 Y15.5447
G01 X51.0176 Y15.5274
G01 X50.9796 Y15.5138
G01 X50.9404 Y15.5040
G01 X50.9004 Y15.4980
G01 X50.8600 Y15.4960
G01 X50.8196 Y15.4980
G01 X50.7796 Y15.5040
G01 X50.7404 Y15.5138
G01 X50.7024 Y15.5274
G01 X50.6658 Y15.5447
G01 X50.6311 Y15.5655
G01 X50.5987 Y15.5896
G01 X50.5687 Y15.6167
G01 X50.5416 Y15.6467
G01 X50.5175 Y15.6791
G01 X50.4967 Y15.7138
G01 X50.4794 Y15.7504
G01 X50.4658 Y15.7884
G01 X50.4560 Y15.8276
G01 X50.4500 Y15.8676
G01 X50.4476 Y15.9166
G01 X50.4476 Y17.4234
G01 X50.6576 Y17.4183
G01 X50.6593 Y17.4518
G01 X50.6622 Y17.4714
G01 X50.6670 Y17.4906
G01 X50.6736 Y17.5092
G01 X50.6821 Y17.5271
G01 X50.6923 Y17.5441
G01 X50.7041 Y17.5600
G01 X50.7174 Y17.5746
G01 X50.7320 Y17.5879
G01 X50.7479 Y17.5997
G01 X50.7649 Y17.6099
G01 X50.7828 Y17.6184
G01 X50.8014 Y17.6250
G01 X50.8206 Y17.6298
G01 X50.8402 Y17.6327
G01 X50.8600 Y17.6337
G01 X50.8798 Y17.6327
G01 X50.8994 Y17.6298
G01 X50.9186 Y17.6250
G01 X50.9372 Y17.6184
G01 X50.9551 Y17.6099
G01 X50.9721 Y17.5997
G01 X50.9880 Y17.5879
G01 X51.0026 Y17.5746
G01 X51.0159 Y17.5600
G01 X51.0277 Y17.5441
G01 X51.0379 Y17.5271
G01 X51.0464 Y17.5092
G01 X51.0530 Y17.4906
G01 X51.0578 Y17.4714
G01 X51.0607 Y17.4518
G01 X51.0624 Y17.4183
G01 X51.0624 Y15.9217
G01 X51.0607 Y15.8882
G01 X51.0578 Y15.8686
G01 X51.0530 Y15.8494
G01 X51.0464 Y15.8308
G01 X51.0379 Y15.8129
G01 X51.0277 Y15.7959
G01 X51.0159 Y15.7800
G01 X51.0026 Y15.7654
G01 X50.9880 Y15.7521
G01 X50.9721 Y15.7403
G01 X50.9551 Y15.7301
G01 X50.9372 Y15.7216
G01 X50.9186 Y15.7150
G01 X50.8994 Y15.7102
G01 X50.8798 Y15.7073
G01 X50.8600 Y15.7063
G01 X50.8402 Y15.7073
G01 X50.8206 Y15.7102
G01 X50.8014 Y15.7150
G01 X50.7828 Y15.7216
G01 X50.7649 Y15.7301
G01 X50.7479 Y15.7403
G01 X50.7320 Y15.7521
G01 X50.7174 Y15.7654
G01 X50.7041 Y15.7800
G01 X50.6923 Y15.7959
G01 X50.6821 Y15.8129
G01 X50.6736 Y15.8308
G01 X50.6670 Y15.8494
G01 X50.6622 Y15.8686
G01 X50.6593 Y15.8882
G01 X50.6576 Y15.9217
G01 X50.6576 Y17.4183
G00 Z2.0000
G00 X53.6024 Y15.9217
G01 F60.00
G01 Z-0.0299
G01 F120.00
G01 X53.6007 Y15.8882
G01 X53.5978 Y15.8686
G01 X53.5930 Y15.8494
G01 X53.5864 Y15.8308
G01 X53.5779 Y15.8129
G01 X53.5677 Y15.7959
G01 X53.5559 Y15.7800
G01 X53.5426 Y15.7654
G01 X53.5280 Y15.7521
G01 X53.5121 Y15.7403
G01 X53.4951 Y15.7301
G01 X53.4772 Y15.7216
G01 X53.4586 Y15.7150
G01 X53.4394 Y15.7102
G01 X53.4198 Y15.7073
G01 X53.4000 Y15.7063
G01 X53.3802 Y15.7073
G01 X53.3606 Y15.7102
G01 X53.3414 Y15.7150
G01 X53.3228 Y15.7216
G01 X53.3049 Y15.7301
G01 X53.2879 Y15.7403
G01 X53.2720 Y15.7521
G01 X53.2574 Y15.7654
G01 X53.2441 Y15.7800
G01 X53.2323 Y15.7959
G01 X53.2221 Y15.8129
G01 X53.2136 Y15.8308
G01 X53.2070 Y15.8494
G01 X53.2022 Y15.8686
G01 X53.1993 Y15.8882
G01 X53.1976 Y15.9217
G01 X53.1976 Y17.4183
G01 X53.1993 Y17.4518
G01 X53.2022 Y17.4714
G01 X53.2070 Y17.4906
G01 X53.2136 Y17.5092
G01 X53.2221 Y17.5271
G01 X53.2323 Y17.5441
G01 X53.2441 Y17.5600
G01 X53.2574 Y17.5746
G01 X53.2720 Y17.5879
G01 X53.2879 Y17.5997
G01 X53.3049 Y17.6099
G01 X53.3228 Y17.6184
G01 X53.3414 Y17.6250
G01 X53.3606 Y17.6298
G01 X53.3802 Y17.6327
G01 X53.4000 Y17.6337
G01 X53.4198 Y17.6327
G01 X53.4394 Y17.6298
G01 X53.4586 Y17.6250
G01 X53.4772 Y17.6184
G01 X53.4951 Y17.6099
G01 X53.5121 Y17.5997
G01 X53.5280 Y17.5879
G01 X53.5426 Y17.5746
G01 X53.5559 Y17.5600
G01 X53.5677 Y17.5441
G01 X53.5779 Y17.5271
G01 X53.5864 Y17.5092
G01 X53.5930 Y17.4906
G01 X53.5978 Y17.4714
G01 X53.6007 Y17.4518
G01 X53.6024 Y17.4183
G01 X53.6024 Y15.9217
G01 X53.8124 Y15.9166
G01 X53.8100 Y15.8676
G01 X53.8040 Y15.8276
G01 X53.7942 Y15.7884
G01 X53.7806 Y15.7504
G01 X53.7633 Y15.7138
G01 X53.7425 Y15.6791
G01 X53.7184 Y15.6467
G01 X53.6913 Y15.6167
G01 X53.6613 Y15.5896
G01 X53.6289 Y15.5655
G01 X53.5942 Y15.5447
G01 X53.5576 Y15.5274
G01 X53.5196 Y15.5138
G01 X53.4804 Y15.5040
G01 X53.4404 Y15.4980
G01 X53.4000 Y15.4960
G01 X53.3596 Y15.4980
G01 X53.3196 Y15.5040
G01 X53.2804 Y15.5138
G01 X53.2424 Y15.5274
G01 X53.2058 Y15.5447
G01 X53.1711 Y15.5655
G01 X53.1387 Y15.5896
G01 X53.1087 Y15.6167
G01 X53.0816 Y15.6467
G01 X53.0575 Y15.6791
G01 X53.0367 Y15.7138
G01 X53.0194 Y15.7504
G01 X53.0058 Y15.7884
G01 X52.9960 Y15.8276
G01 X52.9900 Y15.8676
G01 X52.9876 Y15.9166
G01 X52.9876 Y17.4234
G01 X52.9900 Y17.4724
G01 X52.9960 Y17.5124
G01 X53.0058 Y17.5516
G01 X53.0194 Y17.5896
G01 X53.0367 Y17.6262
G01 X53.0575 Y17.6609
G01 X53.0816 Y17.6933
G01 X53.1087 Y17.7233
G01 X53.1387 Y17.7504
G01 X53.1711 Y17.7745
G01 X53.2058 Y17.7953
G01 X53.2424 Y17.8126
G01 X53.2804 Y17.8262
G01 X53.3196 Y17.8360
G01 X53.3596 Y17.8420
G01 X53.4000 Y17.8440
G01 X53.4404 Y17.8420
G01 X53.4804 Y17.8360
G01 X53.5196 Y17.8262
G01 X53.5576 Y17.8126
G01 X53.5942 Y17.7953
G01 X53.6289 Y17.7745
G01 X53.6613 Y17.7504
G01 X53.6913 Y17.7233
G01 X53.7184 Y17.6933
G01 X53.7425 Y17.6609
G01 X53.7633 Y17.6262
G01 X53.7806 Y17.5896
G01 X53.7942 Y17.5516
G01 X53.8040 Y17.5124
G01 X53.8100 Y17.4724
G01 X53.8124 Y17.4234
G01 X53.8124 Y15.9166
G00 Z2.0000
G00 X58.6489 Y6.5100
G01 F60.00
G01 Z-0.0299
G01 F120.00
G01 X58.6481 Y6.4934
G01 X58.6456 Y6.4771
G01 X58.6416 Y6.4610
G01 X58.6360 Y6.4454
G01 X58.6289 Y6.4304
G01 X58.6204 Y6.4162
G01 X58.6105 Y6.4029
G01 X58.5994 Y6.3906
G01 X58.5871 Y6.3795
G01 X58.5738 Y6.3696
G01 X58.5596 Y6.3611
G01 X58.5446 Y6.3540
G01 X58.5290 Y6.3484
G01 X58.5129 Y6.3444
G01 X58.4966 Y6.3419
G01 X58.4800 Y6.3411
G01 X58.4634 Y6.3419
G01 X58.4471 Y6.3444
G01 X58.4310 Y6.3484
G01 X58.4154 Y6.3540
G01 X58.4004 Y6.3611
G01 X58.3862 Y6.3696
G01 X58.3729 Y6.3795
G01 X58.3606 Y6.3906
G01 X58.3495 Y6.4029
G01 X58.3396 Y6.4162
G01 X58.3311 Y6.4304
G01 X58.3240 Y6.4454
G01 X58.3184 Y6.4610
G01 X58.3144 Y6.4771
G01 X58.3119 Y6.4934
G01 X58.3111 Y6.5100
G01 X58.3119 Y6.5266
G01 X58.3144 Y6.5429
G01 X58.3184 Y6.5590
G01 X58.3240 Y6.5746
G01 X58.3311 Y6.5896
G01 X58.3396 Y6.6038
G01 X58.3495 Y6.6171
G01 X58.3606 Y6.6294
G01 X58.3729 Y6.6405
G01 X58.3862 Y6.6504
G01 X58.4004 Y6.6589
G01 X58.4154 Y6.6660
G01 X58.4310 Y6.6716
G01 X58.4471 Y6.6756
G01 X58.4634 Y6.6781
G01 X58.4800 Y6.6789
G01 X58.4966 Y6.6781
G01 X58.5129 Y6.6756
G01 X58.5290 Y6.6716
G01 X58.5446 Y6.6660
G01 X58.5596 Y6.6589
G01 X58.5738 Y6.6504
G01 X58.5871 Y6.6405
G01 X58.5994 Y6.6294
G01 X58.6105 Y6.6171
G01 X58.6204 Y6.6038
G01 X58.6289 Y6.5896
G01 X58.6360 Y6.5746
G01 X58.6416 Y6.5590
G01 X58.6456 Y6.5429
G01 X58.6481 Y6.5266
G01 X58.6489 Y6.5100
G01 X58.8591 Y6.5100
G01 X58.8573 Y6.4728
G01 X58.8518 Y6.4360
G01 X58.8428 Y6.3999
G01 X58.8303 Y6.3649
G01 X58.8144 Y6.3313
G01 X58.7952 Y6.2994
G01 X58.7731 Y6.2695
G01 X58.7481 Y6.2419
G01 X58.7205 Y6.2169
G01 X58.6906 Y6.1948
G01 X58.6587 Y6.1756
G01 X58.6251 Y6.1597
G01 X58.5901 Y6.1472
G01 X58.5540 Y6.1382
G01 X58.5172 Y6.1327
G01 X58.4800 Y6.1309
G01 X58.4428 Y6.1327
G01 X58.4060 Y6.1382
G01 X58.3699 Y6.1472
G01 X58.3349 Y6.1597
G01 X58.3013 Y6.1756
G01 X58.2694 Y6.1948
G01 X58.2395 Y6.2169
G01 X58.2119 Y6.2419
G01 X58.1869 Y6.2695
G01 X58.1648 Y6.2994
G01 X58.1456 Y6.3313
G01 X58.1297 Y6.3649
G01 X58.1172 Y6.3999
G01 X58.1082 Y6.4360
G01 X58.1027 Y6.4728
G01 X58.1009 Y6.5100
G01 X58.1027 Y6.5472
G01 X58.1082 Y6.5840
G01 X58.1172 Y6.6201
G01 X58.1297 Y6.6551
G01 X58.1456 Y6.6887
G01 X58.1648 Y6.7206
G01 X58.1869 Y6.7505
G01 X58.2119 Y6.7781
G01 X58.2395 Y6.8031
G01 X58.2694 Y6.8252
G01 X58.3013 Y6.8444
G01 X58.3349 Y6.8603
G01 X58.3699 Y6.8728
G01 X58.4060 Y6.8818
G01 X58.4428 Y6.8873
G01 X58.4800 Y6.8891
G01 X58.5172 Y6.8873
G01 X58.5540 Y6.8818
G01 X58.5901 Y6.8728
G01 X58.6251 Y6.8603
G01 X58.6587 Y6.8444
G01 X58.6906 Y6.8252
G01 X58.7205 Y6.8031
G01 X58.7481 Y6.7781
G01 X58.7731 Y6.7505
G01 X58.7952 Y6.7206
G01 X58.8144 Y6.6887
G01 X58.8303 Y6.6551
G01 X58.8428 Y6.6201
G01 X58.8518 Y6.5840
G01 X58.8573 Y6.5472
G01 X58.8591 Y6.5100
G01 X59.0694 Y6.5100
G01 X59.0665 Y6.4522
G01 X59.0581 Y6.3950
G01 X59.0440 Y6.3389
G01 X59.0245 Y6.2845
G01 X58.9998 Y6.2322
G01 X58.9700 Y6.1826
G01 X58.9356 Y6.1361
G01 X58.8968 Y6.0932
G01 X58.8539 Y6.0544
G01 X58.8074 Y6.0200
G01 X58.7578 Y5.9902
G01 X58.7055 Y5.9655
G01 X58.6511 Y5.9460
G01 X58.5950 Y5.9319
G01 X58.5378 Y5.9235
G01 X58.4800 Y5.9206
G01 X58.4222 Y5.9235
G01 X58.3650 Y5.9319
G01 X58.3089 Y5.9460
G01 X58.2545 Y5.9655
G01 X58.2022 Y5.9902
G01 X58.1526 Y6.0200
G01 X58.1061 Y6.0544
G01 X58.0632 Y6.0932
G01 X58.0244 Y6.1361
G01 X57.9900 Y6.1826
G01 X57.9602 Y6.2322
G01 X57.9355 Y6.2845
G01 X57.9160 Y6.3389
G01 X57.9019 Y6.3950
G01 X57.8935 Y6.4522
G01 X57.8906 Y6.5100
G01 X57.8935 Y6.5678
G01 X57.9019 Y6.6250
G01 X57.9160 Y6.6811
G01 X57.9355 Y6.7355
G01 X57.9602 Y6.7878
G01 X57.9900 Y6.8374
G01 X58.0244 Y6.8839
G01 X58.0632 Y6.9268
G01 X58.1061 Y6.9656
G01 X58.1526 Y7.0000
G01 X58.2022 Y7.0298
G01 X58.2545 Y7.0545
G01 X58.3089 Y7.0740
G01 X58.3650 Y7.0881
G01 X58.4222 Y7.0965
G01 X58.4800 Y7.0994
G01 X58.5378 Y7.0965
G01 X58.5950 Y7.0881
G01 X58.6511 Y7.0740
G01 X58.7055 Y7.0545
G01 X58.7578 Y7.0298
G01 X58.8074 Y7.0000
G01 X58.8539 Y6.9656
G01 X58.8968 Y6.9268
G01 X58.9356 Y6.8839
G01 X58.9700 Y6.8374
G01 X58.9998 Y6.7878
G01 X59.0245 Y6.7355
G01 X59.0440 Y6.6811
G01 X59.0581 Y6.6250
G01 X59.0665 Y6.5678
G01 X59.0694 Y6.5100
G00 Z2.0000
G00 X61.1889 Y6.5100
G01 F60.00
G01 Z-0.0299
G01 F120.00
G01 X61.1881 Y6.4934
G01 X61.1856 Y6.4771
G01 X61.1816 Y6.4610
G01 X61.1760 Y6.4454
G01 X61.1689 Y6.4304
G01 X61.1604 Y6.4162
G01 X61.1505 Y6.4029
G01 X61.1394 Y6.3906
G01 X61.1271 Y6.3795
G01 X61.1138 Y6.3696
G01 X61.0996 Y6.3611
G01 X61.0846 Y6.3540
G01 X61.0690 Y6.3484
G01 X61.0529 Y6.3444
G01 X61.0366 Y6.3419
G01 X61.0200 Y6.3411
G01 X61.0034 Y6.3419
G01 X60.9871 Y6.3444
G01 X60.9710 Y6.3484
G01 X60.9554 Y6.3540
G01 X60.9404 Y6.3611
G01 X60.9262 Y6.3696
G01 X60.9129 Y6.3795
G01 X60.9006 Y6.3906
G01 X60.8895 Y6.4029
G01 X60.8796 Y6.4162
G01 X60.8711 Y6.4304
G01 X60.8640 Y6.4454
G01 X60.8584 Y6.4610
G01 X60.8544 Y6.4771
G01 X60.8519 Y6.4934
G01 X60.8511 Y6.5100
G01 X60.8519 Y6.5266
G01 X60.8544 Y6.5429
G01 X60.8584 Y6.5590
G01 X60.8640 Y6.5746
G01 X60.8711 Y6.5896
G01 X60.8796 Y6.6038
G01 X60.8895 Y6.6171
G01 X60.9006 Y6.6294
G01 X60.9129 Y6.6405
G01 X60.9262 Y6.6504
G01 X60.9404 Y6.6589
G01 X60.9554 Y6.6660
G01 X60.9710 Y6.6716
G01 X60.9871 Y6.6756
G01 X61.0034 Y6.6781
G01 X61.0200 Y6.6789
G01 X61.0366 Y6.6781
G01 X61.0529 Y6.6756
G01 X61.0690 Y6.6716
G01 X61.0846 Y6.6660
G01 X61.0996 Y6.6589
G01 X61.1138 Y6.6504
G01 X61.1271 Y6.6405
G01 X61.1394 Y6.6294
G01 X61.1505 Y6.6171
G01 X61.1604 Y6.6038
G01 X61.1689 Y6.5896
G01 X61.1760 Y6.5746
G01 X61.1816 Y6.5590
G01 X61.1856 Y6.5429
G01 X61.1881 Y6.5266
G01 X61.1889 Y6.5100
G01 X61.3991 Y6.5100
G01 X61.3973 Y6.4728
G01 X61.3918 Y6.4360
G01 X61.3828 Y6.3999
G01 X61.3703 Y6.3649
G01 X61.3544 Y6.3313
G01 X61.3352 Y6.2994
G01 X61.3131 Y6.2695
G01 X61.2881 Y6.2419
G01 X61.2605 Y6.2169
G01 X61.2306 Y6.1948
G01 X61.1987 Y6.1756
G01 X61.1651 Y6.1597
G01 X61.1301 Y6.1472
G01 X61.0940 Y6.1382
G01 X61.0572 Y6.1327
G01 X61.0200 Y6.1309
G01 X60.9828 Y6.1327
G01 X60.9460 Y6.1382
G01 X60.9099 Y6.1472
G01 X60.8749 Y6.1597
G01 X60.8413 Y6.1756
G01 X60.8094 Y6.1948
G01 X60.7795 Y6.2169
G01 X60.7519 Y6.2419
G01 X60.7269 Y6.2695
G01 X60.7048 Y6.2994
G01 X60.6856 Y6.3313
G01 X60.6697 Y6.3649
G01 X60.6572 Y6.3999
G01 X60.6482 Y6.4360
G01 X60.6427 Y6.4728
G01 X60.6409 Y6.5100
G01 X60.6427 Y6.5472
G01 X60.6482 Y6.5840
G01 X60.6572 Y6.6201
G01 X60.6697 Y6.6551
G01 X60.6856 Y6.6887
G01 X60.7048 Y6.7206
G01 X60.7269 Y6.7505
G01 X60.7519 Y6.7781
G01 X60.7795 Y6.8031
G01 X60.8094 Y6.8252
G01 X60.8413 Y6.8444
G01 X60.8749 Y6.8603
G01 X60.9099 Y6.8728
G01 X60.9460 Y6.8818
G01 X60.9828 Y6.8873
G01 X61.0200 Y6.8891
G01 X61.0572 Y6.8873
G01 X61.0940 Y6.8818
G01 X61.1301 Y6.8728
G01 X61.1651 Y6.8603
G01 X61.1987 Y6.8444
G01 X61.2306 Y6.8252
G01 X61.2605 Y6.8031
G01 X61.2881 Y6.7781
G01 X61.3131 Y6.7505
G01 X61.3352 Y6.7206
G01 X61.3544 Y6.6887
G01 X61.3703 Y6.6551
G01 X61.3828 Y6.6201
G01 X61.3918 Y6.5840
G01 X61.3973 Y6.5472
G01 X61.3991 Y6.5100
G01 X61.6094 Y6.5100
G01 X61.6065 Y6.4522
G01 X61.5981 Y6.3950
G01 X61.5840 Y6.3389
G01 X61.5645 Y6.2845
G01 X61.5398 Y6.2322
G01 X61.5100 Y6.1826
G01 X61.4756 Y6.1361
G01 X61.4368 Y6.0932
G01 X61.3939 Y6.0544
G01 X61.3474 Y6.0200
G01 X61.2978 Y5.9902
G01 X61.2455 Y5.9655
G01 X61.1911 Y5.9460
G01 X61.1350 Y5.9319
G01 X61.0778 Y5.9235
G01 X61.0200 Y5.9206
G01 X60.9622 Y5.9235
G01 X60.9050 Y5.9319
G01 X60.8489 Y5.9460
G01 X60.7945 Y5.9655
G01 X60.7422 Y5.9902
G01 X60.6926 Y6.0200
G01 X60.6461 Y6.0544
G01 X60.6032 Y6.0932
G01 X60.5644 Y6.1361
G01 X60.5300 Y6.1826
G01 X60.5002 Y6.2322
G01 X60.4755 Y6.2845
G01 X60.4560 Y6.3389
G01 X60.4419 Y6.3950
G01 X60.4335 Y6.4522
G01 X60.4306 Y6.5100
G01 X60.4335 Y6.5678
G01 X60.4419 Y6.6250
G01 X60.4560 Y6.6811
G01 X60.4755 Y6.7355
G01 X60.5002 Y6.7878
G01 X60.5300 Y6.8374
G01 X60.5644 Y6.8839
G01 X60.6032 Y6.9268
G01 X60.6461 Y6.9656
G01 X60.6926 Y7.0000
G01 X60.7422 Y7.0298
G01 X60.7945 Y7.0545
G01 X60.8489 Y7.0740
G01 X60.9050 Y7.0881
G01 X60.9622 Y7.0965
G01 X61.0200 Y7.0994
G01 X61.0778 Y7.0965
G01 X61.1350 Y7.0881
G01 X61.1911 Y7.0740
G01 X61.2455 Y7.0545
G01 X61.2978 Y7.0298
G01 X61.3474 Y7.0000
G01 X61.3939 Y6.9656
G01 X61.4368 Y6.9268
G01 X61.4756 Y6.8839
G01 X61.5100 Y6.8374
G01 X61.5398 Y6.7878
G01 X61.5645 Y6.7355
G01 X61.5840 Y6.6811
G01 X61.5981 Y6.6250
G01 X61.6065 Y6.5678
G01 X61.6094 Y6.5100
G00 Z2.0000
M05
G00 Z2.0000
G00 Z2.00
G00 X0.0 Y0.0

