(G-CODE GENERATED BY FLATCAM v8.991 - www.flatcam.org - Version Date: 2019/12/27)

(Name: 2)
(Type: G-code from Excellon)
(Units: MM)

(Created on Thursday, 20 July 2023 at 13:10)

(Feedrate: 60.0 mm/min)
(Feedrate rapids 1500.0 mm/min)

(Z_Cut: -2.0 mm)
(Z_Move: 2.0 mm)
(Z Toolchange: 15.0 mm)
(X,Y Toolchange: 0.0000, 0.0000 mm)
(Z Start: None mm)
(Z End: 5.0 mm)
(Steps per circle: 64)
(Preprocessor Excellon: default)

(X range:   38.2110 ...   61.4265  mm)
(Y range:    5.0110 ...   17.1780  mm)

(Spindle Speed: None RPM)
G21
G90
G94

(Tool change)
M06

(Probing new tool)
G30

(Give chance for removing probing wires)
M06

(Zeroing Z-axis after probing)
G92 X0 Y0 Z0


G01 F60.00
G00 Z2.0000

M03
G00 X58.4800 Y6.5100
G01 Z-2.0000
G01 Z0
G00 Z2.0000
G00 X61.0200 Y6.5100
G01 Z-2.0000
G01 Z0
G00 Z2.0000
M03
G00 X50.8600 Y16.6700
G01 Z-2.0000
G01 Z0
G00 Z2.0000
G00 X53.4000 Y16.6700
G01 Z-2.0000
G01 Z0
G00 Z2.0000
G00 X45.2210 Y10.0410
G01 Z-2.0000
G01 Z0
G00 Z2.0000
G00 X45.2210 Y5.5190
G01 Z-2.0000
G01 Z0
G00 Z2.0000
G00 X38.7190 Y5.5190
G01 Z-2.0000
G01 Z0
G00 Z2.0000
G00 X38.7190 Y10.0410
G01 Z-2.0000
G01 Z0
G00 Z2.0000
M05
G00 Z5.00
G00 X0.0 Y0.0

