(G-CODE GENERATED BY FLATCAM v8.991 - www.flatcam.org - Version Date: 2019/12/27)

(Name: 3)
(Type: G-code from Geometry)
(Units: MM)

(Created on Thursday, 20 July 2023 at 13:10)

(TOOL DIAMETER: 1.5 mm)
(Feedrate: 120.0 mm/min)
(Feedrate_Z: 60.0 mm/min)
(Feedrate rapids 1500.0 mm/min)

(Z_Cut: -2.0 mm)
(DepthPerCut: 0.5 mm <=>4 passes)
(Z_Move: 2.0 mm)
(Z Toolchange: 15.0 mm)
(X,Y Toolchange: 0.0000, 0.0000 mm)
(Z Start: None mm)
(Z End: 5.0 mm)
(Steps per circle: 64)
(Preprocessor Geometry: default)

(X range:   30.8329 ...   66.7471  mm)
(Y range:    0.4529 ...   22.7171  mm)

(Spindle Speed: None RPM)
G21
G90
G94

(Tool change)
M06

(Probing new tool)
G30

(Give chance for removing probing wires)
M06

(Zeroing Z-axis after probing)
G92 X0 Y0 Z0


G01 F120.00
G00 Z2.0000

M03
G00 X30.8329 Y10.6850
G01 F60.00
G01 Z-0.5000
G01 F120.00
G01 X30.8329 Y1.3029
G01 X30.8370 Y1.2196
G01 X30.8493 Y1.1371
G01 X30.8695 Y1.0562
G01 X30.8976 Y0.9777
G01 X30.9333 Y0.9022
G01 X30.9762 Y0.8307
G01 X31.0259 Y0.7637
G01 X31.0819 Y0.7019
G01 X31.1437 Y0.6459
G01 X31.2107 Y0.5962
G01 X31.2822 Y0.5533
G01 X31.3577 Y0.5176
G01 X31.4362 Y0.4895
G01 X31.5171 Y0.4693
G01 X31.5996 Y0.4570
G01 X31.6829 Y0.4529
G01 X47.8900 Y0.4529
G00 X47.8900 Y0.4529
G01 F60.00
G01 Z-1.0000
G01 F120.00
G01 X31.6829 Y0.4529
G01 X31.5996 Y0.4570
G01 X31.5171 Y0.4693
G01 X31.4362 Y0.4895
G01 X31.3577 Y0.5176
G01 X31.2822 Y0.5533
G01 X31.2107 Y0.5962
G01 X31.1437 Y0.6459
G01 X31.0819 Y0.7019
G01 X31.0259 Y0.7637
G01 X30.9762 Y0.8307
G01 X30.9333 Y0.9022
G01 X30.8976 Y0.9777
G01 X30.8695 Y1.0562
G01 X30.8493 Y1.1371
G01 X30.8370 Y1.2196
G01 X30.8329 Y1.3029
G01 X30.8329 Y10.6850
G00 X30.8329 Y10.6850
G01 F60.00
G01 Z-1.5000
G01 F120.00
G01 X30.8329 Y1.3029
G01 X30.8370 Y1.2196
G01 X30.8493 Y1.1371
G01 X30.8695 Y1.0562
G01 X30.8976 Y0.9777
G01 X30.9333 Y0.9022
G01 X30.9762 Y0.8307
G01 X31.0259 Y0.7637
G01 X31.0819 Y0.7019
G01 X31.1437 Y0.6459
G01 X31.2107 Y0.5962
G01 X31.2822 Y0.5533
G01 X31.3577 Y0.5176
G01 X31.4362 Y0.4895
G01 X31.5171 Y0.4693
G01 X31.5996 Y0.4570
G01 X31.6829 Y0.4529
G01 X47.8900 Y0.4529
G00 X47.8900 Y0.4529
G01 F60.00
G01 Z-2.0000
G01 F120.00
G01 X31.6829 Y0.4529
G01 X31.5996 Y0.4570
G01 X31.5171 Y0.4693
G01 X31.4362 Y0.4895
G01 X31.3577 Y0.5176
G01 X31.2822 Y0.5533
G01 X31.2107 Y0.5962
G01 X31.1437 Y0.6459
G01 X31.0819 Y0.7019
G01 X31.0259 Y0.7637
G01 X30.9762 Y0.8307
G01 X30.9333 Y0.9022
G01 X30.8976 Y0.9777
G01 X30.8695 Y1.0562
G01 X30.8493 Y1.1371
G01 X30.8370 Y1.2196
G01 X30.8329 Y1.3029
G01 X30.8329 Y10.6850
G00 Z2.0000
G00 X30.8329 Y12.6850
G01 F60.00
G01 Z-0.5000
G01 F120.00
G01 X30.8329 Y21.8671
G01 X30.8370 Y21.9504
G01 X30.8493 Y22.0329
G01 X30.8695 Y22.1138
G01 X30.8976 Y22.1923
G01 X30.9333 Y22.2678
G01 X30.9762 Y22.3393
G01 X31.0259 Y22.4063
G01 X31.0819 Y22.4681
G01 X31.1437 Y22.5241
G01 X31.2107 Y22.5738
G01 X31.2822 Y22.6167
G01 X31.3577 Y22.6524
G01 X31.4362 Y22.6805
G01 X31.5171 Y22.7007
G01 X31.5996 Y22.7130
G01 X31.6829 Y22.7171
G01 X47.8900 Y22.7171
G00 X47.8900 Y22.7171
G01 F60.00
G01 Z-1.0000
G01 F120.00
G01 X31.6829 Y22.7171
G01 X31.5996 Y22.7130
G01 X31.5171 Y22.7007
G01 X31.4362 Y22.6805
G01 X31.3577 Y22.6524
G01 X31.2822 Y22.6167
G01 X31.2107 Y22.5738
G01 X31.1437 Y22.5241
G01 X31.0819 Y22.4681
G01 X31.0259 Y22.4063
G01 X30.9762 Y22.3393
G01 X30.9333 Y22.2678
G01 X30.8976 Y22.1923
G01 X30.8695 Y22.1138
G01 X30.8493 Y22.0329
G01 X30.8370 Y21.9504
G01 X30.8329 Y21.8671
G01 X30.8329 Y12.6850
G00 X30.8329 Y12.6850
G01 F60.00
G01 Z-1.5000
G01 F120.00
G01 X30.8329 Y21.8671
G01 X30.8370 Y21.9504
G01 X30.8493 Y22.0329
G01 X30.8695 Y22.1138
G01 X30.8976 Y22.1923
G01 X30.9333 Y22.2678
G01 X30.9762 Y22.3393
G01 X31.0259 Y22.4063
G01 X31.0819 Y22.4681
G01 X31.1437 Y22.5241
G01 X31.2107 Y22.5738
G01 X31.2822 Y22.6167
G01 X31.3577 Y22.6524
G01 X31.4362 Y22.6805
G01 X31.5171 Y22.7007
G01 X31.5996 Y22.7130
G01 X31.6829 Y22.7171
G01 X47.8900 Y22.7171
G00 X47.8900 Y22.7171
G01 F60.00
G01 Z-2.0000
G01 F120.00
G01 X31.6829 Y22.7171
G01 X31.5996 Y22.7130
G01 X31.5171 Y22.7007
G01 X31.4362 Y22.6805
G01 X31.3577 Y22.6524
G01 X31.2822 Y22.6167
G01 X31.2107 Y22.5738
G01 X31.1437 Y22.5241
G01 X31.0819 Y22.4681
G01 X31.0259 Y22.4063
G01 X30.9762 Y22.3393
G01 X30.9333 Y22.2678
G01 X30.8976 Y22.1923
G01 X30.8695 Y22.1138
G01 X30.8493 Y22.0329
G01 X30.8370 Y21.9504
G01 X30.8329 Y21.8671
G01 X30.8329 Y12.6850
G00 Z2.0000
G00 X49.8900 Y22.7171
G01 F60.00
G01 Z-0.5000
G01 F120.00
G01 X65.8971 Y22.7171
G01 X65.9804 Y22.7130
G01 X66.0629 Y22.7007
G01 X66.1438 Y22.6805
G01 X66.2223 Y22.6524
G01 X66.2978 Y22.6167
G01 X66.3693 Y22.5738
G01 X66.4363 Y22.5241
G01 X66.4981 Y22.4681
G01 X66.5541 Y22.4063
G01 X66.6038 Y22.3393
G01 X66.6467 Y22.2678
G01 X66.6824 Y22.1923
G01 X66.7105 Y22.1138
G01 X66.7307 Y22.0329
G01 X66.7430 Y21.9504
G01 X66.7471 Y21.8671
G01 X66.7471 Y12.6850
G00 X66.7471 Y12.6850
G01 F60.00
G01 Z-1.0000
G01 F120.00
G01 X66.7471 Y21.8671
G01 X66.7430 Y21.9504
G01 X66.7307 Y22.0329
G01 X66.7105 Y22.1138
G01 X66.6824 Y22.1923
G01 X66.6467 Y22.2678
G01 X66.6038 Y22.3393
G01 X66.5541 Y22.4063
G01 X66.4981 Y22.4681
G01 X66.4363 Y22.5241
G01 X66.3693 Y22.5738
G01 X66.2978 Y22.6167
G01 X66.2223 Y22.6524
G01 X66.1438 Y22.6805
G01 X66.0629 Y22.7007
G01 X65.9804 Y22.7130
G01 X65.8971 Y22.7171
G01 X49.8900 Y22.7171
G00 X49.8900 Y22.7171
G01 F60.00
G01 Z-1.5000
G01 F120.00
G01 X65.8971 Y22.7171
G01 X65.9804 Y22.7130
G01 X66.0629 Y22.7007
G01 X66.1438 Y22.6805
G01 X66.2223 Y22.6524
G01 X66.2978 Y22.6167
G01 X66.3693 Y22.5738
G01 X66.4363 Y22.5241
G01 X66.4981 Y22.4681
G01 X66.5541 Y22.4063
G01 X66.6038 Y22.3393
G01 X66.6467 Y22.2678
G01 X66.6824 Y22.1923
G01 X66.7105 Y22.1138
G01 X66.7307 Y22.0329
G01 X66.7430 Y21.9504
G01 X66.7471 Y21.8671
G01 X66.7471 Y12.6850
G00 X66.7471 Y12.6850
G01 F60.00
G01 Z-2.0000
G01 F120.00
G01 X66.7471 Y21.8671
G01 X66.7430 Y21.9504
G01 X66.7307 Y22.0329
G01 X66.7105 Y22.1138
G01 X66.6824 Y22.1923
G01 X66.6467 Y22.2678
G01 X66.6038 Y22.3393
G01 X66.5541 Y22.4063
G01 X66.4981 Y22.4681
G01 X66.4363 Y22.5241
G01 X66.3693 Y22.5738
G01 X66.2978 Y22.6167
G01 X66.2223 Y22.6524
G01 X66.1438 Y22.6805
G01 X66.0629 Y22.7007
G01 X65.9804 Y22.7130
G01 X65.8971 Y22.7171
G01 X49.8900 Y22.7171
G00 Z2.0000
G00 X66.7471 Y10.6850
G01 F60.00
G01 Z-0.5000
G01 F120.00
G01 X66.7471 Y1.3029
G01 X66.7430 Y1.2196
G01 X66.7307 Y1.1371
G01 X66.7105 Y1.0562
G01 X66.6824 Y0.9777
G01 X66.6467 Y0.9022
G01 X66.6038 Y0.8307
G01 X66.5541 Y0.7637
G01 X66.4981 Y0.7019
G01 X66.4363 Y0.6459
G01 X66.3693 Y0.5962
G01 X66.2978 Y0.5533
G01 X66.2223 Y0.5176
G01 X66.1438 Y0.4895
G01 X66.0629 Y0.4693
G01 X65.9804 Y0.4570
G01 X65.8971 Y0.4529
G00 X65.8971 Y0.4529
G01 F60.00
G01 Z-1.0000
G01 F120.00
G01 X65.9804 Y0.4570
G01 X66.0629 Y0.4693
G01 X66.1438 Y0.4895
G01 X66.2223 Y0.5176
G01 X66.2978 Y0.5533
G01 X66.3693 Y0.5962
G01 X66.4363 Y0.6459
G01 X66.4981 Y0.7019
G01 X66.5541 Y0.7637
G01 X66.6038 Y0.8307
G01 X66.6467 Y0.9022
G01 X66.6824 Y0.9777
G01 X66.7105 Y1.0562
G01 X66.7307 Y1.1371
G01 X66.7430 Y1.2196
G01 X66.7471 Y1.3029
G01 X66.7471 Y10.6850
G00 X66.7471 Y10.6850
G01 F60.00
G01 Z-1.5000
G01 F120.00
G01 X66.7471 Y1.3029
G01 X66.7430 Y1.2196
G01 X66.7307 Y1.1371
G01 X66.7105 Y1.0562
G01 X66.6824 Y0.9777
G01 X66.6467 Y0.9022
G01 X66.6038 Y0.8307
G01 X66.5541 Y0.7637
G01 X66.4981 Y0.7019
G01 X66.4363 Y0.6459
G01 X66.3693 Y0.5962
G01 X66.2978 Y0.5533
G01 X66.2223 Y0.5176
G01 X66.1438 Y0.4895
G01 X66.0629 Y0.4693
G01 X65.9804 Y0.4570
G01 X65.8971 Y0.4529
G00 X65.8971 Y0.4529
G01 F60.00
G01 Z-2.0000
G01 F120.00
G01 X65.9804 Y0.4570
G01 X66.0629 Y0.4693
G01 X66.1438 Y0.4895
G01 X66.2223 Y0.5176
G01 X66.2978 Y0.5533
G01 X66.3693 Y0.5962
G01 X66.4363 Y0.6459
G01 X66.4981 Y0.7019
G01 X66.5541 Y0.7637
G01 X66.6038 Y0.8307
G01 X66.6467 Y0.9022
G01 X66.6824 Y0.9777
G01 X66.7105 Y1.0562
G01 X66.7307 Y1.1371
G01 X66.7430 Y1.2196
G01 X66.7471 Y1.3029
G01 X66.7471 Y10.6850
G00 Z2.0000
G00 X65.8971 Y0.4529
G01 F60.00
G01 Z-0.5000
G01 F120.00
G01 X49.8900 Y0.4529
G00 X49.8900 Y0.4529
G01 F60.00
G01 Z-1.0000
G01 F120.00
G01 X65.8971 Y0.4529
G00 X65.8971 Y0.4529
G01 F60.00
G01 Z-1.5000
G01 F120.00
G01 X49.8900 Y0.4529
G00 X49.8900 Y0.4529
G01 F60.00
G01 Z-2.0000
G01 F120.00
G01 X65.8971 Y0.4529
G00 Z2.0000
M05
G00 Z2.0000
G00 Z5.00
G00 X0.0 Y0.0

