(G-CODE GENERATED BY FLATCAM v8.991 - www.flatcam.org - Version Date: 2019/12/27)

(Name: copper_top.gbr_iso_cnc)
(Type: G-code from Geometry)
(Units: MM)

(Created on Monday, 19 June 2023 at 10:58)

(TOOL DIAMETER: 0.2536 mm)
(Feedrate: 120.0 mm/min)
(Feedrate_Z: 60.0 mm/min)
(Feedrate rapids 1500.0 mm/min)

(Z_Cut: -0.125 mm)
(Z_Move: 2.0 mm)
(Z Toolchange: 15.0 mm)
(X,Y Toolchange: 0.0000, 0.0000 mm)
(Z Start: None mm)
(Z End: 5.0 mm)
(Steps per circle: 64)
(Preprocessor Geometry: default)

(X range:    9.6524 ...   34.0864  mm)
(Y range:   14.3511 ...   28.3210  mm)

(Spindle Speed: 65000 RPM)
G21
G90
G94

(Acceleration settings)
M204 P36000 T36000

(Rapid speed)
G00 F1200.00

(Auto leveling map probing)
G29 L0 R40 F0 B35 N6 N6

(Tool change)
M06


G01 F120.00
G00 Z2.0000

M03 S65000
G00 X11.7852 Y15.5256
G01 F60.00
G01 Z-0.1250
G01 F120.00
G01 X11.7807 Y15.6177
G01 X11.7795 Y15.6301
G01 X11.7660 Y15.7214
G01 X11.7635 Y15.7336
G01 X11.7411 Y15.8230
G01 X11.7375 Y15.8349
G01 X11.7064 Y15.9218
G01 X11.7017 Y15.9333
G01 X11.6623 Y16.0166
G01 X11.6564 Y16.0276
G01 X11.6090 Y16.1067
G01 X11.6021 Y16.1171
G01 X11.5471 Y16.1911
G01 X11.5392 Y16.2008
G01 X11.4773 Y16.2691
G01 X11.4685 Y16.2779
G01 X11.4002 Y16.3398
G01 X11.3905 Y16.3477
G01 X11.3165 Y16.4027
G01 X11.3061 Y16.4096
G01 X11.2270 Y16.4570
G01 X11.2160 Y16.4629
G01 X11.1327 Y16.5023
G01 X11.1212 Y16.5070
G01 X11.0343 Y16.5381
G01 X11.0224 Y16.5417
G01 X10.9330 Y16.5641
G01 X10.9208 Y16.5666
G01 X10.8295 Y16.5801
G01 X10.8171 Y16.5813
G01 X10.7250 Y16.5858
G01 X10.7126 Y16.5858
G01 X10.6205 Y16.5813
G01 X10.6081 Y16.5801
G01 X10.5168 Y16.5666
G01 X10.5046 Y16.5641
G01 X10.4152 Y16.5417
G01 X10.4033 Y16.5381
G01 X10.3164 Y16.5070
G01 X10.3049 Y16.5023
G01 X10.2216 Y16.4629
G01 X10.2106 Y16.4570
G01 X10.1315 Y16.4096
G01 X10.1211 Y16.4027
G01 X10.0471 Y16.3477
G01 X10.0374 Y16.3398
G01 X9.9691 Y16.2779
G01 X9.9603 Y16.2691
G01 X9.8984 Y16.2008
G01 X9.8905 Y16.1911
G01 X9.8355 Y16.1171
G01 X9.8286 Y16.1067
G01 X9.7812 Y16.0276
G01 X9.7753 Y16.0166
G01 X9.7359 Y15.9333
G01 X9.7312 Y15.9218
G01 X9.7001 Y15.8349
G01 X9.6965 Y15.8230
G01 X9.6741 Y15.7336
G01 X9.6716 Y15.7214
G01 X9.6581 Y15.6301
G01 X9.6569 Y15.6177
G01 X9.6524 Y15.5256
G01 X9.6524 Y15.5132
G01 X9.6569 Y15.4211
G01 X9.6581 Y15.4087
G01 X9.6716 Y15.3174
G01 X9.6741 Y15.3052
G01 X9.6965 Y15.2158
G01 X9.7001 Y15.2039
G01 X9.7312 Y15.1170
G01 X9.7359 Y15.1055
G01 X9.7753 Y15.0222
G01 X9.7812 Y15.0112
G01 X9.8286 Y14.9321
G01 X9.8355 Y14.9217
G01 X9.8905 Y14.8477
G01 X9.8984 Y14.8380
G01 X9.9603 Y14.7697
G01 X9.9691 Y14.7609
G01 X10.0374 Y14.6990
G01 X10.0471 Y14.6911
G01 X10.1211 Y14.6361
G01 X10.1315 Y14.6292
G01 X10.2106 Y14.5818
G01 X10.2216 Y14.5759
G01 X10.3049 Y14.5365
G01 X10.3164 Y14.5318
G01 X10.4033 Y14.5007
G01 X10.4152 Y14.4971
G01 X10.5046 Y14.4747
G01 X10.5168 Y14.4722
G01 X10.6081 Y14.4587
G01 X10.6205 Y14.4575
G01 X10.7126 Y14.4530
G01 X10.7250 Y14.4530
G01 X10.8171 Y14.4575
G01 X10.8295 Y14.4587
G01 X10.9208 Y14.4722
G01 X10.9330 Y14.4747
G01 X11.0224 Y14.4971
G01 X11.0343 Y14.5007
G01 X11.1212 Y14.5318
G01 X11.1327 Y14.5365
G01 X11.2160 Y14.5759
G01 X11.2270 Y14.5818
G01 X11.3061 Y14.6292
G01 X11.3165 Y14.6361
G01 X11.3905 Y14.6911
G01 X11.4002 Y14.6990
G01 X11.4685 Y14.7609
G01 X11.4773 Y14.7697
G01 X11.5392 Y14.8380
G01 X11.5471 Y14.8477
G01 X11.6021 Y14.9217
G01 X11.6090 Y14.9321
G01 X11.6564 Y15.0112
G01 X11.6623 Y15.0222
G01 X11.7017 Y15.1055
G01 X11.7064 Y15.1170
G01 X11.7375 Y15.2039
G01 X11.7411 Y15.2158
G01 X11.7635 Y15.3052
G01 X11.7660 Y15.3174
G01 X11.7795 Y15.4087
G01 X11.7807 Y15.4211
G01 X11.7852 Y15.5132
G01 X11.7852 Y15.5256
G00 Z2.0000
G00 X11.7852 Y20.0468
G01 F60.00
G01 Z-0.1250
G01 F120.00
G01 X11.7807 Y20.1389
G01 X11.7795 Y20.1513
G01 X11.7660 Y20.2426
G01 X11.7635 Y20.2548
G01 X11.7411 Y20.3442
G01 X11.7375 Y20.3561
G01 X11.7064 Y20.4430
G01 X11.7017 Y20.4545
G01 X11.6623 Y20.5378
G01 X11.6564 Y20.5488
G01 X11.6090 Y20.6279
G01 X11.6021 Y20.6383
G01 X11.5471 Y20.7123
G01 X11.5392 Y20.7220
G01 X11.4773 Y20.7903
G01 X11.4685 Y20.7991
G01 X11.4002 Y20.8610
G01 X11.3905 Y20.8689
G01 X11.3165 Y20.9239
G01 X11.3061 Y20.9308
G01 X11.2270 Y20.9782
G01 X11.2160 Y20.9841
G01 X11.1327 Y21.0235
G01 X11.1212 Y21.0282
G01 X11.0343 Y21.0593
G01 X11.0224 Y21.0629
G01 X10.9330 Y21.0853
G01 X10.9208 Y21.0878
G01 X10.8295 Y21.1013
G01 X10.8171 Y21.1025
G01 X10.7250 Y21.1070
G01 X10.7126 Y21.1070
G01 X10.6205 Y21.1025
G01 X10.6081 Y21.1013
G01 X10.5168 Y21.0878
G01 X10.5046 Y21.0853
G01 X10.4152 Y21.0629
G01 X10.4033 Y21.0593
G01 X10.3164 Y21.0282
G01 X10.3049 Y21.0235
G01 X10.2216 Y20.9841
G01 X10.2106 Y20.9782
G01 X10.1315 Y20.9308
G01 X10.1211 Y20.9239
G01 X10.0471 Y20.8689
G01 X10.0374 Y20.8610
G01 X9.9691 Y20.7991
G01 X9.9603 Y20.7903
G01 X9.8984 Y20.7220
G01 X9.8905 Y20.7123
G01 X9.8355 Y20.6383
G01 X9.8286 Y20.6279
G01 X9.7812 Y20.5488
G01 X9.7753 Y20.5378
G01 X9.7359 Y20.4545
G01 X9.7312 Y20.4430
G01 X9.7001 Y20.3561
G01 X9.6965 Y20.3442
G01 X9.6741 Y20.2548
G01 X9.6716 Y20.2426
G01 X9.6581 Y20.1513
G01 X9.6569 Y20.1389
G01 X9.6524 Y20.0468
G01 X9.6524 Y20.0344
G01 X9.6569 Y19.9423
G01 X9.6581 Y19.9299
G01 X9.6716 Y19.8386
G01 X9.6741 Y19.8264
G01 X9.6965 Y19.7370
G01 X9.7001 Y19.7251
G01 X9.7312 Y19.6382
G01 X9.7359 Y19.6267
G01 X9.7753 Y19.5434
G01 X9.7812 Y19.5324
G01 X9.8286 Y19.4533
G01 X9.8355 Y19.4429
G01 X9.8905 Y19.3689
G01 X9.8984 Y19.3592
G01 X9.9603 Y19.2909
G01 X9.9691 Y19.2821
G01 X10.0374 Y19.2202
G01 X10.0471 Y19.2123
G01 X10.1211 Y19.1573
G01 X10.1315 Y19.1504
G01 X10.2106 Y19.1030
G01 X10.2216 Y19.0971
G01 X10.3049 Y19.0577
G01 X10.3164 Y19.0530
G01 X10.4033 Y19.0219
G01 X10.4152 Y19.0183
G01 X10.5046 Y18.9959
G01 X10.5168 Y18.9934
G01 X10.6081 Y18.9799
G01 X10.6205 Y18.9787
G01 X10.7126 Y18.9742
G01 X10.7250 Y18.9742
G01 X10.8171 Y18.9787
G01 X10.8295 Y18.9799
G01 X10.9208 Y18.9934
G01 X10.9330 Y18.9959
G01 X11.0224 Y19.0183
G01 X11.0343 Y19.0219
G01 X11.1212 Y19.0530
G01 X11.1327 Y19.0577
G01 X11.2160 Y19.0971
G01 X11.2270 Y19.1030
G01 X11.3061 Y19.1504
G01 X11.3165 Y19.1573
G01 X11.3905 Y19.2123
G01 X11.4002 Y19.2202
G01 X11.4685 Y19.2821
G01 X11.4773 Y19.2909
G01 X11.5392 Y19.3592
G01 X11.5471 Y19.3689
G01 X11.6021 Y19.4429
G01 X11.6090 Y19.4533
G01 X11.6564 Y19.5324
G01 X11.6623 Y19.5434
G01 X11.7017 Y19.6267
G01 X11.7064 Y19.6382
G01 X11.7375 Y19.7251
G01 X11.7411 Y19.7370
G01 X11.7635 Y19.8264
G01 X11.7660 Y19.8386
G01 X11.7795 Y19.9299
G01 X11.7807 Y19.9423
G01 X11.7852 Y20.0344
G01 X11.7852 Y20.0468
G00 Z2.0000
G00 X16.9851 Y21.0799
G01 F60.00
G01 Z-0.1250
G01 F120.00
G01 X16.9176 Y21.0629
G01 X16.9057 Y21.0593
G01 X16.8188 Y21.0282
G01 X16.8073 Y21.0235
G01 X16.7240 Y20.9841
G01 X16.7130 Y20.9782
G01 X16.6339 Y20.9308
G01 X16.6235 Y20.9239
G01 X16.5495 Y20.8689
G01 X16.5398 Y20.8610
G01 X16.4715 Y20.7991
G01 X16.4627 Y20.7903
G01 X16.4008 Y20.7220
G01 X16.3929 Y20.7123
G01 X16.3379 Y20.6383
G01 X16.3310 Y20.6279
G01 X16.2836 Y20.5488
G01 X16.2777 Y20.5378
G01 X16.2383 Y20.4545
G01 X16.2336 Y20.4430
G01 X16.2025 Y20.3561
G01 X16.1989 Y20.3442
G01 X16.1765 Y20.2548
G01 X16.1740 Y20.2426
G01 X16.1605 Y20.1513
G01 X16.1593 Y20.1389
G01 X16.1548 Y20.0468
G01 X16.1548 Y20.0344
G01 X16.1593 Y19.9423
G01 X16.1605 Y19.9299
G01 X16.1740 Y19.8386
G01 X16.1765 Y19.8264
G01 X16.1989 Y19.7370
G01 X16.2025 Y19.7251
G01 X16.2336 Y19.6382
G01 X16.2383 Y19.6267
G01 X16.2777 Y19.5434
G01 X16.2836 Y19.5324
G01 X16.3310 Y19.4533
G01 X16.3379 Y19.4429
G01 X16.3929 Y19.3689
G01 X16.4008 Y19.3592
G01 X16.4627 Y19.2909
G01 X16.4715 Y19.2821
G01 X16.5398 Y19.2202
G01 X16.5495 Y19.2123
G01 X16.6235 Y19.1573
G01 X16.6339 Y19.1504
G01 X16.7130 Y19.1030
G01 X16.7240 Y19.0971
G01 X16.8073 Y19.0577
G01 X16.8188 Y19.0530
G01 X16.9057 Y19.0219
G01 X16.9176 Y19.0183
G01 X17.0070 Y18.9959
G01 X17.0192 Y18.9934
G01 X17.1105 Y18.9799
G01 X17.1229 Y18.9787
G01 X17.2150 Y18.9742
G01 X17.2274 Y18.9742
G01 X17.3195 Y18.9787
G01 X17.3319 Y18.9799
G01 X17.4232 Y18.9934
G01 X17.4354 Y18.9959
G01 X17.5248 Y19.0183
G01 X17.5367 Y19.0219
G01 X17.6236 Y19.0530
G01 X17.6351 Y19.0577
G01 X17.7184 Y19.0971
G01 X17.7294 Y19.1030
G01 X17.8085 Y19.1504
G01 X17.8189 Y19.1573
G01 X17.8929 Y19.2123
G01 X17.9026 Y19.2202
G01 X17.9709 Y19.2821
G01 X17.9797 Y19.2909
G01 X18.0416 Y19.3592
G01 X18.0495 Y19.3689
G01 X18.1045 Y19.4429
G01 X18.1114 Y19.4533
G01 X18.1588 Y19.5324
G01 X18.1647 Y19.5434
G01 X18.2041 Y19.6267
G01 X18.2088 Y19.6382
G01 X18.2399 Y19.7251
G01 X18.2435 Y19.7370
G01 X18.2659 Y19.8264
G01 X18.2684 Y19.8386
G01 X18.2819 Y19.9299
G01 X18.2831 Y19.9423
G01 X18.2876 Y20.0344
G01 X18.2876 Y20.0468
G01 X18.2831 Y20.1389
G01 X18.2819 Y20.1513
G01 X18.2684 Y20.2426
G01 X18.2659 Y20.2548
G01 X18.2435 Y20.3442
G01 X18.2399 Y20.3561
G01 X18.2088 Y20.4430
G01 X18.2041 Y20.4545
G01 X18.1647 Y20.5378
G01 X18.1588 Y20.5488
G01 X18.1114 Y20.6279
G01 X18.1045 Y20.6383
G01 X18.0495 Y20.7123
G01 X18.0416 Y20.7220
G01 X17.9797 Y20.7903
G01 X17.9709 Y20.7991
G01 X17.9026 Y20.8610
G01 X17.8929 Y20.8689
G01 X17.8692 Y20.8865
G01 X22.2473 Y25.2645
G01 X22.2912 Y25.2247
G01 X22.3008 Y25.2168
G01 X22.3609 Y25.1723
G01 X22.3713 Y25.1653
G01 X22.4354 Y25.1269
G01 X22.4464 Y25.1210
G01 X22.5140 Y25.0890
G01 X22.5255 Y25.0843
G01 X22.5960 Y25.0591
G01 X22.6079 Y25.0554
G01 X22.6805 Y25.0373
G01 X22.6927 Y25.0348
G01 X22.7667 Y25.0239
G01 X22.7791 Y25.0226
G01 X22.8538 Y25.0190
G01 X22.8662 Y25.0190
G01 X22.9409 Y25.0226
G01 X22.9533 Y25.0239
G01 X23.0273 Y25.0348
G01 X23.0395 Y25.0373
G01 X23.1121 Y25.0554
G01 X23.1240 Y25.0591
G01 X23.1945 Y25.0843
G01 X23.2060 Y25.0890
G01 X23.2736 Y25.1210
G01 X23.2846 Y25.1269
G01 X23.3487 Y25.1653
G01 X23.3591 Y25.1723
G01 X23.4192 Y25.2168
G01 X23.4288 Y25.2247
G01 X23.4842 Y25.2750
G01 X23.4930 Y25.2838
G01 X23.5433 Y25.3392
G01 X23.5512 Y25.3488
G01 X23.5957 Y25.4089
G01 X23.6027 Y25.4193
G01 X23.6411 Y25.4834
G01 X23.6470 Y25.4944
G01 X23.6790 Y25.5620
G01 X23.6837 Y25.5735
G01 X23.7089 Y25.6440
G01 X23.7126 Y25.6559
G01 X23.7307 Y25.7285
G01 X23.7332 Y25.7407
G01 X23.7441 Y25.8147
G01 X23.7454 Y25.8271
G01 X23.7492 Y25.9080
G01 X23.7490 Y27.4382
G01 X23.7454 Y27.5129
G01 X23.7441 Y27.5253
G01 X23.7332 Y27.5993
G01 X23.7307 Y27.6115
G01 X23.7126 Y27.6841
G01 X23.7089 Y27.6960
G01 X23.6837 Y27.7665
G01 X23.6790 Y27.7780
G01 X23.6470 Y27.8456
G01 X23.6411 Y27.8566
G01 X23.6027 Y27.9207
G01 X23.5957 Y27.9311
G01 X23.5512 Y27.9912
G01 X23.5433 Y28.0008
G01 X23.4930 Y28.0562
G01 X23.4842 Y28.0650
G01 X23.4288 Y28.1153
G01 X23.4192 Y28.1232
G01 X23.3591 Y28.1677
G01 X23.3487 Y28.1747
G01 X23.2846 Y28.2131
G01 X23.2736 Y28.2190
G01 X23.2060 Y28.2510
G01 X23.1945 Y28.2557
G01 X23.1240 Y28.2809
G01 X23.1121 Y28.2846
G01 X23.0395 Y28.3027
G01 X23.0273 Y28.3052
G01 X22.9533 Y28.3161
G01 X22.9409 Y28.3174
G01 X22.8662 Y28.3210
G01 X22.8538 Y28.3210
G01 X22.7791 Y28.3174
G01 X22.7667 Y28.3161
G01 X22.6927 Y28.3052
G01 X22.6805 Y28.3027
G01 X22.6079 Y28.2846
G01 X22.5960 Y28.2809
G01 X22.5255 Y28.2557
G01 X22.5140 Y28.2510
G01 X22.4464 Y28.2190
G01 X22.4354 Y28.2131
G01 X22.3713 Y28.1747
G01 X22.3609 Y28.1677
G01 X22.3008 Y28.1232
G01 X22.2912 Y28.1153
G01 X22.2358 Y28.0650
G01 X22.2270 Y28.0562
G01 X22.1767 Y28.0008
G01 X22.1688 Y27.9912
G01 X22.1243 Y27.9311
G01 X22.1173 Y27.9207
G01 X22.0789 Y27.8566
G01 X22.0730 Y27.8456
G01 X22.0410 Y27.7780
G01 X22.0363 Y27.7665
G01 X22.0111 Y27.6960
G01 X22.0074 Y27.6841
G01 X21.9893 Y27.6115
G01 X21.9868 Y27.5993
G01 X21.9759 Y27.5253
G01 X21.9746 Y27.5129
G01 X21.9708 Y27.4320
G01 X21.9708 Y26.0655
G01 X16.9851 Y21.0799
G00 Z2.0000
G00 X18.0580 Y14.8591
G01 F60.00
G01 Z-0.1250
G01 F120.00
G01 X28.7982 Y14.8591
G01 X29.1946 Y14.4626
G01 X29.2176 Y14.4416
G01 X29.2272 Y14.4337
G01 X29.2473 Y14.4189
G01 X29.2576 Y14.4119
G01 X29.2790 Y14.3991
G01 X29.2900 Y14.3933
G01 X29.3125 Y14.3826
G01 X29.3240 Y14.3778
G01 X29.3475 Y14.3694
G01 X29.3594 Y14.3658
G01 X29.3836 Y14.3598
G01 X29.3958 Y14.3573
G01 X29.4205 Y14.3537
G01 X29.4329 Y14.3524
G01 X29.4640 Y14.3511
G01 X31.4960 Y14.3511
G01 X31.5271 Y14.3524
G01 X31.5395 Y14.3537
G01 X31.5642 Y14.3573
G01 X31.5764 Y14.3598
G01 X31.6006 Y14.3658
G01 X31.6125 Y14.3694
G01 X31.6360 Y14.3778
G01 X31.6475 Y14.3826
G01 X31.6700 Y14.3933
G01 X31.6810 Y14.3991
G01 X31.7024 Y14.4119
G01 X31.7127 Y14.4189
G01 X31.7328 Y14.4337
G01 X31.7424 Y14.4416
G01 X31.7654 Y14.4626
G01 X32.7756 Y15.4728
G01 X32.8058 Y15.4653
G01 X32.8180 Y15.4628
G01 X32.9093 Y15.4493
G01 X32.9217 Y15.4481
G01 X33.0138 Y15.4436
G01 X33.0262 Y15.4436
G01 X33.1183 Y15.4481
G01 X33.1307 Y15.4493
G01 X33.2220 Y15.4628
G01 X33.2342 Y15.4653
G01 X33.3236 Y15.4877
G01 X33.3355 Y15.4913
G01 X33.4224 Y15.5224
G01 X33.4339 Y15.5271
G01 X33.5172 Y15.5665
G01 X33.5282 Y15.5724
G01 X33.6073 Y15.6198
G01 X33.6177 Y15.6267
G01 X33.6917 Y15.6817
G01 X33.7014 Y15.6896
G01 X33.7697 Y15.7515
G01 X33.7785 Y15.7603
G01 X33.8404 Y15.8286
G01 X33.8483 Y15.8383
G01 X33.9033 Y15.9123
G01 X33.9102 Y15.9227
G01 X33.9576 Y16.0018
G01 X33.9635 Y16.0128
G01 X34.0029 Y16.0961
G01 X34.0076 Y16.1076
G01 X34.0387 Y16.1945
G01 X34.0423 Y16.2064
G01 X34.0647 Y16.2958
G01 X34.0672 Y16.3080
G01 X34.0807 Y16.3993
G01 X34.0819 Y16.4117
G01 X34.0864 Y16.5038
G01 X34.0864 Y16.5162
G01 X34.0819 Y16.6083
G01 X34.0807 Y16.6207
G01 X34.0672 Y16.7120
G01 X34.0647 Y16.7242
G01 X34.0423 Y16.8136
G01 X34.0387 Y16.8255
G01 X34.0076 Y16.9124
G01 X34.0029 Y16.9239
G01 X33.9635 Y17.0072
G01 X33.9576 Y17.0182
G01 X33.9102 Y17.0973
G01 X33.9033 Y17.1077
G01 X33.8483 Y17.1817
G01 X33.8404 Y17.1914
G01 X33.7785 Y17.2597
G01 X33.7697 Y17.2685
G01 X33.7014 Y17.3304
G01 X33.6917 Y17.3383
G01 X33.6177 Y17.3933
G01 X33.6073 Y17.4002
G01 X33.5282 Y17.4476
G01 X33.5172 Y17.4535
G01 X33.4339 Y17.4929
G01 X33.4224 Y17.4976
G01 X33.3355 Y17.5287
G01 X33.3236 Y17.5323
G01 X33.2342 Y17.5547
G01 X33.2220 Y17.5572
G01 X33.1307 Y17.5707
G01 X33.1183 Y17.5719
G01 X33.0262 Y17.5764
G01 X33.0138 Y17.5764
G01 X32.9217 Y17.5719
G01 X32.9093 Y17.5707
G01 X32.8180 Y17.5572
G01 X32.8058 Y17.5547
G01 X32.7164 Y17.5323
G01 X32.7045 Y17.5287
G01 X32.6176 Y17.4976
G01 X32.6061 Y17.4929
G01 X32.5228 Y17.4535
G01 X32.5118 Y17.4476
G01 X32.4327 Y17.4002
G01 X32.4223 Y17.3933
G01 X32.3483 Y17.3383
G01 X32.3386 Y17.3304
G01 X32.2703 Y17.2685
G01 X32.2615 Y17.2597
G01 X32.1996 Y17.1914
G01 X32.1917 Y17.1817
G01 X32.1367 Y17.1077
G01 X32.1298 Y17.0973
G01 X32.0824 Y17.0182
G01 X32.0765 Y17.0072
G01 X32.0371 Y16.9239
G01 X32.0324 Y16.9124
G01 X32.0013 Y16.8255
G01 X31.9977 Y16.8136
G01 X31.9753 Y16.7242
G01 X31.9728 Y16.7120
G01 X31.9593 Y16.6207
G01 X31.9581 Y16.6083
G01 X31.9536 Y16.5162
G01 X31.9536 Y16.5038
G01 X31.9581 Y16.4117
G01 X31.9593 Y16.3993
G01 X31.9728 Y16.3080
G01 X31.9753 Y16.2958
G01 X31.9977 Y16.2064
G01 X32.0013 Y16.1945
G01 X32.0324 Y16.1076
G01 X32.0371 Y16.0961
G01 X32.0765 Y16.0128
G01 X32.0824 Y16.0018
G01 X32.1298 Y15.9227
G01 X32.1371 Y15.9118
G01 X31.3382 Y15.1129
G01 X29.6218 Y15.1129
G01 X29.2254 Y15.5094
G01 X29.2024 Y15.5304
G01 X29.1928 Y15.5383
G01 X29.1727 Y15.5531
G01 X29.1624 Y15.5601
G01 X29.1410 Y15.5729
G01 X29.1300 Y15.5787
G01 X29.1075 Y15.5894
G01 X29.0960 Y15.5942
G01 X29.0725 Y15.6026
G01 X29.0606 Y15.6062
G01 X29.0364 Y15.6122
G01 X29.0242 Y15.6147
G01 X28.9995 Y15.6183
G01 X28.9871 Y15.6196
G01 X28.9622 Y15.6208
G01 X18.2828 Y15.6209
G01 X18.2819 Y15.6301
G01 X18.2684 Y15.7214
G01 X18.2659 Y15.7336
G01 X18.2435 Y15.8230
G01 X18.2399 Y15.8349
G01 X18.2088 Y15.9218
G01 X18.2041 Y15.9333
G01 X18.1647 Y16.0166
G01 X18.1588 Y16.0276
G01 X18.1114 Y16.1067
G01 X18.1045 Y16.1171
G01 X18.0495 Y16.1911
G01 X18.0416 Y16.2008
G01 X17.9797 Y16.2691
G01 X17.9709 Y16.2779
G01 X17.9026 Y16.3398
G01 X17.8929 Y16.3477
G01 X17.8189 Y16.4027
G01 X17.8085 Y16.4096
G01 X17.7294 Y16.4570
G01 X17.7184 Y16.4629
G01 X17.6351 Y16.5023
G01 X17.6236 Y16.5070
G01 X17.5367 Y16.5381
G01 X17.5248 Y16.5417
G01 X17.4354 Y16.5641
G01 X17.4232 Y16.5666
G01 X17.3319 Y16.5801
G01 X17.3195 Y16.5813
G01 X17.2274 Y16.5858
G01 X17.2150 Y16.5858
G01 X17.1229 Y16.5813
G01 X17.1105 Y16.5801
G01 X17.0192 Y16.5666
G01 X17.0070 Y16.5641
G01 X16.9176 Y16.5417
G01 X16.9057 Y16.5381
G01 X16.8188 Y16.5070
G01 X16.8073 Y16.5023
G01 X16.7240 Y16.4629
G01 X16.7130 Y16.4570
G01 X16.6339 Y16.4096
G01 X16.6235 Y16.4027
G01 X16.5495 Y16.3477
G01 X16.5398 Y16.3398
G01 X16.4715 Y16.2779
G01 X16.4627 Y16.2691
G01 X16.4008 Y16.2008
G01 X16.3929 Y16.1911
G01 X16.3379 Y16.1171
G01 X16.3310 Y16.1067
G01 X16.2836 Y16.0276
G01 X16.2777 Y16.0166
G01 X16.2383 Y15.9333
G01 X16.2336 Y15.9218
G01 X16.2025 Y15.8349
G01 X16.1989 Y15.8230
G01 X16.1765 Y15.7336
G01 X16.1740 Y15.7214
G01 X16.1605 Y15.6301
G01 X16.1593 Y15.6177
G01 X16.1548 Y15.5256
G01 X16.1548 Y15.5132
G01 X16.1593 Y15.4211
G01 X16.1605 Y15.4087
G01 X16.1740 Y15.3174
G01 X16.1765 Y15.3052
G01 X16.1989 Y15.2158
G01 X16.2025 Y15.2039
G01 X16.2336 Y15.1170
G01 X16.2383 Y15.1055
G01 X16.2777 Y15.0222
G01 X16.2836 Y15.0112
G01 X16.3310 Y14.9321
G01 X16.3379 Y14.9217
G01 X16.3929 Y14.8477
G01 X16.4008 Y14.8380
G01 X16.4627 Y14.7697
G01 X16.4715 Y14.7609
G01 X16.5398 Y14.6990
G01 X16.5495 Y14.6911
G01 X16.6235 Y14.6361
G01 X16.6339 Y14.6292
G01 X16.7130 Y14.5818
G01 X16.7240 Y14.5759
G01 X16.8073 Y14.5365
G01 X16.8188 Y14.5318
G01 X16.9057 Y14.5007
G01 X16.9176 Y14.4971
G01 X17.0070 Y14.4747
G01 X17.0192 Y14.4722
G01 X17.1105 Y14.4587
G01 X17.1229 Y14.4575
G01 X17.2150 Y14.4530
G01 X17.2274 Y14.4530
G01 X17.3195 Y14.4575
G01 X17.3319 Y14.4587
G01 X17.4232 Y14.4722
G01 X17.4354 Y14.4747
G01 X17.5248 Y14.4971
G01 X17.5367 Y14.5007
G01 X17.6236 Y14.5318
G01 X17.6351 Y14.5365
G01 X17.7184 Y14.5759
G01 X17.7294 Y14.5818
G01 X17.8085 Y14.6292
G01 X17.8189 Y14.6361
G01 X17.8929 Y14.6911
G01 X17.9026 Y14.6990
G01 X17.9709 Y14.7609
G01 X17.9797 Y14.7697
G01 X18.0416 Y14.8380
G01 X18.0495 Y14.8477
G01 X18.0580 Y14.8591
G00 Z2.0000
G00 X25.0191 Y25.1056
G01 F60.00
G01 Z-0.1250
G01 F120.00
G01 X25.0191 Y21.8440
G01 X25.0204 Y21.8129
G01 X25.0217 Y21.8005
G01 X25.0253 Y21.7758
G01 X25.0278 Y21.7636
G01 X25.0338 Y21.7394
G01 X25.0374 Y21.7275
G01 X25.0458 Y21.7040
G01 X25.0506 Y21.6925
G01 X25.0613 Y21.6700
G01 X25.0671 Y21.6590
G01 X25.0799 Y21.6376
G01 X25.0869 Y21.6273
G01 X25.1017 Y21.6072
G01 X25.1096 Y21.5976
G01 X25.1306 Y21.5746
G01 X29.5971 Y17.1082
G01 X29.5898 Y17.0973
G01 X29.5424 Y17.0182
G01 X29.5365 Y17.0072
G01 X29.4971 Y16.9239
G01 X29.4924 Y16.9124
G01 X29.4613 Y16.8255
G01 X29.4577 Y16.8136
G01 X29.4353 Y16.7242
G01 X29.4328 Y16.7120
G01 X29.4193 Y16.6207
G01 X29.4181 Y16.6083
G01 X29.4136 Y16.5162
G01 X29.4136 Y16.5038
G01 X29.4181 Y16.4117
G01 X29.4193 Y16.3993
G01 X29.4328 Y16.3080
G01 X29.4353 Y16.2958
G01 X29.4577 Y16.2064
G01 X29.4613 Y16.1945
G01 X29.4924 Y16.1076
G01 X29.4971 Y16.0961
G01 X29.5365 Y16.0128
G01 X29.5424 Y16.0018
G01 X29.5898 Y15.9227
G01 X29.5967 Y15.9123
G01 X29.6517 Y15.8383
G01 X29.6596 Y15.8286
G01 X29.7215 Y15.7603
G01 X29.7303 Y15.7515
G01 X29.7986 Y15.6896
G01 X29.8083 Y15.6817
G01 X29.8823 Y15.6267
G01 X29.8927 Y15.6198
G01 X29.9718 Y15.5724
G01 X29.9828 Y15.5665
G01 X30.0661 Y15.5271
G01 X30.0776 Y15.5224
G01 X30.1645 Y15.4913
G01 X30.1764 Y15.4877
G01 X30.2658 Y15.4653
G01 X30.2780 Y15.4628
G01 X30.3693 Y15.4493
G01 X30.3817 Y15.4481
G01 X30.4738 Y15.4436
G01 X30.4862 Y15.4436
G01 X30.5783 Y15.4481
G01 X30.5907 Y15.4493
G01 X30.6820 Y15.4628
G01 X30.6942 Y15.4653
G01 X30.7836 Y15.4877
G01 X30.7955 Y15.4913
G01 X30.8824 Y15.5224
G01 X30.8939 Y15.5271
G01 X30.9772 Y15.5665
G01 X30.9882 Y15.5724
G01 X31.0673 Y15.6198
G01 X31.0777 Y15.6267
G01 X31.1517 Y15.6817
G01 X31.1614 Y15.6896
G01 X31.2297 Y15.7515
G01 X31.2385 Y15.7603
G01 X31.3004 Y15.8286
G01 X31.3083 Y15.8383
G01 X31.3633 Y15.9123
G01 X31.3702 Y15.9227
G01 X31.4176 Y16.0018
G01 X31.4235 Y16.0128
G01 X31.4629 Y16.0961
G01 X31.4676 Y16.1076
G01 X31.4987 Y16.1945
G01 X31.5023 Y16.2064
G01 X31.5247 Y16.2958
G01 X31.5272 Y16.3080
G01 X31.5407 Y16.3993
G01 X31.5419 Y16.4117
G01 X31.5464 Y16.5038
G01 X31.5464 Y16.5162
G01 X31.5419 Y16.6083
G01 X31.5407 Y16.6207
G01 X31.5272 Y16.7120
G01 X31.5247 Y16.7242
G01 X31.5023 Y16.8136
G01 X31.4987 Y16.8255
G01 X31.4676 Y16.9124
G01 X31.4629 Y16.9239
G01 X31.4235 Y17.0072
G01 X31.4176 Y17.0182
G01 X31.3702 Y17.0973
G01 X31.3633 Y17.1077
G01 X31.3083 Y17.1817
G01 X31.3004 Y17.1914
G01 X31.2385 Y17.2597
G01 X31.2297 Y17.2685
G01 X31.1614 Y17.3304
G01 X31.1517 Y17.3383
G01 X31.0777 Y17.3933
G01 X31.0673 Y17.4002
G01 X30.9882 Y17.4476
G01 X30.9772 Y17.4535
G01 X30.8939 Y17.4929
G01 X30.8824 Y17.4976
G01 X30.7955 Y17.5287
G01 X30.7836 Y17.5323
G01 X30.6942 Y17.5547
G01 X30.6820 Y17.5572
G01 X30.5907 Y17.5707
G01 X30.5783 Y17.5719
G01 X30.4862 Y17.5764
G01 X30.4738 Y17.5764
G01 X30.3817 Y17.5719
G01 X30.3693 Y17.5707
G01 X30.2780 Y17.5572
G01 X30.2658 Y17.5547
G01 X30.2356 Y17.5472
G01 X25.7809 Y22.0018
G01 X25.7809 Y25.1056
G01 X25.8136 Y25.1210
G01 X25.8246 Y25.1269
G01 X25.8887 Y25.1653
G01 X25.8991 Y25.1723
G01 X25.9592 Y25.2168
G01 X25.9688 Y25.2247
G01 X26.0242 Y25.2750
G01 X26.0330 Y25.2838
G01 X26.0833 Y25.3392
G01 X26.0912 Y25.3488
G01 X26.1357 Y25.4089
G01 X26.1427 Y25.4193
G01 X26.1811 Y25.4834
G01 X26.1870 Y25.4944
G01 X26.2190 Y25.5620
G01 X26.2237 Y25.5735
G01 X26.2489 Y25.6440
G01 X26.2526 Y25.6559
G01 X26.2707 Y25.7285
G01 X26.2732 Y25.7407
G01 X26.2841 Y25.8147
G01 X26.2854 Y25.8271
G01 X26.2892 Y25.9080
G01 X26.2890 Y27.4382
G01 X26.2854 Y27.5129
G01 X26.2841 Y27.5253
G01 X26.2732 Y27.5993
G01 X26.2707 Y27.6115
G01 X26.2526 Y27.6841
G01 X26.2489 Y27.6960
G01 X26.2237 Y27.7665
G01 X26.2190 Y27.7780
G01 X26.1870 Y27.8456
G01 X26.1811 Y27.8566
G01 X26.1427 Y27.9207
G01 X26.1357 Y27.9311
G01 X26.0912 Y27.9912
G01 X26.0833 Y28.0008
G01 X26.0330 Y28.0562
G01 X26.0242 Y28.0650
G01 X25.9688 Y28.1153
G01 X25.9592 Y28.1232
G01 X25.8991 Y28.1677
G01 X25.8887 Y28.1747
G01 X25.8246 Y28.2131
G01 X25.8136 Y28.2190
G01 X25.7460 Y28.2510
G01 X25.7345 Y28.2557
G01 X25.6640 Y28.2809
G01 X25.6521 Y28.2846
G01 X25.5795 Y28.3027
G01 X25.5673 Y28.3052
G01 X25.4933 Y28.3161
G01 X25.4809 Y28.3174
G01 X25.4062 Y28.3210
G01 X25.3938 Y28.3210
G01 X25.3191 Y28.3174
G01 X25.3067 Y28.3161
G01 X25.2327 Y28.3052
G01 X25.2205 Y28.3027
G01 X25.1479 Y28.2846
G01 X25.1360 Y28.2809
G01 X25.0655 Y28.2557
G01 X25.0540 Y28.2510
G01 X24.9864 Y28.2190
G01 X24.9754 Y28.2131
G01 X24.9113 Y28.1747
G01 X24.9009 Y28.1677
G01 X24.8408 Y28.1232
G01 X24.8312 Y28.1153
G01 X24.7758 Y28.0650
G01 X24.7670 Y28.0562
G01 X24.7167 Y28.0008
G01 X24.7088 Y27.9912
G01 X24.6643 Y27.9311
G01 X24.6573 Y27.9207
G01 X24.6189 Y27.8566
G01 X24.6130 Y27.8456
G01 X24.5810 Y27.7780
G01 X24.5763 Y27.7665
G01 X24.5511 Y27.6960
G01 X24.5474 Y27.6841
G01 X24.5293 Y27.6115
G01 X24.5268 Y27.5993
G01 X24.5159 Y27.5253
G01 X24.5146 Y27.5129
G01 X24.5108 Y27.4320
G01 X24.5108 Y25.9080
G01 X24.5146 Y25.8271
G01 X24.5159 Y25.8147
G01 X24.5268 Y25.7407
G01 X24.5293 Y25.7285
G01 X24.5474 Y25.6559
G01 X24.5511 Y25.6440
G01 X24.5763 Y25.5735
G01 X24.5810 Y25.5620
G01 X24.6130 Y25.4944
G01 X24.6189 Y25.4834
G01 X24.6573 Y25.4193
G01 X24.6643 Y25.4089
G01 X24.7088 Y25.3488
G01 X24.7167 Y25.3392
G01 X24.7670 Y25.2838
G01 X24.7758 Y25.2750
G01 X24.8312 Y25.2247
G01 X24.8408 Y25.2168
G01 X24.9009 Y25.1723
G01 X24.9113 Y25.1653
G01 X24.9754 Y25.1269
G01 X24.9864 Y25.1210
G01 X25.0191 Y25.1056
G00 Z2.0000
M05
G00 Z2.0000
G00 Z5.00
G00 X0.0 Y0.0

