(G-CODE GENERATED BY FLATCAM v8.991 - www.flatcam.org - Version Date: 2019/12/27)

(Name: copper_top.gbr_iso_cnc)
(Type: G-code from Geometry)
(Units: MM)

(Created on Wednesday, 07 June 2023 at 23:30)

(TOOL DIAMETER: 0.2 mm)
(Feedrate: 120.0 mm/min)
(Feedrate_Z: 60.0 mm/min)
(Feedrate rapids 1500.0 mm/min)

(Z_Cut: -0.2 mm)
(Z_Move: 2.0 mm)
(Z Toolchange: 15.0 mm)
(X,Y Toolchange: 0.0000, 0.0000 mm)
(Z Start: None mm)
(Z End: 2.0 mm)
(Steps per circle: 64)
(Preprocessor Geometry: default)

(X range:    9.6791 ...   34.0597  mm)
(Y range:   14.3779 ...   28.2943  mm)

(Spindle Speed: 25000 RPM)
G21
G90
G94




G01 F120.00
G00 Z2.0000

M03 S25000
G00 X11.7585 Y15.5243
G01 F60.00
G01 Z-0.2000
G01 F120.00
G01 X11.7540 Y15.6164
G01 X11.7530 Y15.6262
G01 X11.7395 Y15.7174
G01 X11.7375 Y15.7270
G01 X11.7151 Y15.8165
G01 X11.7123 Y15.8259
G01 X11.6812 Y15.9127
G01 X11.6775 Y15.9218
G01 X11.6380 Y16.0052
G01 X11.6334 Y16.0138
G01 X11.5860 Y16.0929
G01 X11.5805 Y16.1011
G01 X11.5256 Y16.1752
G01 X11.5194 Y16.1828
G01 X11.4574 Y16.2511
G01 X11.4505 Y16.2580
G01 X11.3822 Y16.3200
G01 X11.3746 Y16.3262
G01 X11.3005 Y16.3811
G01 X11.2923 Y16.3866
G01 X11.2132 Y16.4340
G01 X11.2046 Y16.4386
G01 X11.1212 Y16.4781
G01 X11.1121 Y16.4818
G01 X11.0253 Y16.5129
G01 X11.0159 Y16.5157
G01 X10.9264 Y16.5381
G01 X10.9168 Y16.5401
G01 X10.8256 Y16.5536
G01 X10.8158 Y16.5546
G01 X10.7237 Y16.5591
G01 X10.7139 Y16.5591
G01 X10.6218 Y16.5546
G01 X10.6120 Y16.5536
G01 X10.5208 Y16.5401
G01 X10.5112 Y16.5381
G01 X10.4217 Y16.5157
G01 X10.4123 Y16.5129
G01 X10.3255 Y16.4818
G01 X10.3164 Y16.4781
G01 X10.2330 Y16.4386
G01 X10.2244 Y16.4340
G01 X10.1453 Y16.3866
G01 X10.1371 Y16.3811
G01 X10.0630 Y16.3262
G01 X10.0554 Y16.3200
G01 X9.9871 Y16.2580
G01 X9.9802 Y16.2511
G01 X9.9182 Y16.1828
G01 X9.9120 Y16.1752
G01 X9.8571 Y16.1011
G01 X9.8516 Y16.0929
G01 X9.8042 Y16.0138
G01 X9.7996 Y16.0052
G01 X9.7601 Y15.9218
G01 X9.7564 Y15.9127
G01 X9.7253 Y15.8259
G01 X9.7225 Y15.8165
G01 X9.7001 Y15.7270
G01 X9.6981 Y15.7174
G01 X9.6846 Y15.6262
G01 X9.6836 Y15.6164
G01 X9.6791 Y15.5243
G01 X9.6791 Y15.5145
G01 X9.6836 Y15.4224
G01 X9.6846 Y15.4126
G01 X9.6981 Y15.3214
G01 X9.7001 Y15.3118
G01 X9.7225 Y15.2223
G01 X9.7253 Y15.2129
G01 X9.7564 Y15.1261
G01 X9.7601 Y15.1170
G01 X9.7996 Y15.0336
G01 X9.8042 Y15.0250
G01 X9.8516 Y14.9459
G01 X9.8571 Y14.9377
G01 X9.9120 Y14.8636
G01 X9.9182 Y14.8560
G01 X9.9802 Y14.7877
G01 X9.9871 Y14.7808
G01 X10.0554 Y14.7188
G01 X10.0630 Y14.7126
G01 X10.1371 Y14.6577
G01 X10.1453 Y14.6522
G01 X10.2244 Y14.6048
G01 X10.2330 Y14.6002
G01 X10.3164 Y14.5607
G01 X10.3255 Y14.5570
G01 X10.4123 Y14.5259
G01 X10.4217 Y14.5231
G01 X10.5112 Y14.5007
G01 X10.5208 Y14.4987
G01 X10.6120 Y14.4852
G01 X10.6218 Y14.4842
G01 X10.7139 Y14.4797
G01 X10.7237 Y14.4797
G01 X10.8158 Y14.4842
G01 X10.8256 Y14.4852
G01 X10.9168 Y14.4987
G01 X10.9264 Y14.5007
G01 X11.0159 Y14.5231
G01 X11.0253 Y14.5259
G01 X11.1121 Y14.5570
G01 X11.1212 Y14.5607
G01 X11.2046 Y14.6002
G01 X11.2132 Y14.6048
G01 X11.2923 Y14.6522
G01 X11.3005 Y14.6577
G01 X11.3746 Y14.7126
G01 X11.3822 Y14.7188
G01 X11.4505 Y14.7808
G01 X11.4574 Y14.7877
G01 X11.5194 Y14.8560
G01 X11.5256 Y14.8636
G01 X11.5805 Y14.9377
G01 X11.5860 Y14.9459
G01 X11.6334 Y15.0250
G01 X11.6380 Y15.0336
G01 X11.6775 Y15.1170
G01 X11.6812 Y15.1261
G01 X11.7123 Y15.2129
G01 X11.7151 Y15.2223
G01 X11.7375 Y15.3118
G01 X11.7395 Y15.3214
G01 X11.7530 Y15.4126
G01 X11.7540 Y15.4224
G01 X11.7585 Y15.5145
G01 X11.7585 Y15.5243
G00 Z2.0000
G00 X11.7585 Y20.0455
G01 F60.00
G01 Z-0.2000
G01 F120.00
G01 X11.7540 Y20.1376
G01 X11.7530 Y20.1474
G01 X11.7395 Y20.2386
G01 X11.7375 Y20.2482
G01 X11.7151 Y20.3377
G01 X11.7123 Y20.3471
G01 X11.6812 Y20.4339
G01 X11.6775 Y20.4430
G01 X11.6380 Y20.5264
G01 X11.6334 Y20.5350
G01 X11.5860 Y20.6141
G01 X11.5805 Y20.6223
G01 X11.5256 Y20.6964
G01 X11.5194 Y20.7040
G01 X11.4574 Y20.7723
G01 X11.4505 Y20.7792
G01 X11.3822 Y20.8412
G01 X11.3746 Y20.8474
G01 X11.3005 Y20.9023
G01 X11.2923 Y20.9078
G01 X11.2132 Y20.9552
G01 X11.2046 Y20.9598
G01 X11.1212 Y20.9993
G01 X11.1121 Y21.0030
G01 X11.0253 Y21.0341
G01 X11.0159 Y21.0369
G01 X10.9264 Y21.0593
G01 X10.9168 Y21.0613
G01 X10.8256 Y21.0748
G01 X10.8158 Y21.0758
G01 X10.7237 Y21.0803
G01 X10.7139 Y21.0803
G01 X10.6218 Y21.0758
G01 X10.6120 Y21.0748
G01 X10.5208 Y21.0613
G01 X10.5112 Y21.0593
G01 X10.4217 Y21.0369
G01 X10.4123 Y21.0341
G01 X10.3255 Y21.0030
G01 X10.3164 Y20.9993
G01 X10.2330 Y20.9598
G01 X10.2244 Y20.9552
G01 X10.1453 Y20.9078
G01 X10.1371 Y20.9023
G01 X10.0630 Y20.8474
G01 X10.0554 Y20.8412
G01 X9.9871 Y20.7792
G01 X9.9802 Y20.7723
G01 X9.9182 Y20.7040
G01 X9.9120 Y20.6964
G01 X9.8571 Y20.6223
G01 X9.8516 Y20.6141
G01 X9.8042 Y20.5350
G01 X9.7996 Y20.5264
G01 X9.7601 Y20.4430
G01 X9.7564 Y20.4339
G01 X9.7253 Y20.3471
G01 X9.7225 Y20.3377
G01 X9.7001 Y20.2482
G01 X9.6981 Y20.2386
G01 X9.6846 Y20.1474
G01 X9.6836 Y20.1376
G01 X9.6791 Y20.0455
G01 X9.6791 Y20.0357
G01 X9.6836 Y19.9436
G01 X9.6846 Y19.9338
G01 X9.6981 Y19.8426
G01 X9.7001 Y19.8330
G01 X9.7225 Y19.7435
G01 X9.7253 Y19.7341
G01 X9.7564 Y19.6473
G01 X9.7601 Y19.6382
G01 X9.7996 Y19.5548
G01 X9.8042 Y19.5462
G01 X9.8516 Y19.4671
G01 X9.8571 Y19.4589
G01 X9.9120 Y19.3848
G01 X9.9182 Y19.3772
G01 X9.9802 Y19.3089
G01 X9.9871 Y19.3020
G01 X10.0554 Y19.2400
G01 X10.0630 Y19.2338
G01 X10.1371 Y19.1789
G01 X10.1453 Y19.1734
G01 X10.2244 Y19.1260
G01 X10.2330 Y19.1214
G01 X10.3164 Y19.0819
G01 X10.3255 Y19.0782
G01 X10.4123 Y19.0471
G01 X10.4217 Y19.0443
G01 X10.5112 Y19.0219
G01 X10.5208 Y19.0199
G01 X10.6120 Y19.0064
G01 X10.6218 Y19.0054
G01 X10.7139 Y19.0009
G01 X10.7237 Y19.0009
G01 X10.8158 Y19.0054
G01 X10.8256 Y19.0064
G01 X10.9168 Y19.0199
G01 X10.9264 Y19.0219
G01 X11.0159 Y19.0443
G01 X11.0253 Y19.0471
G01 X11.1121 Y19.0782
G01 X11.1212 Y19.0819
G01 X11.2046 Y19.1214
G01 X11.2132 Y19.1260
G01 X11.2923 Y19.1734
G01 X11.3005 Y19.1789
G01 X11.3746 Y19.2338
G01 X11.3822 Y19.2400
G01 X11.4505 Y19.3020
G01 X11.4574 Y19.3089
G01 X11.5194 Y19.3772
G01 X11.5256 Y19.3848
G01 X11.5805 Y19.4589
G01 X11.5860 Y19.4671
G01 X11.6334 Y19.5462
G01 X11.6380 Y19.5548
G01 X11.6775 Y19.6382
G01 X11.6812 Y19.6473
G01 X11.7123 Y19.7341
G01 X11.7151 Y19.7435
G01 X11.7375 Y19.8330
G01 X11.7395 Y19.8426
G01 X11.7530 Y19.9338
G01 X11.7540 Y19.9436
G01 X11.7585 Y20.0357
G01 X11.7585 Y20.0455
G00 Z2.0000
G00 X16.9989 Y21.0557
G01 F60.00
G01 Z-0.2000
G01 F120.00
G01 X16.9241 Y21.0369
G01 X16.9147 Y21.0341
G01 X16.8279 Y21.0030
G01 X16.8188 Y20.9993
G01 X16.7354 Y20.9598
G01 X16.7268 Y20.9552
G01 X16.6477 Y20.9078
G01 X16.6395 Y20.9023
G01 X16.5654 Y20.8474
G01 X16.5578 Y20.8412
G01 X16.4895 Y20.7792
G01 X16.4826 Y20.7723
G01 X16.4206 Y20.7040
G01 X16.4144 Y20.6964
G01 X16.3595 Y20.6223
G01 X16.3540 Y20.6141
G01 X16.3066 Y20.5350
G01 X16.3020 Y20.5264
G01 X16.2625 Y20.4430
G01 X16.2588 Y20.4339
G01 X16.2277 Y20.3471
G01 X16.2249 Y20.3377
G01 X16.2025 Y20.2482
G01 X16.2005 Y20.2386
G01 X16.1870 Y20.1474
G01 X16.1860 Y20.1376
G01 X16.1815 Y20.0455
G01 X16.1815 Y20.0357
G01 X16.1860 Y19.9436
G01 X16.1870 Y19.9338
G01 X16.2005 Y19.8426
G01 X16.2025 Y19.8330
G01 X16.2249 Y19.7435
G01 X16.2277 Y19.7341
G01 X16.2588 Y19.6473
G01 X16.2625 Y19.6382
G01 X16.3020 Y19.5548
G01 X16.3066 Y19.5462
G01 X16.3540 Y19.4671
G01 X16.3595 Y19.4589
G01 X16.4144 Y19.3848
G01 X16.4206 Y19.3772
G01 X16.4826 Y19.3089
G01 X16.4895 Y19.3020
G01 X16.5578 Y19.2400
G01 X16.5654 Y19.2338
G01 X16.6395 Y19.1789
G01 X16.6477 Y19.1734
G01 X16.7268 Y19.1260
G01 X16.7354 Y19.1214
G01 X16.8188 Y19.0819
G01 X16.8279 Y19.0782
G01 X16.9147 Y19.0471
G01 X16.9241 Y19.0443
G01 X17.0136 Y19.0219
G01 X17.0232 Y19.0199
G01 X17.1144 Y19.0064
G01 X17.1242 Y19.0054
G01 X17.2163 Y19.0009
G01 X17.2261 Y19.0009
G01 X17.3182 Y19.0054
G01 X17.3280 Y19.0064
G01 X17.4192 Y19.0199
G01 X17.4288 Y19.0219
G01 X17.5183 Y19.0443
G01 X17.5277 Y19.0471
G01 X17.6145 Y19.0782
G01 X17.6236 Y19.0819
G01 X17.7070 Y19.1214
G01 X17.7156 Y19.1260
G01 X17.7947 Y19.1734
G01 X17.8029 Y19.1789
G01 X17.8770 Y19.2338
G01 X17.8846 Y19.2400
G01 X17.9529 Y19.3020
G01 X17.9598 Y19.3089
G01 X18.0218 Y19.3772
G01 X18.0280 Y19.3848
G01 X18.0829 Y19.4589
G01 X18.0884 Y19.4671
G01 X18.1358 Y19.5462
G01 X18.1404 Y19.5548
G01 X18.1799 Y19.6382
G01 X18.1836 Y19.6473
G01 X18.2147 Y19.7341
G01 X18.2175 Y19.7435
G01 X18.2399 Y19.8330
G01 X18.2419 Y19.8426
G01 X18.2554 Y19.9338
G01 X18.2564 Y19.9436
G01 X18.2609 Y20.0357
G01 X18.2609 Y20.0455
G01 X18.2564 Y20.1376
G01 X18.2554 Y20.1474
G01 X18.2419 Y20.2386
G01 X18.2399 Y20.2482
G01 X18.2175 Y20.3377
G01 X18.2147 Y20.3471
G01 X18.1836 Y20.4339
G01 X18.1799 Y20.4430
G01 X18.1404 Y20.5264
G01 X18.1358 Y20.5350
G01 X18.0884 Y20.6141
G01 X18.0829 Y20.6223
G01 X18.0280 Y20.6964
G01 X18.0218 Y20.7040
G01 X17.9598 Y20.7723
G01 X17.9529 Y20.7792
G01 X17.8846 Y20.8412
G01 X17.8770 Y20.8474
G01 X17.8283 Y20.8835
G01 X22.2467 Y25.3019
G01 X22.2538 Y25.2948
G01 X22.3092 Y25.2446
G01 X22.3168 Y25.2384
G01 X22.3769 Y25.1938
G01 X22.3850 Y25.1883
G01 X22.4492 Y25.1499
G01 X22.4579 Y25.1452
G01 X22.5255 Y25.1133
G01 X22.5346 Y25.1095
G01 X22.6050 Y25.0843
G01 X22.6144 Y25.0814
G01 X22.6870 Y25.0633
G01 X22.6966 Y25.0614
G01 X22.7706 Y25.0504
G01 X22.7804 Y25.0494
G01 X22.8551 Y25.0457
G01 X22.8649 Y25.0457
G01 X22.9396 Y25.0494
G01 X22.9494 Y25.0504
G01 X23.0234 Y25.0614
G01 X23.0330 Y25.0633
G01 X23.1056 Y25.0814
G01 X23.1150 Y25.0843
G01 X23.1854 Y25.1095
G01 X23.1945 Y25.1133
G01 X23.2621 Y25.1452
G01 X23.2708 Y25.1499
G01 X23.3350 Y25.1883
G01 X23.3431 Y25.1938
G01 X23.4032 Y25.2384
G01 X23.4108 Y25.2446
G01 X23.4662 Y25.2948
G01 X23.4732 Y25.3018
G01 X23.5234 Y25.3572
G01 X23.5296 Y25.3648
G01 X23.5742 Y25.4249
G01 X23.5797 Y25.4330
G01 X23.6181 Y25.4972
G01 X23.6228 Y25.5059
G01 X23.6547 Y25.5735
G01 X23.6585 Y25.5826
G01 X23.6837 Y25.6530
G01 X23.6866 Y25.6624
G01 X23.7047 Y25.7350
G01 X23.7066 Y25.7446
G01 X23.7176 Y25.8186
G01 X23.7186 Y25.8284
G01 X23.7224 Y25.9080
G01 X23.7223 Y27.4369
G01 X23.7186 Y27.5116
G01 X23.7176 Y27.5214
G01 X23.7066 Y27.5954
G01 X23.7047 Y27.6050
G01 X23.6866 Y27.6776
G01 X23.6837 Y27.6870
G01 X23.6585 Y27.7574
G01 X23.6547 Y27.7665
G01 X23.6228 Y27.8341
G01 X23.6181 Y27.8428
G01 X23.5797 Y27.9070
G01 X23.5742 Y27.9151
G01 X23.5296 Y27.9752
G01 X23.5234 Y27.9828
G01 X23.4732 Y28.0382
G01 X23.4662 Y28.0452
G01 X23.4108 Y28.0954
G01 X23.4032 Y28.1016
G01 X23.3431 Y28.1462
G01 X23.3350 Y28.1517
G01 X23.2708 Y28.1901
G01 X23.2621 Y28.1948
G01 X23.1945 Y28.2267
G01 X23.1854 Y28.2305
G01 X23.1150 Y28.2557
G01 X23.1056 Y28.2586
G01 X23.0330 Y28.2767
G01 X23.0234 Y28.2786
G01 X22.9494 Y28.2896
G01 X22.9396 Y28.2906
G01 X22.8649 Y28.2943
G01 X22.8551 Y28.2943
G01 X22.7804 Y28.2906
G01 X22.7706 Y28.2896
G01 X22.6966 Y28.2786
G01 X22.6870 Y28.2767
G01 X22.6144 Y28.2586
G01 X22.6050 Y28.2557
G01 X22.5346 Y28.2305
G01 X22.5255 Y28.2267
G01 X22.4579 Y28.1948
G01 X22.4492 Y28.1901
G01 X22.3850 Y28.1517
G01 X22.3769 Y28.1462
G01 X22.3168 Y28.1016
G01 X22.3092 Y28.0954
G01 X22.2538 Y28.0452
G01 X22.2468 Y28.0382
G01 X22.1966 Y27.9828
G01 X22.1904 Y27.9752
G01 X22.1458 Y27.9151
G01 X22.1403 Y27.9070
G01 X22.1019 Y27.8428
G01 X22.0972 Y27.8341
G01 X22.0653 Y27.7665
G01 X22.0615 Y27.7574
G01 X22.0363 Y27.6870
G01 X22.0334 Y27.6776
G01 X22.0153 Y27.6050
G01 X22.0134 Y27.5954
G01 X22.0024 Y27.5214
G01 X22.0014 Y27.5116
G01 X21.9976 Y27.4320
G01 X21.9976 Y26.0544
G01 X16.9989 Y21.0557
G00 Z2.0000
G00 X18.0445 Y14.8859
G01 F60.00
G01 Z-0.2000
G01 F120.00
G01 X28.8093 Y14.8859
G01 X29.2136 Y14.4816
G01 X29.2356 Y14.4615
G01 X29.2432 Y14.4552
G01 X29.2632 Y14.4404
G01 X29.2714 Y14.4349
G01 X29.2928 Y14.4221
G01 X29.3014 Y14.4175
G01 X29.3240 Y14.4068
G01 X29.3331 Y14.4031
G01 X29.3565 Y14.3947
G01 X29.3659 Y14.3918
G01 X29.3901 Y14.3858
G01 X29.3997 Y14.3838
G01 X29.4244 Y14.3802
G01 X29.4342 Y14.3792
G01 X29.4640 Y14.3779
G01 X31.4960 Y14.3779
G01 X31.5258 Y14.3792
G01 X31.5356 Y14.3802
G01 X31.5603 Y14.3838
G01 X31.5699 Y14.3858
G01 X31.5941 Y14.3918
G01 X31.6035 Y14.3947
G01 X31.6269 Y14.4031
G01 X31.6360 Y14.4068
G01 X31.6586 Y14.4175
G01 X31.6672 Y14.4221
G01 X31.6886 Y14.4349
G01 X31.6968 Y14.4404
G01 X31.7168 Y14.4552
G01 X31.7244 Y14.4615
G01 X31.7429 Y14.4782
G01 X32.7673 Y15.5025
G01 X32.8124 Y15.4913
G01 X32.8220 Y15.4893
G01 X32.9132 Y15.4758
G01 X32.9230 Y15.4748
G01 X33.0151 Y15.4703
G01 X33.0249 Y15.4703
G01 X33.1170 Y15.4748
G01 X33.1268 Y15.4758
G01 X33.2180 Y15.4893
G01 X33.2276 Y15.4913
G01 X33.3171 Y15.5137
G01 X33.3265 Y15.5165
G01 X33.4133 Y15.5476
G01 X33.4224 Y15.5513
G01 X33.5058 Y15.5908
G01 X33.5144 Y15.5954
G01 X33.5935 Y15.6428
G01 X33.6017 Y15.6483
G01 X33.6758 Y15.7032
G01 X33.6834 Y15.7094
G01 X33.7517 Y15.7714
G01 X33.7586 Y15.7783
G01 X33.8206 Y15.8466
G01 X33.8268 Y15.8542
G01 X33.8817 Y15.9283
G01 X33.8872 Y15.9365
G01 X33.9346 Y16.0156
G01 X33.9392 Y16.0242
G01 X33.9787 Y16.1076
G01 X33.9824 Y16.1167
G01 X34.0135 Y16.2035
G01 X34.0163 Y16.2129
G01 X34.0387 Y16.3024
G01 X34.0407 Y16.3120
G01 X34.0542 Y16.4032
G01 X34.0552 Y16.4130
G01 X34.0597 Y16.5051
G01 X34.0597 Y16.5149
G01 X34.0552 Y16.6070
G01 X34.0542 Y16.6168
G01 X34.0407 Y16.7080
G01 X34.0387 Y16.7176
G01 X34.0163 Y16.8071
G01 X34.0135 Y16.8165
G01 X33.9824 Y16.9033
G01 X33.9787 Y16.9124
G01 X33.9392 Y16.9958
G01 X33.9346 Y17.0044
G01 X33.8872 Y17.0835
G01 X33.8817 Y17.0917
G01 X33.8268 Y17.1658
G01 X33.8206 Y17.1734
G01 X33.7586 Y17.2417
G01 X33.7517 Y17.2486
G01 X33.6834 Y17.3106
G01 X33.6758 Y17.3168
G01 X33.6017 Y17.3717
G01 X33.5935 Y17.3772
G01 X33.5144 Y17.4246
G01 X33.5058 Y17.4292
G01 X33.4224 Y17.4687
G01 X33.4133 Y17.4724
G01 X33.3265 Y17.5035
G01 X33.3171 Y17.5063
G01 X33.2276 Y17.5287
G01 X33.2180 Y17.5307
G01 X33.1268 Y17.5442
G01 X33.1170 Y17.5452
G01 X33.0249 Y17.5497
G01 X33.0151 Y17.5497
G01 X32.9230 Y17.5452
G01 X32.9132 Y17.5442
G01 X32.8220 Y17.5307
G01 X32.8124 Y17.5287
G01 X32.7229 Y17.5063
G01 X32.7135 Y17.5035
G01 X32.6267 Y17.4724
G01 X32.6176 Y17.4687
G01 X32.5342 Y17.4292
G01 X32.5256 Y17.4246
G01 X32.4465 Y17.3772
G01 X32.4383 Y17.3717
G01 X32.3642 Y17.3168
G01 X32.3566 Y17.3106
G01 X32.2883 Y17.2486
G01 X32.2814 Y17.2417
G01 X32.2194 Y17.1734
G01 X32.2132 Y17.1658
G01 X32.1583 Y17.0917
G01 X32.1528 Y17.0835
G01 X32.1054 Y17.0044
G01 X32.1008 Y16.9958
G01 X32.0613 Y16.9124
G01 X32.0576 Y16.9033
G01 X32.0265 Y16.8165
G01 X32.0237 Y16.8071
G01 X32.0013 Y16.7176
G01 X31.9993 Y16.7080
G01 X31.9858 Y16.6168
G01 X31.9848 Y16.6070
G01 X31.9803 Y16.5149
G01 X31.9803 Y16.5051
G01 X31.9848 Y16.4130
G01 X31.9858 Y16.4032
G01 X31.9993 Y16.3120
G01 X32.0013 Y16.3024
G01 X32.0237 Y16.2129
G01 X32.0265 Y16.2035
G01 X32.0576 Y16.1167
G01 X32.0613 Y16.1076
G01 X32.1008 Y16.0242
G01 X32.1054 Y16.0156
G01 X32.1528 Y15.9365
G01 X32.1583 Y15.9283
G01 X32.1724 Y15.9092
G01 X31.3493 Y15.0861
G01 X29.6107 Y15.0861
G01 X29.2064 Y15.4904
G01 X29.1844 Y15.5105
G01 X29.1768 Y15.5168
G01 X29.1568 Y15.5316
G01 X29.1486 Y15.5371
G01 X29.1272 Y15.5499
G01 X29.1186 Y15.5545
G01 X29.0960 Y15.5652
G01 X29.0869 Y15.5689
G01 X29.0635 Y15.5773
G01 X29.0541 Y15.5802
G01 X29.0299 Y15.5862
G01 X29.0203 Y15.5882
G01 X28.9956 Y15.5918
G01 X28.9858 Y15.5928
G01 X28.9609 Y15.5940
G01 X18.2574 Y15.5941
G01 X18.2564 Y15.6164
G01 X18.2554 Y15.6262
G01 X18.2419 Y15.7174
G01 X18.2399 Y15.7270
G01 X18.2175 Y15.8165
G01 X18.2147 Y15.8259
G01 X18.1836 Y15.9127
G01 X18.1799 Y15.9218
G01 X18.1404 Y16.0052
G01 X18.1358 Y16.0138
G01 X18.0884 Y16.0929
G01 X18.0829 Y16.1011
G01 X18.0280 Y16.1752
G01 X18.0218 Y16.1828
G01 X17.9598 Y16.2511
G01 X17.9529 Y16.2580
G01 X17.8846 Y16.3200
G01 X17.8770 Y16.3262
G01 X17.8029 Y16.3811
G01 X17.7947 Y16.3866
G01 X17.7156 Y16.4340
G01 X17.7070 Y16.4386
G01 X17.6236 Y16.4781
G01 X17.6145 Y16.4818
G01 X17.5277 Y16.5129
G01 X17.5183 Y16.5157
G01 X17.4288 Y16.5381
G01 X17.4192 Y16.5401
G01 X17.3280 Y16.5536
G01 X17.3182 Y16.5546
G01 X17.2261 Y16.5591
G01 X17.2163 Y16.5591
G01 X17.1242 Y16.5546
G01 X17.1144 Y16.5536
G01 X17.0232 Y16.5401
G01 X17.0136 Y16.5381
G01 X16.9241 Y16.5157
G01 X16.9147 Y16.5129
G01 X16.8279 Y16.4818
G01 X16.8188 Y16.4781
G01 X16.7354 Y16.4386
G01 X16.7268 Y16.4340
G01 X16.6477 Y16.3866
G01 X16.6395 Y16.3811
G01 X16.5654 Y16.3262
G01 X16.5578 Y16.3200
G01 X16.4895 Y16.2580
G01 X16.4826 Y16.2511
G01 X16.4206 Y16.1828
G01 X16.4144 Y16.1752
G01 X16.3595 Y16.1011
G01 X16.3540 Y16.0929
G01 X16.3066 Y16.0138
G01 X16.3020 Y16.0052
G01 X16.2625 Y15.9218
G01 X16.2588 Y15.9127
G01 X16.2277 Y15.8259
G01 X16.2249 Y15.8165
G01 X16.2025 Y15.7270
G01 X16.2005 Y15.7174
G01 X16.1870 Y15.6262
G01 X16.1860 Y15.6164
G01 X16.1815 Y15.5243
G01 X16.1815 Y15.5145
G01 X16.1860 Y15.4224
G01 X16.1870 Y15.4126
G01 X16.2005 Y15.3214
G01 X16.2025 Y15.3118
G01 X16.2249 Y15.2223
G01 X16.2277 Y15.2129
G01 X16.2588 Y15.1261
G01 X16.2625 Y15.1170
G01 X16.3020 Y15.0336
G01 X16.3066 Y15.0250
G01 X16.3540 Y14.9459
G01 X16.3595 Y14.9377
G01 X16.4144 Y14.8636
G01 X16.4206 Y14.8560
G01 X16.4826 Y14.7877
G01 X16.4895 Y14.7808
G01 X16.5578 Y14.7188
G01 X16.5654 Y14.7126
G01 X16.6395 Y14.6577
G01 X16.6477 Y14.6522
G01 X16.7268 Y14.6048
G01 X16.7354 Y14.6002
G01 X16.8188 Y14.5607
G01 X16.8279 Y14.5570
G01 X16.9147 Y14.5259
G01 X16.9241 Y14.5231
G01 X17.0136 Y14.5007
G01 X17.0232 Y14.4987
G01 X17.1144 Y14.4852
G01 X17.1242 Y14.4842
G01 X17.2163 Y14.4797
G01 X17.2261 Y14.4797
G01 X17.3182 Y14.4842
G01 X17.3280 Y14.4852
G01 X17.4192 Y14.4987
G01 X17.4288 Y14.5007
G01 X17.5183 Y14.5231
G01 X17.5277 Y14.5259
G01 X17.6145 Y14.5570
G01 X17.6236 Y14.5607
G01 X17.7070 Y14.6002
G01 X17.7156 Y14.6048
G01 X17.7947 Y14.6522
G01 X17.8029 Y14.6577
G01 X17.8770 Y14.7126
G01 X17.8846 Y14.7188
G01 X17.9529 Y14.7808
G01 X17.9598 Y14.7877
G01 X18.0218 Y14.8560
G01 X18.0280 Y14.8636
G01 X18.0445 Y14.8859
G00 Z2.0000
G00 X25.0459 Y25.1225
G01 F60.00
G01 Z-0.2000
G01 F120.00
G01 X25.0459 Y21.8440
G01 X25.0472 Y21.8142
G01 X25.0482 Y21.8044
G01 X25.0518 Y21.7797
G01 X25.0538 Y21.7701
G01 X25.0598 Y21.7459
G01 X25.0627 Y21.7365
G01 X25.0711 Y21.7131
G01 X25.0748 Y21.7040
G01 X25.0855 Y21.6814
G01 X25.0901 Y21.6728
G01 X25.1029 Y21.6514
G01 X25.1084 Y21.6432
G01 X25.1232 Y21.6232
G01 X25.1295 Y21.6156
G01 X25.1496 Y21.5936
G01 X29.6324 Y17.1108
G01 X29.6183 Y17.0917
G01 X29.6128 Y17.0835
G01 X29.5654 Y17.0044
G01 X29.5608 Y16.9958
G01 X29.5213 Y16.9124
G01 X29.5176 Y16.9033
G01 X29.4865 Y16.8165
G01 X29.4837 Y16.8071
G01 X29.4613 Y16.7176
G01 X29.4593 Y16.7080
G01 X29.4458 Y16.6168
G01 X29.4448 Y16.6070
G01 X29.4403 Y16.5149
G01 X29.4403 Y16.5051
G01 X29.4448 Y16.4130
G01 X29.4458 Y16.4032
G01 X29.4593 Y16.3120
G01 X29.4613 Y16.3024
G01 X29.4837 Y16.2129
G01 X29.4865 Y16.2035
G01 X29.5176 Y16.1167
G01 X29.5213 Y16.1076
G01 X29.5608 Y16.0242
G01 X29.5654 Y16.0156
G01 X29.6128 Y15.9365
G01 X29.6183 Y15.9283
G01 X29.6732 Y15.8542
G01 X29.6794 Y15.8466
G01 X29.7414 Y15.7783
G01 X29.7483 Y15.7714
G01 X29.8166 Y15.7094
G01 X29.8242 Y15.7032
G01 X29.8983 Y15.6483
G01 X29.9065 Y15.6428
G01 X29.9856 Y15.5954
G01 X29.9942 Y15.5908
G01 X30.0776 Y15.5513
G01 X30.0867 Y15.5476
G01 X30.1735 Y15.5165
G01 X30.1829 Y15.5137
G01 X30.2724 Y15.4913
G01 X30.2820 Y15.4893
G01 X30.3732 Y15.4758
G01 X30.3830 Y15.4748
G01 X30.4751 Y15.4703
G01 X30.4849 Y15.4703
G01 X30.5770 Y15.4748
G01 X30.5868 Y15.4758
G01 X30.6780 Y15.4893
G01 X30.6876 Y15.4913
G01 X30.7771 Y15.5137
G01 X30.7865 Y15.5165
G01 X30.8733 Y15.5476
G01 X30.8824 Y15.5513
G01 X30.9658 Y15.5908
G01 X30.9744 Y15.5954
G01 X31.0535 Y15.6428
G01 X31.0617 Y15.6483
G01 X31.1358 Y15.7032
G01 X31.1434 Y15.7094
G01 X31.2117 Y15.7714
G01 X31.2186 Y15.7783
G01 X31.2806 Y15.8466
G01 X31.2868 Y15.8542
G01 X31.3417 Y15.9283
G01 X31.3472 Y15.9365
G01 X31.3946 Y16.0156
G01 X31.3992 Y16.0242
G01 X31.4387 Y16.1076
G01 X31.4424 Y16.1167
G01 X31.4735 Y16.2035
G01 X31.4763 Y16.2129
G01 X31.4987 Y16.3024
G01 X31.5007 Y16.3120
G01 X31.5142 Y16.4032
G01 X31.5152 Y16.4130
G01 X31.5197 Y16.5051
G01 X31.5197 Y16.5149
G01 X31.5152 Y16.6070
G01 X31.5142 Y16.6168
G01 X31.5007 Y16.7080
G01 X31.4987 Y16.7176
G01 X31.4763 Y16.8071
G01 X31.4735 Y16.8165
G01 X31.4424 Y16.9033
G01 X31.4387 Y16.9124
G01 X31.3992 Y16.9958
G01 X31.3946 Y17.0044
G01 X31.3472 Y17.0835
G01 X31.3417 Y17.0917
G01 X31.2868 Y17.1658
G01 X31.2806 Y17.1734
G01 X31.2186 Y17.2417
G01 X31.2117 Y17.2486
G01 X31.1434 Y17.3106
G01 X31.1358 Y17.3168
G01 X31.0617 Y17.3717
G01 X31.0535 Y17.3772
G01 X30.9744 Y17.4246
G01 X30.9658 Y17.4292
G01 X30.8824 Y17.4687
G01 X30.8733 Y17.4724
G01 X30.7865 Y17.5035
G01 X30.7771 Y17.5063
G01 X30.6876 Y17.5287
G01 X30.6780 Y17.5307
G01 X30.5868 Y17.5442
G01 X30.5770 Y17.5452
G01 X30.4849 Y17.5497
G01 X30.4751 Y17.5497
G01 X30.3830 Y17.5452
G01 X30.3732 Y17.5442
G01 X30.2820 Y17.5307
G01 X30.2724 Y17.5287
G01 X30.2273 Y17.5175
G01 X25.7541 Y21.9907
G01 X25.7541 Y25.1225
G01 X25.8021 Y25.1452
G01 X25.8108 Y25.1499
G01 X25.8750 Y25.1883
G01 X25.8831 Y25.1938
G01 X25.9432 Y25.2384
G01 X25.9508 Y25.2446
G01 X26.0062 Y25.2948
G01 X26.0132 Y25.3018
G01 X26.0634 Y25.3572
G01 X26.0696 Y25.3648
G01 X26.1142 Y25.4249
G01 X26.1197 Y25.4330
G01 X26.1581 Y25.4972
G01 X26.1628 Y25.5059
G01 X26.1947 Y25.5735
G01 X26.1985 Y25.5826
G01 X26.2237 Y25.6530
G01 X26.2266 Y25.6624
G01 X26.2447 Y25.7350
G01 X26.2466 Y25.7446
G01 X26.2576 Y25.8186
G01 X26.2586 Y25.8284
G01 X26.2624 Y25.9080
G01 X26.2623 Y27.4369
G01 X26.2586 Y27.5116
G01 X26.2576 Y27.5214
G01 X26.2466 Y27.5954
G01 X26.2447 Y27.6050
G01 X26.2266 Y27.6776
G01 X26.2237 Y27.6870
G01 X26.1985 Y27.7574
G01 X26.1947 Y27.7665
G01 X26.1628 Y27.8341
G01 X26.1581 Y27.8428
G01 X26.1197 Y27.9070
G01 X26.1142 Y27.9151
G01 X26.0696 Y27.9752
G01 X26.0634 Y27.9828
G01 X26.0132 Y28.0382
G01 X26.0062 Y28.0452
G01 X25.9508 Y28.0954
G01 X25.9432 Y28.1016
G01 X25.8831 Y28.1462
G01 X25.8750 Y28.1517
G01 X25.8108 Y28.1901
G01 X25.8021 Y28.1948
G01 X25.7345 Y28.2267
G01 X25.7254 Y28.2305
G01 X25.6550 Y28.2557
G01 X25.6456 Y28.2586
G01 X25.5730 Y28.2767
G01 X25.5634 Y28.2786
G01 X25.4894 Y28.2896
G01 X25.4796 Y28.2906
G01 X25.4049 Y28.2943
G01 X25.3951 Y28.2943
G01 X25.3204 Y28.2906
G01 X25.3106 Y28.2896
G01 X25.2366 Y28.2786
G01 X25.2270 Y28.2767
G01 X25.1544 Y28.2586
G01 X25.1450 Y28.2557
G01 X25.0746 Y28.2305
G01 X25.0655 Y28.2267
G01 X24.9979 Y28.1948
G01 X24.9892 Y28.1901
G01 X24.9250 Y28.1517
G01 X24.9169 Y28.1462
G01 X24.8568 Y28.1016
G01 X24.8492 Y28.0954
G01 X24.7938 Y28.0452
G01 X24.7868 Y28.0382
G01 X24.7366 Y27.9828
G01 X24.7304 Y27.9752
G01 X24.6858 Y27.9151
G01 X24.6803 Y27.9070
G01 X24.6419 Y27.8428
G01 X24.6372 Y27.8341
G01 X24.6053 Y27.7665
G01 X24.6015 Y27.7574
G01 X24.5763 Y27.6870
G01 X24.5734 Y27.6776
G01 X24.5553 Y27.6050
G01 X24.5534 Y27.5954
G01 X24.5424 Y27.5214
G01 X24.5414 Y27.5116
G01 X24.5376 Y27.4320
G01 X24.5376 Y25.9080
G01 X24.5414 Y25.8284
G01 X24.5424 Y25.8186
G01 X24.5534 Y25.7446
G01 X24.5553 Y25.7350
G01 X24.5734 Y25.6624
G01 X24.5763 Y25.6530
G01 X24.6015 Y25.5826
G01 X24.6053 Y25.5735
G01 X24.6372 Y25.5059
G01 X24.6419 Y25.4972
G01 X24.6803 Y25.4330
G01 X24.6858 Y25.4249
G01 X24.7304 Y25.3648
G01 X24.7366 Y25.3572
G01 X24.7868 Y25.3018
G01 X24.7938 Y25.2948
G01 X24.8492 Y25.2446
G01 X24.8568 Y25.2384
G01 X24.9169 Y25.1938
G01 X24.9250 Y25.1883
G01 X24.9892 Y25.1499
G01 X24.9979 Y25.1452
G01 X25.0459 Y25.1225
G00 Z2.0000
M05
G00 Z2.0000
G00 Z2.00
G00 X0.0 Y0.0

