(G-CODE GENERATED BY FLATCAM v8.991 - www.flatcam.org - Version Date: 2019/12/27)

(Name: copper_top.gbr_iso_1_cnc)
(Type: G-code from Geometry)
(Units: MM)

(Created on Saturday, 24 June 2023 at 13:21)

(TOOL DIAMETER: 0.3072 mm)
(Feedrate: 60.0 mm/min)
(Feedrate_Z: 60.0 mm/min)
(Feedrate rapids 1500.0 mm/min)

(Z_Cut: -0.2 mm)
(DepthPerCut: 0.09 mm <=>3 passes)
(Z_Move: 2.0 mm)
(Z Toolchange: 15.0 mm)
(X,Y Toolchange: 0.0000, 0.0000 mm)
(Z Start: None mm)
(Z End: 5.0 mm)
(Steps per circle: 64)
(Preprocessor Geometry: default)

(X range:    9.6256 ...   34.1132  mm)
(Y range:   14.3243 ...   28.3478  mm)

(Spindle Speed: 65535 RPM)
G21
G90
G94

(Acceleration settings)
M204 P36000 T36000

(Rapid speed)
G00 F1200.00

(Auto leveling map probing)
G29 L9 R35 F14 B29 N6 N6

(Tool change)
M06
(Probing new tool)
G30

(Give chance for removing probing wires)
M06

(Zeroing Z-axis after probing)
G92 X0 Y0 Z0


G01 F60.00
G00 Z2.0000

M03 S65535
G00 X11.8120 Y15.5269
G01 F60.00
G01 Z-0.0900
G01 F60.00
G01 X11.8075 Y15.6191
G01 X11.8060 Y15.6341
G01 X11.7925 Y15.7253
G01 X11.7895 Y15.7401
G01 X11.7671 Y15.8295
G01 X11.7628 Y15.8440
G01 X11.7317 Y15.9308
G01 X11.7259 Y15.9447
G01 X11.6865 Y16.0281
G01 X11.6794 Y16.0414
G01 X11.6320 Y16.1205
G01 X11.6236 Y16.1330
G01 X11.5686 Y16.2071
G01 X11.5591 Y16.2188
G01 X11.4971 Y16.2871
G01 X11.4865 Y16.2977
G01 X11.4182 Y16.3597
G01 X11.4065 Y16.3692
G01 X11.3324 Y16.4242
G01 X11.3199 Y16.4326
G01 X11.2408 Y16.4800
G01 X11.2275 Y16.4871
G01 X11.1441 Y16.5265
G01 X11.1302 Y16.5323
G01 X11.0434 Y16.5634
G01 X11.0289 Y16.5677
G01 X10.9395 Y16.5901
G01 X10.9247 Y16.5931
G01 X10.8335 Y16.6066
G01 X10.8185 Y16.6081
G01 X10.7263 Y16.6126
G01 X10.7113 Y16.6126
G01 X10.6191 Y16.6081
G01 X10.6041 Y16.6066
G01 X10.5129 Y16.5931
G01 X10.4981 Y16.5901
G01 X10.4087 Y16.5677
G01 X10.3942 Y16.5634
G01 X10.3074 Y16.5323
G01 X10.2935 Y16.5265
G01 X10.2101 Y16.4871
G01 X10.1968 Y16.4800
G01 X10.1177 Y16.4326
G01 X10.1052 Y16.4242
G01 X10.0311 Y16.3692
G01 X10.0194 Y16.3597
G01 X9.9511 Y16.2977
G01 X9.9405 Y16.2871
G01 X9.8785 Y16.2188
G01 X9.8690 Y16.2071
G01 X9.8140 Y16.1330
G01 X9.8056 Y16.1205
G01 X9.7582 Y16.0414
G01 X9.7511 Y16.0281
G01 X9.7117 Y15.9447
G01 X9.7059 Y15.9308
G01 X9.6748 Y15.8440
G01 X9.6705 Y15.8295
G01 X9.6481 Y15.7401
G01 X9.6451 Y15.7253
G01 X9.6316 Y15.6341
G01 X9.6301 Y15.6191
G01 X9.6256 Y15.5269
G01 X9.6256 Y15.5119
G01 X9.6301 Y15.4197
G01 X9.6316 Y15.4047
G01 X9.6451 Y15.3135
G01 X9.6481 Y15.2987
G01 X9.6705 Y15.2093
G01 X9.6748 Y15.1948
G01 X9.7059 Y15.1080
G01 X9.7117 Y15.0941
G01 X9.7511 Y15.0107
G01 X9.7582 Y14.9974
G01 X9.8056 Y14.9183
G01 X9.8140 Y14.9058
G01 X9.8690 Y14.8317
G01 X9.8785 Y14.8200
G01 X9.9405 Y14.7517
G01 X9.9511 Y14.7411
G01 X10.0194 Y14.6791
G01 X10.0311 Y14.6696
G01 X10.1052 Y14.6146
G01 X10.1177 Y14.6062
G01 X10.1968 Y14.5588
G01 X10.2101 Y14.5517
G01 X10.2935 Y14.5123
G01 X10.3074 Y14.5065
G01 X10.3942 Y14.4754
G01 X10.4087 Y14.4711
G01 X10.4981 Y14.4487
G01 X10.5129 Y14.4457
G01 X10.6041 Y14.4322
G01 X10.6191 Y14.4307
G01 X10.7113 Y14.4262
G01 X10.7263 Y14.4262
G01 X10.8185 Y14.4307
G01 X10.8335 Y14.4322
G01 X10.9247 Y14.4457
G01 X10.9395 Y14.4487
G01 X11.0289 Y14.4711
G01 X11.0434 Y14.4754
G01 X11.1302 Y14.5065
G01 X11.1441 Y14.5123
G01 X11.2275 Y14.5517
G01 X11.2408 Y14.5588
G01 X11.3199 Y14.6062
G01 X11.3324 Y14.6146
G01 X11.4065 Y14.6696
G01 X11.4182 Y14.6791
G01 X11.4865 Y14.7411
G01 X11.4971 Y14.7517
G01 X11.5591 Y14.8200
G01 X11.5686 Y14.8317
G01 X11.6236 Y14.9058
G01 X11.6320 Y14.9183
G01 X11.6794 Y14.9974
G01 X11.6865 Y15.0107
G01 X11.7259 Y15.0941
G01 X11.7317 Y15.1080
G01 X11.7628 Y15.1948
G01 X11.7671 Y15.2093
G01 X11.7895 Y15.2987
G01 X11.7925 Y15.3135
G01 X11.8060 Y15.4047
G01 X11.8075 Y15.4197
G01 X11.8120 Y15.5119
G01 X11.8120 Y15.5269
G00 X11.8120 Y15.5269
G01 F60.00
G01 Z-0.1800
G01 F60.00
G01 X11.8075 Y15.6191
G01 X11.8060 Y15.6341
G01 X11.7925 Y15.7253
G01 X11.7895 Y15.7401
G01 X11.7671 Y15.8295
G01 X11.7628 Y15.8440
G01 X11.7317 Y15.9308
G01 X11.7259 Y15.9447
G01 X11.6865 Y16.0281
G01 X11.6794 Y16.0414
G01 X11.6320 Y16.1205
G01 X11.6236 Y16.1330
G01 X11.5686 Y16.2071
G01 X11.5591 Y16.2188
G01 X11.4971 Y16.2871
G01 X11.4865 Y16.2977
G01 X11.4182 Y16.3597
G01 X11.4065 Y16.3692
G01 X11.3324 Y16.4242
G01 X11.3199 Y16.4326
G01 X11.2408 Y16.4800
G01 X11.2275 Y16.4871
G01 X11.1441 Y16.5265
G01 X11.1302 Y16.5323
G01 X11.0434 Y16.5634
G01 X11.0289 Y16.5677
G01 X10.9395 Y16.5901
G01 X10.9247 Y16.5931
G01 X10.8335 Y16.6066
G01 X10.8185 Y16.6081
G01 X10.7263 Y16.6126
G01 X10.7113 Y16.6126
G01 X10.6191 Y16.6081
G01 X10.6041 Y16.6066
G01 X10.5129 Y16.5931
G01 X10.4981 Y16.5901
G01 X10.4087 Y16.5677
G01 X10.3942 Y16.5634
G01 X10.3074 Y16.5323
G01 X10.2935 Y16.5265
G01 X10.2101 Y16.4871
G01 X10.1968 Y16.4800
G01 X10.1177 Y16.4326
G01 X10.1052 Y16.4242
G01 X10.0311 Y16.3692
G01 X10.0194 Y16.3597
G01 X9.9511 Y16.2977
G01 X9.9405 Y16.2871
G01 X9.8785 Y16.2188
G01 X9.8690 Y16.2071
G01 X9.8140 Y16.1330
G01 X9.8056 Y16.1205
G01 X9.7582 Y16.0414
G01 X9.7511 Y16.0281
G01 X9.7117 Y15.9447
G01 X9.7059 Y15.9308
G01 X9.6748 Y15.8440
G01 X9.6705 Y15.8295
G01 X9.6481 Y15.7401
G01 X9.6451 Y15.7253
G01 X9.6316 Y15.6341
G01 X9.6301 Y15.6191
G01 X9.6256 Y15.5269
G01 X9.6256 Y15.5119
G01 X9.6301 Y15.4197
G01 X9.6316 Y15.4047
G01 X9.6451 Y15.3135
G01 X9.6481 Y15.2987
G01 X9.6705 Y15.2093
G01 X9.6748 Y15.1948
G01 X9.7059 Y15.1080
G01 X9.7117 Y15.0941
G01 X9.7511 Y15.0107
G01 X9.7582 Y14.9974
G01 X9.8056 Y14.9183
G01 X9.8140 Y14.9058
G01 X9.8690 Y14.8317
G01 X9.8785 Y14.8200
G01 X9.9405 Y14.7517
G01 X9.9511 Y14.7411
G01 X10.0194 Y14.6791
G01 X10.0311 Y14.6696
G01 X10.1052 Y14.6146
G01 X10.1177 Y14.6062
G01 X10.1968 Y14.5588
G01 X10.2101 Y14.5517
G01 X10.2935 Y14.5123
G01 X10.3074 Y14.5065
G01 X10.3942 Y14.4754
G01 X10.4087 Y14.4711
G01 X10.4981 Y14.4487
G01 X10.5129 Y14.4457
G01 X10.6041 Y14.4322
G01 X10.6191 Y14.4307
G01 X10.7113 Y14.4262
G01 X10.7263 Y14.4262
G01 X10.8185 Y14.4307
G01 X10.8335 Y14.4322
G01 X10.9247 Y14.4457
G01 X10.9395 Y14.4487
G01 X11.0289 Y14.4711
G01 X11.0434 Y14.4754
G01 X11.1302 Y14.5065
G01 X11.1441 Y14.5123
G01 X11.2275 Y14.5517
G01 X11.2408 Y14.5588
G01 X11.3199 Y14.6062
G01 X11.3324 Y14.6146
G01 X11.4065 Y14.6696
G01 X11.4182 Y14.6791
G01 X11.4865 Y14.7411
G01 X11.4971 Y14.7517
G01 X11.5591 Y14.8200
G01 X11.5686 Y14.8317
G01 X11.6236 Y14.9058
G01 X11.6320 Y14.9183
G01 X11.6794 Y14.9974
G01 X11.6865 Y15.0107
G01 X11.7259 Y15.0941
G01 X11.7317 Y15.1080
G01 X11.7628 Y15.1948
G01 X11.7671 Y15.2093
G01 X11.7895 Y15.2987
G01 X11.7925 Y15.3135
G01 X11.8060 Y15.4047
G01 X11.8075 Y15.4197
G01 X11.8120 Y15.5119
G01 X11.8120 Y15.5269
G00 X11.8120 Y15.5269
G01 F60.00
G01 Z-0.2000
G01 F60.00
G01 X11.8075 Y15.6191
G01 X11.8060 Y15.6341
G01 X11.7925 Y15.7253
G01 X11.7895 Y15.7401
G01 X11.7671 Y15.8295
G01 X11.7628 Y15.8440
G01 X11.7317 Y15.9308
G01 X11.7259 Y15.9447
G01 X11.6865 Y16.0281
G01 X11.6794 Y16.0414
G01 X11.6320 Y16.1205
G01 X11.6236 Y16.1330
G01 X11.5686 Y16.2071
G01 X11.5591 Y16.2188
G01 X11.4971 Y16.2871
G01 X11.4865 Y16.2977
G01 X11.4182 Y16.3597
G01 X11.4065 Y16.3692
G01 X11.3324 Y16.4242
G01 X11.3199 Y16.4326
G01 X11.2408 Y16.4800
G01 X11.2275 Y16.4871
G01 X11.1441 Y16.5265
G01 X11.1302 Y16.5323
G01 X11.0434 Y16.5634
G01 X11.0289 Y16.5677
G01 X10.9395 Y16.5901
G01 X10.9247 Y16.5931
G01 X10.8335 Y16.6066
G01 X10.8185 Y16.6081
G01 X10.7263 Y16.6126
G01 X10.7113 Y16.6126
G01 X10.6191 Y16.6081
G01 X10.6041 Y16.6066
G01 X10.5129 Y16.5931
G01 X10.4981 Y16.5901
G01 X10.4087 Y16.5677
G01 X10.3942 Y16.5634
G01 X10.3074 Y16.5323
G01 X10.2935 Y16.5265
G01 X10.2101 Y16.4871
G01 X10.1968 Y16.4800
G01 X10.1177 Y16.4326
G01 X10.1052 Y16.4242
G01 X10.0311 Y16.3692
G01 X10.0194 Y16.3597
G01 X9.9511 Y16.2977
G01 X9.9405 Y16.2871
G01 X9.8785 Y16.2188
G01 X9.8690 Y16.2071
G01 X9.8140 Y16.1330
G01 X9.8056 Y16.1205
G01 X9.7582 Y16.0414
G01 X9.7511 Y16.0281
G01 X9.7117 Y15.9447
G01 X9.7059 Y15.9308
G01 X9.6748 Y15.8440
G01 X9.6705 Y15.8295
G01 X9.6481 Y15.7401
G01 X9.6451 Y15.7253
G01 X9.6316 Y15.6341
G01 X9.6301 Y15.6191
G01 X9.6256 Y15.5269
G01 X9.6256 Y15.5119
G01 X9.6301 Y15.4197
G01 X9.6316 Y15.4047
G01 X9.6451 Y15.3135
G01 X9.6481 Y15.2987
G01 X9.6705 Y15.2093
G01 X9.6748 Y15.1948
G01 X9.7059 Y15.1080
G01 X9.7117 Y15.0941
G01 X9.7511 Y15.0107
G01 X9.7582 Y14.9974
G01 X9.8056 Y14.9183
G01 X9.8140 Y14.9058
G01 X9.8690 Y14.8317
G01 X9.8785 Y14.8200
G01 X9.9405 Y14.7517
G01 X9.9511 Y14.7411
G01 X10.0194 Y14.6791
G01 X10.0311 Y14.6696
G01 X10.1052 Y14.6146
G01 X10.1177 Y14.6062
G01 X10.1968 Y14.5588
G01 X10.2101 Y14.5517
G01 X10.2935 Y14.5123
G01 X10.3074 Y14.5065
G01 X10.3942 Y14.4754
G01 X10.4087 Y14.4711
G01 X10.4981 Y14.4487
G01 X10.5129 Y14.4457
G01 X10.6041 Y14.4322
G01 X10.6191 Y14.4307
G01 X10.7113 Y14.4262
G01 X10.7263 Y14.4262
G01 X10.8185 Y14.4307
G01 X10.8335 Y14.4322
G01 X10.9247 Y14.4457
G01 X10.9395 Y14.4487
G01 X11.0289 Y14.4711
G01 X11.0434 Y14.4754
G01 X11.1302 Y14.5065
G01 X11.1441 Y14.5123
G01 X11.2275 Y14.5517
G01 X11.2408 Y14.5588
G01 X11.3199 Y14.6062
G01 X11.3324 Y14.6146
G01 X11.4065 Y14.6696
G01 X11.4182 Y14.6791
G01 X11.4865 Y14.7411
G01 X11.4971 Y14.7517
G01 X11.5591 Y14.8200
G01 X11.5686 Y14.8317
G01 X11.6236 Y14.9058
G01 X11.6320 Y14.9183
G01 X11.6794 Y14.9974
G01 X11.6865 Y15.0107
G01 X11.7259 Y15.0941
G01 X11.7317 Y15.1080
G01 X11.7628 Y15.1948
G01 X11.7671 Y15.2093
G01 X11.7895 Y15.2987
G01 X11.7925 Y15.3135
G01 X11.8060 Y15.4047
G01 X11.8075 Y15.4197
G01 X11.8120 Y15.5119
G01 X11.8120 Y15.5269
G00 Z2.0000
G00 X11.8120 Y20.0481
G01 F60.00
G01 Z-0.0900
G01 F60.00
G01 X11.8075 Y20.1403
G01 X11.8060 Y20.1553
G01 X11.7925 Y20.2465
G01 X11.7895 Y20.2613
G01 X11.7671 Y20.3507
G01 X11.7628 Y20.3652
G01 X11.7317 Y20.4520
G01 X11.7259 Y20.4659
G01 X11.6865 Y20.5493
G01 X11.6794 Y20.5626
G01 X11.6320 Y20.6417
G01 X11.6236 Y20.6542
G01 X11.5686 Y20.7283
G01 X11.5591 Y20.7400
G01 X11.4971 Y20.8083
G01 X11.4865 Y20.8189
G01 X11.4182 Y20.8809
G01 X11.4065 Y20.8904
G01 X11.3324 Y20.9454
G01 X11.3199 Y20.9538
G01 X11.2408 Y21.0012
G01 X11.2275 Y21.0083
G01 X11.1441 Y21.0477
G01 X11.1302 Y21.0535
G01 X11.0434 Y21.0846
G01 X11.0289 Y21.0889
G01 X10.9395 Y21.1113
G01 X10.9247 Y21.1143
G01 X10.8335 Y21.1278
G01 X10.8185 Y21.1293
G01 X10.7263 Y21.1338
G01 X10.7113 Y21.1338
G01 X10.6191 Y21.1293
G01 X10.6041 Y21.1278
G01 X10.5129 Y21.1143
G01 X10.4981 Y21.1113
G01 X10.4087 Y21.0889
G01 X10.3942 Y21.0846
G01 X10.3074 Y21.0535
G01 X10.2935 Y21.0477
G01 X10.2101 Y21.0083
G01 X10.1968 Y21.0012
G01 X10.1177 Y20.9538
G01 X10.1052 Y20.9454
G01 X10.0311 Y20.8904
G01 X10.0194 Y20.8809
G01 X9.9511 Y20.8189
G01 X9.9405 Y20.8083
G01 X9.8785 Y20.7400
G01 X9.8690 Y20.7283
G01 X9.8140 Y20.6542
G01 X9.8056 Y20.6417
G01 X9.7582 Y20.5626
G01 X9.7511 Y20.5493
G01 X9.7117 Y20.4659
G01 X9.7059 Y20.4520
G01 X9.6748 Y20.3652
G01 X9.6705 Y20.3507
G01 X9.6481 Y20.2613
G01 X9.6451 Y20.2465
G01 X9.6316 Y20.1553
G01 X9.6301 Y20.1403
G01 X9.6256 Y20.0481
G01 X9.6256 Y20.0331
G01 X9.6301 Y19.9409
G01 X9.6316 Y19.9259
G01 X9.6451 Y19.8347
G01 X9.6481 Y19.8199
G01 X9.6705 Y19.7305
G01 X9.6748 Y19.7160
G01 X9.7059 Y19.6292
G01 X9.7117 Y19.6153
G01 X9.7511 Y19.5319
G01 X9.7582 Y19.5186
G01 X9.8056 Y19.4395
G01 X9.8140 Y19.4270
G01 X9.8690 Y19.3529
G01 X9.8785 Y19.3412
G01 X9.9405 Y19.2729
G01 X9.9511 Y19.2623
G01 X10.0194 Y19.2003
G01 X10.0311 Y19.1908
G01 X10.1052 Y19.1358
G01 X10.1177 Y19.1274
G01 X10.1968 Y19.0800
G01 X10.2101 Y19.0729
G01 X10.2935 Y19.0335
G01 X10.3074 Y19.0277
G01 X10.3942 Y18.9966
G01 X10.4087 Y18.9923
G01 X10.4981 Y18.9699
G01 X10.5129 Y18.9669
G01 X10.6041 Y18.9534
G01 X10.6191 Y18.9519
G01 X10.7113 Y18.9474
G01 X10.7263 Y18.9474
G01 X10.8185 Y18.9519
G01 X10.8335 Y18.9534
G01 X10.9247 Y18.9669
G01 X10.9395 Y18.9699
G01 X11.0289 Y18.9923
G01 X11.0434 Y18.9966
G01 X11.1302 Y19.0277
G01 X11.1441 Y19.0335
G01 X11.2275 Y19.0729
G01 X11.2408 Y19.0800
G01 X11.3199 Y19.1274
G01 X11.3324 Y19.1358
G01 X11.4065 Y19.1908
G01 X11.4182 Y19.2003
G01 X11.4865 Y19.2623
G01 X11.4971 Y19.2729
G01 X11.5591 Y19.3412
G01 X11.5686 Y19.3529
G01 X11.6236 Y19.4270
G01 X11.6320 Y19.4395
G01 X11.6794 Y19.5186
G01 X11.6865 Y19.5319
G01 X11.7259 Y19.6153
G01 X11.7317 Y19.6292
G01 X11.7628 Y19.7160
G01 X11.7671 Y19.7305
G01 X11.7895 Y19.8199
G01 X11.7925 Y19.8347
G01 X11.8060 Y19.9259
G01 X11.8075 Y19.9409
G01 X11.8120 Y20.0331
G01 X11.8120 Y20.0481
G00 X11.8120 Y20.0481
G01 F60.00
G01 Z-0.1800
G01 F60.00
G01 X11.8075 Y20.1403
G01 X11.8060 Y20.1553
G01 X11.7925 Y20.2465
G01 X11.7895 Y20.2613
G01 X11.7671 Y20.3507
G01 X11.7628 Y20.3652
G01 X11.7317 Y20.4520
G01 X11.7259 Y20.4659
G01 X11.6865 Y20.5493
G01 X11.6794 Y20.5626
G01 X11.6320 Y20.6417
G01 X11.6236 Y20.6542
G01 X11.5686 Y20.7283
G01 X11.5591 Y20.7400
G01 X11.4971 Y20.8083
G01 X11.4865 Y20.8189
G01 X11.4182 Y20.8809
G01 X11.4065 Y20.8904
G01 X11.3324 Y20.9454
G01 X11.3199 Y20.9538
G01 X11.2408 Y21.0012
G01 X11.2275 Y21.0083
G01 X11.1441 Y21.0477
G01 X11.1302 Y21.0535
G01 X11.0434 Y21.0846
G01 X11.0289 Y21.0889
G01 X10.9395 Y21.1113
G01 X10.9247 Y21.1143
G01 X10.8335 Y21.1278
G01 X10.8185 Y21.1293
G01 X10.7263 Y21.1338
G01 X10.7113 Y21.1338
G01 X10.6191 Y21.1293
G01 X10.6041 Y21.1278
G01 X10.5129 Y21.1143
G01 X10.4981 Y21.1113
G01 X10.4087 Y21.0889
G01 X10.3942 Y21.0846
G01 X10.3074 Y21.0535
G01 X10.2935 Y21.0477
G01 X10.2101 Y21.0083
G01 X10.1968 Y21.0012
G01 X10.1177 Y20.9538
G01 X10.1052 Y20.9454
G01 X10.0311 Y20.8904
G01 X10.0194 Y20.8809
G01 X9.9511 Y20.8189
G01 X9.9405 Y20.8083
G01 X9.8785 Y20.7400
G01 X9.8690 Y20.7283
G01 X9.8140 Y20.6542
G01 X9.8056 Y20.6417
G01 X9.7582 Y20.5626
G01 X9.7511 Y20.5493
G01 X9.7117 Y20.4659
G01 X9.7059 Y20.4520
G01 X9.6748 Y20.3652
G01 X9.6705 Y20.3507
G01 X9.6481 Y20.2613
G01 X9.6451 Y20.2465
G01 X9.6316 Y20.1553
G01 X9.6301 Y20.1403
G01 X9.6256 Y20.0481
G01 X9.6256 Y20.0331
G01 X9.6301 Y19.9409
G01 X9.6316 Y19.9259
G01 X9.6451 Y19.8347
G01 X9.6481 Y19.8199
G01 X9.6705 Y19.7305
G01 X9.6748 Y19.7160
G01 X9.7059 Y19.6292
G01 X9.7117 Y19.6153
G01 X9.7511 Y19.5319
G01 X9.7582 Y19.5186
G01 X9.8056 Y19.4395
G01 X9.8140 Y19.4270
G01 X9.8690 Y19.3529
G01 X9.8785 Y19.3412
G01 X9.9405 Y19.2729
G01 X9.9511 Y19.2623
G01 X10.0194 Y19.2003
G01 X10.0311 Y19.1908
G01 X10.1052 Y19.1358
G01 X10.1177 Y19.1274
G01 X10.1968 Y19.0800
G01 X10.2101 Y19.0729
G01 X10.2935 Y19.0335
G01 X10.3074 Y19.0277
G01 X10.3942 Y18.9966
G01 X10.4087 Y18.9923
G01 X10.4981 Y18.9699
G01 X10.5129 Y18.9669
G01 X10.6041 Y18.9534
G01 X10.6191 Y18.9519
G01 X10.7113 Y18.9474
G01 X10.7263 Y18.9474
G01 X10.8185 Y18.9519
G01 X10.8335 Y18.9534
G01 X10.9247 Y18.9669
G01 X10.9395 Y18.9699
G01 X11.0289 Y18.9923
G01 X11.0434 Y18.9966
G01 X11.1302 Y19.0277
G01 X11.1441 Y19.0335
G01 X11.2275 Y19.0729
G01 X11.2408 Y19.0800
G01 X11.3199 Y19.1274
G01 X11.3324 Y19.1358
G01 X11.4065 Y19.1908
G01 X11.4182 Y19.2003
G01 X11.4865 Y19.2623
G01 X11.4971 Y19.2729
G01 X11.5591 Y19.3412
G01 X11.5686 Y19.3529
G01 X11.6236 Y19.4270
G01 X11.6320 Y19.4395
G01 X11.6794 Y19.5186
G01 X11.6865 Y19.5319
G01 X11.7259 Y19.6153
G01 X11.7317 Y19.6292
G01 X11.7628 Y19.7160
G01 X11.7671 Y19.7305
G01 X11.7895 Y19.8199
G01 X11.7925 Y19.8347
G01 X11.8060 Y19.9259
G01 X11.8075 Y19.9409
G01 X11.8120 Y20.0331
G01 X11.8120 Y20.0481
G00 X11.8120 Y20.0481
G01 F60.00
G01 Z-0.2000
G01 F60.00
G01 X11.8075 Y20.1403
G01 X11.8060 Y20.1553
G01 X11.7925 Y20.2465
G01 X11.7895 Y20.2613
G01 X11.7671 Y20.3507
G01 X11.7628 Y20.3652
G01 X11.7317 Y20.4520
G01 X11.7259 Y20.4659
G01 X11.6865 Y20.5493
G01 X11.6794 Y20.5626
G01 X11.6320 Y20.6417
G01 X11.6236 Y20.6542
G01 X11.5686 Y20.7283
G01 X11.5591 Y20.7400
G01 X11.4971 Y20.8083
G01 X11.4865 Y20.8189
G01 X11.4182 Y20.8809
G01 X11.4065 Y20.8904
G01 X11.3324 Y20.9454
G01 X11.3199 Y20.9538
G01 X11.2408 Y21.0012
G01 X11.2275 Y21.0083
G01 X11.1441 Y21.0477
G01 X11.1302 Y21.0535
G01 X11.0434 Y21.0846
G01 X11.0289 Y21.0889
G01 X10.9395 Y21.1113
G01 X10.9247 Y21.1143
G01 X10.8335 Y21.1278
G01 X10.8185 Y21.1293
G01 X10.7263 Y21.1338
G01 X10.7113 Y21.1338
G01 X10.6191 Y21.1293
G01 X10.6041 Y21.1278
G01 X10.5129 Y21.1143
G01 X10.4981 Y21.1113
G01 X10.4087 Y21.0889
G01 X10.3942 Y21.0846
G01 X10.3074 Y21.0535
G01 X10.2935 Y21.0477
G01 X10.2101 Y21.0083
G01 X10.1968 Y21.0012
G01 X10.1177 Y20.9538
G01 X10.1052 Y20.9454
G01 X10.0311 Y20.8904
G01 X10.0194 Y20.8809
G01 X9.9511 Y20.8189
G01 X9.9405 Y20.8083
G01 X9.8785 Y20.7400
G01 X9.8690 Y20.7283
G01 X9.8140 Y20.6542
G01 X9.8056 Y20.6417
G01 X9.7582 Y20.5626
G01 X9.7511 Y20.5493
G01 X9.7117 Y20.4659
G01 X9.7059 Y20.4520
G01 X9.6748 Y20.3652
G01 X9.6705 Y20.3507
G01 X9.6481 Y20.2613
G01 X9.6451 Y20.2465
G01 X9.6316 Y20.1553
G01 X9.6301 Y20.1403
G01 X9.6256 Y20.0481
G01 X9.6256 Y20.0331
G01 X9.6301 Y19.9409
G01 X9.6316 Y19.9259
G01 X9.6451 Y19.8347
G01 X9.6481 Y19.8199
G01 X9.6705 Y19.7305
G01 X9.6748 Y19.7160
G01 X9.7059 Y19.6292
G01 X9.7117 Y19.6153
G01 X9.7511 Y19.5319
G01 X9.7582 Y19.5186
G01 X9.8056 Y19.4395
G01 X9.8140 Y19.4270
G01 X9.8690 Y19.3529
G01 X9.8785 Y19.3412
G01 X9.9405 Y19.2729
G01 X9.9511 Y19.2623
G01 X10.0194 Y19.2003
G01 X10.0311 Y19.1908
G01 X10.1052 Y19.1358
G01 X10.1177 Y19.1274
G01 X10.1968 Y19.0800
G01 X10.2101 Y19.0729
G01 X10.2935 Y19.0335
G01 X10.3074 Y19.0277
G01 X10.3942 Y18.9966
G01 X10.4087 Y18.9923
G01 X10.4981 Y18.9699
G01 X10.5129 Y18.9669
G01 X10.6041 Y18.9534
G01 X10.6191 Y18.9519
G01 X10.7113 Y18.9474
G01 X10.7263 Y18.9474
G01 X10.8185 Y18.9519
G01 X10.8335 Y18.9534
G01 X10.9247 Y18.9669
G01 X10.9395 Y18.9699
G01 X11.0289 Y18.9923
G01 X11.0434 Y18.9966
G01 X11.1302 Y19.0277
G01 X11.1441 Y19.0335
G01 X11.2275 Y19.0729
G01 X11.2408 Y19.0800
G01 X11.3199 Y19.1274
G01 X11.3324 Y19.1358
G01 X11.4065 Y19.1908
G01 X11.4182 Y19.2003
G01 X11.4865 Y19.2623
G01 X11.4971 Y19.2729
G01 X11.5591 Y19.3412
G01 X11.5686 Y19.3529
G01 X11.6236 Y19.4270
G01 X11.6320 Y19.4395
G01 X11.6794 Y19.5186
G01 X11.6865 Y19.5319
G01 X11.7259 Y19.6153
G01 X11.7317 Y19.6292
G01 X11.7628 Y19.7160
G01 X11.7671 Y19.7305
G01 X11.7895 Y19.8199
G01 X11.7925 Y19.8347
G01 X11.8060 Y19.9259
G01 X11.8075 Y19.9409
G01 X11.8120 Y20.0331
G01 X11.8120 Y20.0481
G00 Z2.0000
G00 X16.9714 Y21.1041
G01 F60.00
G01 Z-0.0900
G01 F60.00
G01 X16.9111 Y21.0889
G01 X16.8966 Y21.0846
G01 X16.8098 Y21.0535
G01 X16.7959 Y21.0477
G01 X16.7125 Y21.0083
G01 X16.6992 Y21.0012
G01 X16.6201 Y20.9538
G01 X16.6076 Y20.9454
G01 X16.5335 Y20.8904
G01 X16.5218 Y20.8809
G01 X16.4535 Y20.8189
G01 X16.4429 Y20.8083
G01 X16.3809 Y20.7400
G01 X16.3714 Y20.7283
G01 X16.3164 Y20.6542
G01 X16.3080 Y20.6417
G01 X16.2606 Y20.5626
G01 X16.2535 Y20.5493
G01 X16.2141 Y20.4659
G01 X16.2083 Y20.4520
G01 X16.1772 Y20.3652
G01 X16.1729 Y20.3507
G01 X16.1505 Y20.2613
G01 X16.1475 Y20.2465
G01 X16.1340 Y20.1553
G01 X16.1325 Y20.1403
G01 X16.1280 Y20.0481
G01 X16.1280 Y20.0331
G01 X16.1325 Y19.9409
G01 X16.1340 Y19.9259
G01 X16.1475 Y19.8347
G01 X16.1505 Y19.8199
G01 X16.1729 Y19.7305
G01 X16.1772 Y19.7160
G01 X16.2083 Y19.6292
G01 X16.2141 Y19.6153
G01 X16.2535 Y19.5319
G01 X16.2606 Y19.5186
G01 X16.3080 Y19.4395
G01 X16.3164 Y19.4270
G01 X16.3714 Y19.3529
G01 X16.3809 Y19.3412
G01 X16.4429 Y19.2729
G01 X16.4535 Y19.2623
G01 X16.5218 Y19.2003
G01 X16.5335 Y19.1908
G01 X16.6076 Y19.1358
G01 X16.6201 Y19.1274
G01 X16.6992 Y19.0800
G01 X16.7125 Y19.0729
G01 X16.7959 Y19.0335
G01 X16.8098 Y19.0277
G01 X16.8966 Y18.9966
G01 X16.9111 Y18.9923
G01 X17.0005 Y18.9699
G01 X17.0153 Y18.9669
G01 X17.1065 Y18.9534
G01 X17.1215 Y18.9519
G01 X17.2137 Y18.9474
G01 X17.2287 Y18.9474
G01 X17.3209 Y18.9519
G01 X17.3359 Y18.9534
G01 X17.4271 Y18.9669
G01 X17.4419 Y18.9699
G01 X17.5313 Y18.9923
G01 X17.5458 Y18.9966
G01 X17.6326 Y19.0277
G01 X17.6465 Y19.0335
G01 X17.7299 Y19.0729
G01 X17.7432 Y19.0800
G01 X17.8223 Y19.1274
G01 X17.8348 Y19.1358
G01 X17.9089 Y19.1908
G01 X17.9206 Y19.2003
G01 X17.9889 Y19.2623
G01 X17.9995 Y19.2729
G01 X18.0615 Y19.3412
G01 X18.0710 Y19.3529
G01 X18.1260 Y19.4270
G01 X18.1344 Y19.4395
G01 X18.1818 Y19.5186
G01 X18.1889 Y19.5319
G01 X18.2283 Y19.6153
G01 X18.2341 Y19.6292
G01 X18.2652 Y19.7160
G01 X18.2695 Y19.7305
G01 X18.2919 Y19.8199
G01 X18.2949 Y19.8347
G01 X18.3084 Y19.9259
G01 X18.3099 Y19.9409
G01 X18.3144 Y20.0331
G01 X18.3144 Y20.0481
G01 X18.3099 Y20.1403
G01 X18.3084 Y20.1553
G01 X18.2949 Y20.2465
G01 X18.2919 Y20.2613
G01 X18.2695 Y20.3507
G01 X18.2652 Y20.3652
G01 X18.2341 Y20.4520
G01 X18.2283 Y20.4659
G01 X18.1889 Y20.5493
G01 X18.1818 Y20.5626
G01 X18.1344 Y20.6417
G01 X18.1260 Y20.6542
G01 X18.0710 Y20.7283
G01 X18.0615 Y20.7400
G01 X17.9995 Y20.8083
G01 X17.9889 Y20.8189
G01 X17.9206 Y20.8809
G01 X17.9101 Y20.8895
G01 X22.2482 Y25.2276
G01 X22.2732 Y25.2049
G01 X22.2849 Y25.1953
G01 X22.3449 Y25.1507
G01 X22.3575 Y25.1424
G01 X22.4216 Y25.1039
G01 X22.4349 Y25.0968
G01 X22.5026 Y25.0648
G01 X22.5165 Y25.0590
G01 X22.5869 Y25.0338
G01 X22.6014 Y25.0294
G01 X22.6739 Y25.0113
G01 X22.6887 Y25.0083
G01 X22.7627 Y24.9974
G01 X22.7777 Y24.9959
G01 X22.8525 Y24.9922
G01 X22.8675 Y24.9922
G01 X22.9423 Y24.9959
G01 X22.9573 Y24.9974
G01 X23.0313 Y25.0083
G01 X23.0461 Y25.0113
G01 X23.1186 Y25.0294
G01 X23.1331 Y25.0338
G01 X23.2035 Y25.0590
G01 X23.2174 Y25.0648
G01 X23.2851 Y25.0968
G01 X23.2984 Y25.1039
G01 X23.3625 Y25.1424
G01 X23.3751 Y25.1507
G01 X23.4351 Y25.1953
G01 X23.4468 Y25.2049
G01 X23.5022 Y25.2551
G01 X23.5129 Y25.2658
G01 X23.5631 Y25.3212
G01 X23.5727 Y25.3329
G01 X23.6173 Y25.3929
G01 X23.6256 Y25.4055
G01 X23.6641 Y25.4696
G01 X23.6712 Y25.4829
G01 X23.7032 Y25.5506
G01 X23.7090 Y25.5645
G01 X23.7342 Y25.6349
G01 X23.7386 Y25.6494
G01 X23.7567 Y25.7219
G01 X23.7597 Y25.7367
G01 X23.7706 Y25.8107
G01 X23.7721 Y25.8257
G01 X23.7760 Y25.9080
G01 X23.7758 Y27.4395
G01 X23.7721 Y27.5143
G01 X23.7706 Y27.5293
G01 X23.7597 Y27.6033
G01 X23.7567 Y27.6181
G01 X23.7386 Y27.6906
G01 X23.7342 Y27.7051
G01 X23.7090 Y27.7755
G01 X23.7032 Y27.7894
G01 X23.6712 Y27.8571
G01 X23.6641 Y27.8704
G01 X23.6256 Y27.9345
G01 X23.6173 Y27.9471
G01 X23.5727 Y28.0071
G01 X23.5631 Y28.0188
G01 X23.5129 Y28.0742
G01 X23.5022 Y28.0849
G01 X23.4468 Y28.1351
G01 X23.4351 Y28.1447
G01 X23.3751 Y28.1893
G01 X23.3625 Y28.1976
G01 X23.2984 Y28.2361
G01 X23.2851 Y28.2432
G01 X23.2174 Y28.2752
G01 X23.2035 Y28.2810
G01 X23.1331 Y28.3062
G01 X23.1186 Y28.3106
G01 X23.0461 Y28.3287
G01 X23.0313 Y28.3317
G01 X22.9573 Y28.3426
G01 X22.9423 Y28.3441
G01 X22.8675 Y28.3478
G01 X22.8525 Y28.3478
G01 X22.7777 Y28.3441
G01 X22.7627 Y28.3426
G01 X22.6887 Y28.3317
G01 X22.6739 Y28.3287
G01 X22.6014 Y28.3106
G01 X22.5869 Y28.3062
G01 X22.5165 Y28.2810
G01 X22.5026 Y28.2752
G01 X22.4349 Y28.2432
G01 X22.4216 Y28.2361
G01 X22.3575 Y28.1976
G01 X22.3449 Y28.1893
G01 X22.2849 Y28.1447
G01 X22.2732 Y28.1351
G01 X22.2178 Y28.0849
G01 X22.2071 Y28.0742
G01 X22.1569 Y28.0188
G01 X22.1473 Y28.0071
G01 X22.1027 Y27.9471
G01 X22.0944 Y27.9345
G01 X22.0559 Y27.8704
G01 X22.0488 Y27.8571
G01 X22.0168 Y27.7894
G01 X22.0110 Y27.7755
G01 X21.9858 Y27.7051
G01 X21.9814 Y27.6906
G01 X21.9633 Y27.6181
G01 X21.9603 Y27.6033
G01 X21.9494 Y27.5293
G01 X21.9479 Y27.5143
G01 X21.9440 Y27.4320
G01 X21.9440 Y26.0766
G01 X16.9714 Y21.1041
G00 X16.9714 Y21.1041
G01 F60.00
G01 Z-0.1800
G01 F60.00
G01 X16.9111 Y21.0889
G01 X16.8966 Y21.0846
G01 X16.8098 Y21.0535
G01 X16.7959 Y21.0477
G01 X16.7125 Y21.0083
G01 X16.6992 Y21.0012
G01 X16.6201 Y20.9538
G01 X16.6076 Y20.9454
G01 X16.5335 Y20.8904
G01 X16.5218 Y20.8809
G01 X16.4535 Y20.8189
G01 X16.4429 Y20.8083
G01 X16.3809 Y20.7400
G01 X16.3714 Y20.7283
G01 X16.3164 Y20.6542
G01 X16.3080 Y20.6417
G01 X16.2606 Y20.5626
G01 X16.2535 Y20.5493
G01 X16.2141 Y20.4659
G01 X16.2083 Y20.4520
G01 X16.1772 Y20.3652
G01 X16.1729 Y20.3507
G01 X16.1505 Y20.2613
G01 X16.1475 Y20.2465
G01 X16.1340 Y20.1553
G01 X16.1325 Y20.1403
G01 X16.1280 Y20.0481
G01 X16.1280 Y20.0331
G01 X16.1325 Y19.9409
G01 X16.1340 Y19.9259
G01 X16.1475 Y19.8347
G01 X16.1505 Y19.8199
G01 X16.1729 Y19.7305
G01 X16.1772 Y19.7160
G01 X16.2083 Y19.6292
G01 X16.2141 Y19.6153
G01 X16.2535 Y19.5319
G01 X16.2606 Y19.5186
G01 X16.3080 Y19.4395
G01 X16.3164 Y19.4270
G01 X16.3714 Y19.3529
G01 X16.3809 Y19.3412
G01 X16.4429 Y19.2729
G01 X16.4535 Y19.2623
G01 X16.5218 Y19.2003
G01 X16.5335 Y19.1908
G01 X16.6076 Y19.1358
G01 X16.6201 Y19.1274
G01 X16.6992 Y19.0800
G01 X16.7125 Y19.0729
G01 X16.7959 Y19.0335
G01 X16.8098 Y19.0277
G01 X16.8966 Y18.9966
G01 X16.9111 Y18.9923
G01 X17.0005 Y18.9699
G01 X17.0153 Y18.9669
G01 X17.1065 Y18.9534
G01 X17.1215 Y18.9519
G01 X17.2137 Y18.9474
G01 X17.2287 Y18.9474
G01 X17.3209 Y18.9519
G01 X17.3359 Y18.9534
G01 X17.4271 Y18.9669
G01 X17.4419 Y18.9699
G01 X17.5313 Y18.9923
G01 X17.5458 Y18.9966
G01 X17.6326 Y19.0277
G01 X17.6465 Y19.0335
G01 X17.7299 Y19.0729
G01 X17.7432 Y19.0800
G01 X17.8223 Y19.1274
G01 X17.8348 Y19.1358
G01 X17.9089 Y19.1908
G01 X17.9206 Y19.2003
G01 X17.9889 Y19.2623
G01 X17.9995 Y19.2729
G01 X18.0615 Y19.3412
G01 X18.0710 Y19.3529
G01 X18.1260 Y19.4270
G01 X18.1344 Y19.4395
G01 X18.1818 Y19.5186
G01 X18.1889 Y19.5319
G01 X18.2283 Y19.6153
G01 X18.2341 Y19.6292
G01 X18.2652 Y19.7160
G01 X18.2695 Y19.7305
G01 X18.2919 Y19.8199
G01 X18.2949 Y19.8347
G01 X18.3084 Y19.9259
G01 X18.3099 Y19.9409
G01 X18.3144 Y20.0331
G01 X18.3144 Y20.0481
G01 X18.3099 Y20.1403
G01 X18.3084 Y20.1553
G01 X18.2949 Y20.2465
G01 X18.2919 Y20.2613
G01 X18.2695 Y20.3507
G01 X18.2652 Y20.3652
G01 X18.2341 Y20.4520
G01 X18.2283 Y20.4659
G01 X18.1889 Y20.5493
G01 X18.1818 Y20.5626
G01 X18.1344 Y20.6417
G01 X18.1260 Y20.6542
G01 X18.0710 Y20.7283
G01 X18.0615 Y20.7400
G01 X17.9995 Y20.8083
G01 X17.9889 Y20.8189
G01 X17.9206 Y20.8809
G01 X17.9101 Y20.8895
G01 X22.2482 Y25.2276
G01 X22.2732 Y25.2049
G01 X22.2849 Y25.1953
G01 X22.3449 Y25.1507
G01 X22.3575 Y25.1424
G01 X22.4216 Y25.1039
G01 X22.4349 Y25.0968
G01 X22.5026 Y25.0648
G01 X22.5165 Y25.0590
G01 X22.5869 Y25.0338
G01 X22.6014 Y25.0294
G01 X22.6739 Y25.0113
G01 X22.6887 Y25.0083
G01 X22.7627 Y24.9974
G01 X22.7777 Y24.9959
G01 X22.8525 Y24.9922
G01 X22.8675 Y24.9922
G01 X22.9423 Y24.9959
G01 X22.9573 Y24.9974
G01 X23.0313 Y25.0083
G01 X23.0461 Y25.0113
G01 X23.1186 Y25.0294
G01 X23.1331 Y25.0338
G01 X23.2035 Y25.0590
G01 X23.2174 Y25.0648
G01 X23.2851 Y25.0968
G01 X23.2984 Y25.1039
G01 X23.3625 Y25.1424
G01 X23.3751 Y25.1507
G01 X23.4351 Y25.1953
G01 X23.4468 Y25.2049
G01 X23.5022 Y25.2551
G01 X23.5129 Y25.2658
G01 X23.5631 Y25.3212
G01 X23.5727 Y25.3329
G01 X23.6173 Y25.3929
G01 X23.6256 Y25.4055
G01 X23.6641 Y25.4696
G01 X23.6712 Y25.4829
G01 X23.7032 Y25.5506
G01 X23.7090 Y25.5645
G01 X23.7342 Y25.6349
G01 X23.7386 Y25.6494
G01 X23.7567 Y25.7219
G01 X23.7597 Y25.7367
G01 X23.7706 Y25.8107
G01 X23.7721 Y25.8257
G01 X23.7760 Y25.9080
G01 X23.7758 Y27.4395
G01 X23.7721 Y27.5143
G01 X23.7706 Y27.5293
G01 X23.7597 Y27.6033
G01 X23.7567 Y27.6181
G01 X23.7386 Y27.6906
G01 X23.7342 Y27.7051
G01 X23.7090 Y27.7755
G01 X23.7032 Y27.7894
G01 X23.6712 Y27.8571
G01 X23.6641 Y27.8704
G01 X23.6256 Y27.9345
G01 X23.6173 Y27.9471
G01 X23.5727 Y28.0071
G01 X23.5631 Y28.0188
G01 X23.5129 Y28.0742
G01 X23.5022 Y28.0849
G01 X23.4468 Y28.1351
G01 X23.4351 Y28.1447
G01 X23.3751 Y28.1893
G01 X23.3625 Y28.1976
G01 X23.2984 Y28.2361
G01 X23.2851 Y28.2432
G01 X23.2174 Y28.2752
G01 X23.2035 Y28.2810
G01 X23.1331 Y28.3062
G01 X23.1186 Y28.3106
G01 X23.0461 Y28.3287
G01 X23.0313 Y28.3317
G01 X22.9573 Y28.3426
G01 X22.9423 Y28.3441
G01 X22.8675 Y28.3478
G01 X22.8525 Y28.3478
G01 X22.7777 Y28.3441
G01 X22.7627 Y28.3426
G01 X22.6887 Y28.3317
G01 X22.6739 Y28.3287
G01 X22.6014 Y28.3106
G01 X22.5869 Y28.3062
G01 X22.5165 Y28.2810
G01 X22.5026 Y28.2752
G01 X22.4349 Y28.2432
G01 X22.4216 Y28.2361
G01 X22.3575 Y28.1976
G01 X22.3449 Y28.1893
G01 X22.2849 Y28.1447
G01 X22.2732 Y28.1351
G01 X22.2178 Y28.0849
G01 X22.2071 Y28.0742
G01 X22.1569 Y28.0188
G01 X22.1473 Y28.0071
G01 X22.1027 Y27.9471
G01 X22.0944 Y27.9345
G01 X22.0559 Y27.8704
G01 X22.0488 Y27.8571
G01 X22.0168 Y27.7894
G01 X22.0110 Y27.7755
G01 X21.9858 Y27.7051
G01 X21.9814 Y27.6906
G01 X21.9633 Y27.6181
G01 X21.9603 Y27.6033
G01 X21.9494 Y27.5293
G01 X21.9479 Y27.5143
G01 X21.9440 Y27.4320
G01 X21.9440 Y26.0766
G01 X16.9714 Y21.1041
G00 X16.9714 Y21.1041
G01 F60.00
G01 Z-0.2000
G01 F60.00
G01 X16.9111 Y21.0889
G01 X16.8966 Y21.0846
G01 X16.8098 Y21.0535
G01 X16.7959 Y21.0477
G01 X16.7125 Y21.0083
G01 X16.6992 Y21.0012
G01 X16.6201 Y20.9538
G01 X16.6076 Y20.9454
G01 X16.5335 Y20.8904
G01 X16.5218 Y20.8809
G01 X16.4535 Y20.8189
G01 X16.4429 Y20.8083
G01 X16.3809 Y20.7400
G01 X16.3714 Y20.7283
G01 X16.3164 Y20.6542
G01 X16.3080 Y20.6417
G01 X16.2606 Y20.5626
G01 X16.2535 Y20.5493
G01 X16.2141 Y20.4659
G01 X16.2083 Y20.4520
G01 X16.1772 Y20.3652
G01 X16.1729 Y20.3507
G01 X16.1505 Y20.2613
G01 X16.1475 Y20.2465
G01 X16.1340 Y20.1553
G01 X16.1325 Y20.1403
G01 X16.1280 Y20.0481
G01 X16.1280 Y20.0331
G01 X16.1325 Y19.9409
G01 X16.1340 Y19.9259
G01 X16.1475 Y19.8347
G01 X16.1505 Y19.8199
G01 X16.1729 Y19.7305
G01 X16.1772 Y19.7160
G01 X16.2083 Y19.6292
G01 X16.2141 Y19.6153
G01 X16.2535 Y19.5319
G01 X16.2606 Y19.5186
G01 X16.3080 Y19.4395
G01 X16.3164 Y19.4270
G01 X16.3714 Y19.3529
G01 X16.3809 Y19.3412
G01 X16.4429 Y19.2729
G01 X16.4535 Y19.2623
G01 X16.5218 Y19.2003
G01 X16.5335 Y19.1908
G01 X16.6076 Y19.1358
G01 X16.6201 Y19.1274
G01 X16.6992 Y19.0800
G01 X16.7125 Y19.0729
G01 X16.7959 Y19.0335
G01 X16.8098 Y19.0277
G01 X16.8966 Y18.9966
G01 X16.9111 Y18.9923
G01 X17.0005 Y18.9699
G01 X17.0153 Y18.9669
G01 X17.1065 Y18.9534
G01 X17.1215 Y18.9519
G01 X17.2137 Y18.9474
G01 X17.2287 Y18.9474
G01 X17.3209 Y18.9519
G01 X17.3359 Y18.9534
G01 X17.4271 Y18.9669
G01 X17.4419 Y18.9699
G01 X17.5313 Y18.9923
G01 X17.5458 Y18.9966
G01 X17.6326 Y19.0277
G01 X17.6465 Y19.0335
G01 X17.7299 Y19.0729
G01 X17.7432 Y19.0800
G01 X17.8223 Y19.1274
G01 X17.8348 Y19.1358
G01 X17.9089 Y19.1908
G01 X17.9206 Y19.2003
G01 X17.9889 Y19.2623
G01 X17.9995 Y19.2729
G01 X18.0615 Y19.3412
G01 X18.0710 Y19.3529
G01 X18.1260 Y19.4270
G01 X18.1344 Y19.4395
G01 X18.1818 Y19.5186
G01 X18.1889 Y19.5319
G01 X18.2283 Y19.6153
G01 X18.2341 Y19.6292
G01 X18.2652 Y19.7160
G01 X18.2695 Y19.7305
G01 X18.2919 Y19.8199
G01 X18.2949 Y19.8347
G01 X18.3084 Y19.9259
G01 X18.3099 Y19.9409
G01 X18.3144 Y20.0331
G01 X18.3144 Y20.0481
G01 X18.3099 Y20.1403
G01 X18.3084 Y20.1553
G01 X18.2949 Y20.2465
G01 X18.2919 Y20.2613
G01 X18.2695 Y20.3507
G01 X18.2652 Y20.3652
G01 X18.2341 Y20.4520
G01 X18.2283 Y20.4659
G01 X18.1889 Y20.5493
G01 X18.1818 Y20.5626
G01 X18.1344 Y20.6417
G01 X18.1260 Y20.6542
G01 X18.0710 Y20.7283
G01 X18.0615 Y20.7400
G01 X17.9995 Y20.8083
G01 X17.9889 Y20.8189
G01 X17.9206 Y20.8809
G01 X17.9101 Y20.8895
G01 X22.2482 Y25.2276
G01 X22.2732 Y25.2049
G01 X22.2849 Y25.1953
G01 X22.3449 Y25.1507
G01 X22.3575 Y25.1424
G01 X22.4216 Y25.1039
G01 X22.4349 Y25.0968
G01 X22.5026 Y25.0648
G01 X22.5165 Y25.0590
G01 X22.5869 Y25.0338
G01 X22.6014 Y25.0294
G01 X22.6739 Y25.0113
G01 X22.6887 Y25.0083
G01 X22.7627 Y24.9974
G01 X22.7777 Y24.9959
G01 X22.8525 Y24.9922
G01 X22.8675 Y24.9922
G01 X22.9423 Y24.9959
G01 X22.9573 Y24.9974
G01 X23.0313 Y25.0083
G01 X23.0461 Y25.0113
G01 X23.1186 Y25.0294
G01 X23.1331 Y25.0338
G01 X23.2035 Y25.0590
G01 X23.2174 Y25.0648
G01 X23.2851 Y25.0968
G01 X23.2984 Y25.1039
G01 X23.3625 Y25.1424
G01 X23.3751 Y25.1507
G01 X23.4351 Y25.1953
G01 X23.4468 Y25.2049
G01 X23.5022 Y25.2551
G01 X23.5129 Y25.2658
G01 X23.5631 Y25.3212
G01 X23.5727 Y25.3329
G01 X23.6173 Y25.3929
G01 X23.6256 Y25.4055
G01 X23.6641 Y25.4696
G01 X23.6712 Y25.4829
G01 X23.7032 Y25.5506
G01 X23.7090 Y25.5645
G01 X23.7342 Y25.6349
G01 X23.7386 Y25.6494
G01 X23.7567 Y25.7219
G01 X23.7597 Y25.7367
G01 X23.7706 Y25.8107
G01 X23.7721 Y25.8257
G01 X23.7760 Y25.9080
G01 X23.7758 Y27.4395
G01 X23.7721 Y27.5143
G01 X23.7706 Y27.5293
G01 X23.7597 Y27.6033
G01 X23.7567 Y27.6181
G01 X23.7386 Y27.6906
G01 X23.7342 Y27.7051
G01 X23.7090 Y27.7755
G01 X23.7032 Y27.7894
G01 X23.6712 Y27.8571
G01 X23.6641 Y27.8704
G01 X23.6256 Y27.9345
G01 X23.6173 Y27.9471
G01 X23.5727 Y28.0071
G01 X23.5631 Y28.0188
G01 X23.5129 Y28.0742
G01 X23.5022 Y28.0849
G01 X23.4468 Y28.1351
G01 X23.4351 Y28.1447
G01 X23.3751 Y28.1893
G01 X23.3625 Y28.1976
G01 X23.2984 Y28.2361
G01 X23.2851 Y28.2432
G01 X23.2174 Y28.2752
G01 X23.2035 Y28.2810
G01 X23.1331 Y28.3062
G01 X23.1186 Y28.3106
G01 X23.0461 Y28.3287
G01 X23.0313 Y28.3317
G01 X22.9573 Y28.3426
G01 X22.9423 Y28.3441
G01 X22.8675 Y28.3478
G01 X22.8525 Y28.3478
G01 X22.7777 Y28.3441
G01 X22.7627 Y28.3426
G01 X22.6887 Y28.3317
G01 X22.6739 Y28.3287
G01 X22.6014 Y28.3106
G01 X22.5869 Y28.3062
G01 X22.5165 Y28.2810
G01 X22.5026 Y28.2752
G01 X22.4349 Y28.2432
G01 X22.4216 Y28.2361
G01 X22.3575 Y28.1976
G01 X22.3449 Y28.1893
G01 X22.2849 Y28.1447
G01 X22.2732 Y28.1351
G01 X22.2178 Y28.0849
G01 X22.2071 Y28.0742
G01 X22.1569 Y28.0188
G01 X22.1473 Y28.0071
G01 X22.1027 Y27.9471
G01 X22.0944 Y27.9345
G01 X22.0559 Y27.8704
G01 X22.0488 Y27.8571
G01 X22.0168 Y27.7894
G01 X22.0110 Y27.7755
G01 X21.9858 Y27.7051
G01 X21.9814 Y27.6906
G01 X21.9633 Y27.6181
G01 X21.9603 Y27.6033
G01 X21.9494 Y27.5293
G01 X21.9479 Y27.5143
G01 X21.9440 Y27.4320
G01 X21.9440 Y26.0766
G01 X16.9714 Y21.1041
G00 Z2.0000
G00 X18.0715 Y14.8323
G01 F60.00
G01 Z-0.0900
G01 F60.00
G01 X28.7871 Y14.8323
G01 X29.1757 Y14.4437
G01 X29.1996 Y14.4217
G01 X29.2113 Y14.4122
G01 X29.2313 Y14.3973
G01 X29.2438 Y14.3890
G01 X29.2652 Y14.3761
G01 X29.2785 Y14.3690
G01 X29.3011 Y14.3584
G01 X29.3150 Y14.3526
G01 X29.3385 Y14.3442
G01 X29.3529 Y14.3398
G01 X29.3771 Y14.3338
G01 X29.3919 Y14.3308
G01 X29.4166 Y14.3272
G01 X29.4316 Y14.3257
G01 X29.4640 Y14.3243
G01 X31.4960 Y14.3243
G01 X31.5284 Y14.3257
G01 X31.5434 Y14.3272
G01 X31.5681 Y14.3308
G01 X31.5829 Y14.3338
G01 X31.6071 Y14.3398
G01 X31.6215 Y14.3442
G01 X31.6450 Y14.3526
G01 X31.6589 Y14.3584
G01 X31.6815 Y14.3690
G01 X31.6948 Y14.3761
G01 X31.7162 Y14.3890
G01 X31.7287 Y14.3973
G01 X31.7487 Y14.4122
G01 X31.7604 Y14.4217
G01 X31.7843 Y14.4437
G01 X32.7838 Y15.4432
G01 X32.7993 Y15.4393
G01 X32.8141 Y15.4363
G01 X32.9053 Y15.4228
G01 X32.9203 Y15.4213
G01 X33.0125 Y15.4168
G01 X33.0275 Y15.4168
G01 X33.1197 Y15.4213
G01 X33.1347 Y15.4228
G01 X33.2259 Y15.4363
G01 X33.2407 Y15.4393
G01 X33.3301 Y15.4617
G01 X33.3446 Y15.4660
G01 X33.4314 Y15.4971
G01 X33.4453 Y15.5029
G01 X33.5287 Y15.5423
G01 X33.5420 Y15.5494
G01 X33.6211 Y15.5968
G01 X33.6336 Y15.6052
G01 X33.7077 Y15.6602
G01 X33.7194 Y15.6697
G01 X33.7877 Y15.7317
G01 X33.7983 Y15.7423
G01 X33.8603 Y15.8106
G01 X33.8698 Y15.8223
G01 X33.9248 Y15.8964
G01 X33.9332 Y15.9089
G01 X33.9806 Y15.9880
G01 X33.9877 Y16.0013
G01 X34.0271 Y16.0847
G01 X34.0329 Y16.0986
G01 X34.0640 Y16.1854
G01 X34.0683 Y16.1999
G01 X34.0907 Y16.2893
G01 X34.0937 Y16.3041
G01 X34.1072 Y16.3953
G01 X34.1087 Y16.4103
G01 X34.1132 Y16.5025
G01 X34.1132 Y16.5175
G01 X34.1087 Y16.6097
G01 X34.1072 Y16.6247
G01 X34.0937 Y16.7159
G01 X34.0907 Y16.7307
G01 X34.0683 Y16.8201
G01 X34.0640 Y16.8346
G01 X34.0329 Y16.9214
G01 X34.0271 Y16.9353
G01 X33.9877 Y17.0187
G01 X33.9806 Y17.0320
G01 X33.9332 Y17.1111
G01 X33.9248 Y17.1236
G01 X33.8698 Y17.1977
G01 X33.8603 Y17.2094
G01 X33.7983 Y17.2777
G01 X33.7877 Y17.2883
G01 X33.7194 Y17.3503
G01 X33.7077 Y17.3598
G01 X33.6336 Y17.4148
G01 X33.6211 Y17.4232
G01 X33.5420 Y17.4706
G01 X33.5287 Y17.4777
G01 X33.4453 Y17.5171
G01 X33.4314 Y17.5229
G01 X33.3446 Y17.5540
G01 X33.3301 Y17.5583
G01 X33.2407 Y17.5807
G01 X33.2259 Y17.5837
G01 X33.1347 Y17.5972
G01 X33.1197 Y17.5987
G01 X33.0275 Y17.6032
G01 X33.0125 Y17.6032
G01 X32.9203 Y17.5987
G01 X32.9053 Y17.5972
G01 X32.8141 Y17.5837
G01 X32.7993 Y17.5807
G01 X32.7099 Y17.5583
G01 X32.6954 Y17.5540
G01 X32.6086 Y17.5229
G01 X32.5947 Y17.5171
G01 X32.5113 Y17.4777
G01 X32.4980 Y17.4706
G01 X32.4189 Y17.4232
G01 X32.4064 Y17.4148
G01 X32.3323 Y17.3598
G01 X32.3206 Y17.3503
G01 X32.2523 Y17.2883
G01 X32.2417 Y17.2777
G01 X32.1797 Y17.2094
G01 X32.1702 Y17.1977
G01 X32.1152 Y17.1236
G01 X32.1068 Y17.1111
G01 X32.0594 Y17.0320
G01 X32.0523 Y17.0187
G01 X32.0129 Y16.9353
G01 X32.0071 Y16.9214
G01 X31.9760 Y16.8346
G01 X31.9717 Y16.8201
G01 X31.9493 Y16.7307
G01 X31.9463 Y16.7159
G01 X31.9328 Y16.6247
G01 X31.9313 Y16.6097
G01 X31.9268 Y16.5175
G01 X31.9268 Y16.5025
G01 X31.9313 Y16.4103
G01 X31.9328 Y16.3953
G01 X31.9463 Y16.3041
G01 X31.9493 Y16.2893
G01 X31.9717 Y16.1999
G01 X31.9760 Y16.1854
G01 X32.0071 Y16.0986
G01 X32.0129 Y16.0847
G01 X32.0523 Y16.0013
G01 X32.0594 Y15.9880
G01 X32.1029 Y15.9155
G01 X31.3271 Y15.1397
G01 X29.6329 Y15.1397
G01 X29.2443 Y15.5283
G01 X29.2204 Y15.5503
G01 X29.2087 Y15.5598
G01 X29.1887 Y15.5747
G01 X29.1762 Y15.5830
G01 X29.1548 Y15.5959
G01 X29.1415 Y15.6030
G01 X29.1189 Y15.6136
G01 X29.1050 Y15.6194
G01 X29.0815 Y15.6278
G01 X29.0671 Y15.6322
G01 X29.0429 Y15.6382
G01 X29.0281 Y15.6412
G01 X29.0034 Y15.6448
G01 X28.9884 Y15.6463
G01 X28.9635 Y15.6475
G01 X18.3064 Y15.6477
G01 X18.2949 Y15.7253
G01 X18.2919 Y15.7401
G01 X18.2695 Y15.8295
G01 X18.2652 Y15.8440
G01 X18.2341 Y15.9308
G01 X18.2283 Y15.9447
G01 X18.1889 Y16.0281
G01 X18.1818 Y16.0414
G01 X18.1344 Y16.1205
G01 X18.1260 Y16.1330
G01 X18.0710 Y16.2071
G01 X18.0615 Y16.2188
G01 X17.9995 Y16.2871
G01 X17.9889 Y16.2977
G01 X17.9206 Y16.3597
G01 X17.9089 Y16.3692
G01 X17.8348 Y16.4242
G01 X17.8223 Y16.4326
G01 X17.7432 Y16.4800
G01 X17.7299 Y16.4871
G01 X17.6465 Y16.5265
G01 X17.6326 Y16.5323
G01 X17.5458 Y16.5634
G01 X17.5313 Y16.5677
G01 X17.4419 Y16.5901
G01 X17.4271 Y16.5931
G01 X17.3359 Y16.6066
G01 X17.3209 Y16.6081
G01 X17.2287 Y16.6126
G01 X17.2137 Y16.6126
G01 X17.1215 Y16.6081
G01 X17.1065 Y16.6066
G01 X17.0153 Y16.5931
G01 X17.0005 Y16.5901
G01 X16.9111 Y16.5677
G01 X16.8966 Y16.5634
G01 X16.8098 Y16.5323
G01 X16.7959 Y16.5265
G01 X16.7125 Y16.4871
G01 X16.6992 Y16.4800
G01 X16.6201 Y16.4326
G01 X16.6076 Y16.4242
G01 X16.5335 Y16.3692
G01 X16.5218 Y16.3597
G01 X16.4535 Y16.2977
G01 X16.4429 Y16.2871
G01 X16.3809 Y16.2188
G01 X16.3714 Y16.2071
G01 X16.3164 Y16.1330
G01 X16.3080 Y16.1205
G01 X16.2606 Y16.0414
G01 X16.2535 Y16.0281
G01 X16.2141 Y15.9447
G01 X16.2083 Y15.9308
G01 X16.1772 Y15.8440
G01 X16.1729 Y15.8295
G01 X16.1505 Y15.7401
G01 X16.1475 Y15.7253
G01 X16.1340 Y15.6341
G01 X16.1325 Y15.6191
G01 X16.1280 Y15.5269
G01 X16.1280 Y15.5119
G01 X16.1325 Y15.4197
G01 X16.1340 Y15.4047
G01 X16.1475 Y15.3135
G01 X16.1505 Y15.2987
G01 X16.1729 Y15.2093
G01 X16.1772 Y15.1948
G01 X16.2083 Y15.1080
G01 X16.2141 Y15.0941
G01 X16.2535 Y15.0107
G01 X16.2606 Y14.9974
G01 X16.3080 Y14.9183
G01 X16.3164 Y14.9058
G01 X16.3714 Y14.8317
G01 X16.3809 Y14.8200
G01 X16.4429 Y14.7517
G01 X16.4535 Y14.7411
G01 X16.5218 Y14.6791
G01 X16.5335 Y14.6696
G01 X16.6076 Y14.6146
G01 X16.6201 Y14.6062
G01 X16.6992 Y14.5588
G01 X16.7125 Y14.5517
G01 X16.7959 Y14.5123
G01 X16.8098 Y14.5065
G01 X16.8966 Y14.4754
G01 X16.9111 Y14.4711
G01 X17.0005 Y14.4487
G01 X17.0153 Y14.4457
G01 X17.1065 Y14.4322
G01 X17.1215 Y14.4307
G01 X17.2137 Y14.4262
G01 X17.2287 Y14.4262
G01 X17.3209 Y14.4307
G01 X17.3359 Y14.4322
G01 X17.4271 Y14.4457
G01 X17.4419 Y14.4487
G01 X17.5313 Y14.4711
G01 X17.5458 Y14.4754
G01 X17.6326 Y14.5065
G01 X17.6465 Y14.5123
G01 X17.7299 Y14.5517
G01 X17.7432 Y14.5588
G01 X17.8223 Y14.6062
G01 X17.8348 Y14.6146
G01 X17.9089 Y14.6696
G01 X17.9206 Y14.6791
G01 X17.9889 Y14.7411
G01 X17.9995 Y14.7517
G01 X18.0615 Y14.8200
G01 X18.0715 Y14.8323
G00 X18.0715 Y14.8323
G01 F60.00
G01 Z-0.1800
G01 F60.00
G01 X28.7871 Y14.8323
G01 X29.1757 Y14.4437
G01 X29.1996 Y14.4217
G01 X29.2113 Y14.4122
G01 X29.2313 Y14.3973
G01 X29.2438 Y14.3890
G01 X29.2652 Y14.3761
G01 X29.2785 Y14.3690
G01 X29.3011 Y14.3584
G01 X29.3150 Y14.3526
G01 X29.3385 Y14.3442
G01 X29.3529 Y14.3398
G01 X29.3771 Y14.3338
G01 X29.3919 Y14.3308
G01 X29.4166 Y14.3272
G01 X29.4316 Y14.3257
G01 X29.4640 Y14.3243
G01 X31.4960 Y14.3243
G01 X31.5284 Y14.3257
G01 X31.5434 Y14.3272
G01 X31.5681 Y14.3308
G01 X31.5829 Y14.3338
G01 X31.6071 Y14.3398
G01 X31.6215 Y14.3442
G01 X31.6450 Y14.3526
G01 X31.6589 Y14.3584
G01 X31.6815 Y14.3690
G01 X31.6948 Y14.3761
G01 X31.7162 Y14.3890
G01 X31.7287 Y14.3973
G01 X31.7487 Y14.4122
G01 X31.7604 Y14.4217
G01 X31.7843 Y14.4437
G01 X32.7838 Y15.4432
G01 X32.7993 Y15.4393
G01 X32.8141 Y15.4363
G01 X32.9053 Y15.4228
G01 X32.9203 Y15.4213
G01 X33.0125 Y15.4168
G01 X33.0275 Y15.4168
G01 X33.1197 Y15.4213
G01 X33.1347 Y15.4228
G01 X33.2259 Y15.4363
G01 X33.2407 Y15.4393
G01 X33.3301 Y15.4617
G01 X33.3446 Y15.4660
G01 X33.4314 Y15.4971
G01 X33.4453 Y15.5029
G01 X33.5287 Y15.5423
G01 X33.5420 Y15.5494
G01 X33.6211 Y15.5968
G01 X33.6336 Y15.6052
G01 X33.7077 Y15.6602
G01 X33.7194 Y15.6697
G01 X33.7877 Y15.7317
G01 X33.7983 Y15.7423
G01 X33.8603 Y15.8106
G01 X33.8698 Y15.8223
G01 X33.9248 Y15.8964
G01 X33.9332 Y15.9089
G01 X33.9806 Y15.9880
G01 X33.9877 Y16.0013
G01 X34.0271 Y16.0847
G01 X34.0329 Y16.0986
G01 X34.0640 Y16.1854
G01 X34.0683 Y16.1999
G01 X34.0907 Y16.2893
G01 X34.0937 Y16.3041
G01 X34.1072 Y16.3953
G01 X34.1087 Y16.4103
G01 X34.1132 Y16.5025
G01 X34.1132 Y16.5175
G01 X34.1087 Y16.6097
G01 X34.1072 Y16.6247
G01 X34.0937 Y16.7159
G01 X34.0907 Y16.7307
G01 X34.0683 Y16.8201
G01 X34.0640 Y16.8346
G01 X34.0329 Y16.9214
G01 X34.0271 Y16.9353
G01 X33.9877 Y17.0187
G01 X33.9806 Y17.0320
G01 X33.9332 Y17.1111
G01 X33.9248 Y17.1236
G01 X33.8698 Y17.1977
G01 X33.8603 Y17.2094
G01 X33.7983 Y17.2777
G01 X33.7877 Y17.2883
G01 X33.7194 Y17.3503
G01 X33.7077 Y17.3598
G01 X33.6336 Y17.4148
G01 X33.6211 Y17.4232
G01 X33.5420 Y17.4706
G01 X33.5287 Y17.4777
G01 X33.4453 Y17.5171
G01 X33.4314 Y17.5229
G01 X33.3446 Y17.5540
G01 X33.3301 Y17.5583
G01 X33.2407 Y17.5807
G01 X33.2259 Y17.5837
G01 X33.1347 Y17.5972
G01 X33.1197 Y17.5987
G01 X33.0275 Y17.6032
G01 X33.0125 Y17.6032
G01 X32.9203 Y17.5987
G01 X32.9053 Y17.5972
G01 X32.8141 Y17.5837
G01 X32.7993 Y17.5807
G01 X32.7099 Y17.5583
G01 X32.6954 Y17.5540
G01 X32.6086 Y17.5229
G01 X32.5947 Y17.5171
G01 X32.5113 Y17.4777
G01 X32.4980 Y17.4706
G01 X32.4189 Y17.4232
G01 X32.4064 Y17.4148
G01 X32.3323 Y17.3598
G01 X32.3206 Y17.3503
G01 X32.2523 Y17.2883
G01 X32.2417 Y17.2777
G01 X32.1797 Y17.2094
G01 X32.1702 Y17.1977
G01 X32.1152 Y17.1236
G01 X32.1068 Y17.1111
G01 X32.0594 Y17.0320
G01 X32.0523 Y17.0187
G01 X32.0129 Y16.9353
G01 X32.0071 Y16.9214
G01 X31.9760 Y16.8346
G01 X31.9717 Y16.8201
G01 X31.9493 Y16.7307
G01 X31.9463 Y16.7159
G01 X31.9328 Y16.6247
G01 X31.9313 Y16.6097
G01 X31.9268 Y16.5175
G01 X31.9268 Y16.5025
G01 X31.9313 Y16.4103
G01 X31.9328 Y16.3953
G01 X31.9463 Y16.3041
G01 X31.9493 Y16.2893
G01 X31.9717 Y16.1999
G01 X31.9760 Y16.1854
G01 X32.0071 Y16.0986
G01 X32.0129 Y16.0847
G01 X32.0523 Y16.0013
G01 X32.0594 Y15.9880
G01 X32.1029 Y15.9155
G01 X31.3271 Y15.1397
G01 X29.6329 Y15.1397
G01 X29.2443 Y15.5283
G01 X29.2204 Y15.5503
G01 X29.2087 Y15.5598
G01 X29.1887 Y15.5747
G01 X29.1762 Y15.5830
G01 X29.1548 Y15.5959
G01 X29.1415 Y15.6030
G01 X29.1189 Y15.6136
G01 X29.1050 Y15.6194
G01 X29.0815 Y15.6278
G01 X29.0671 Y15.6322
G01 X29.0429 Y15.6382
G01 X29.0281 Y15.6412
G01 X29.0034 Y15.6448
G01 X28.9884 Y15.6463
G01 X28.9635 Y15.6475
G01 X18.3064 Y15.6477
G01 X18.2949 Y15.7253
G01 X18.2919 Y15.7401
G01 X18.2695 Y15.8295
G01 X18.2652 Y15.8440
G01 X18.2341 Y15.9308
G01 X18.2283 Y15.9447
G01 X18.1889 Y16.0281
G01 X18.1818 Y16.0414
G01 X18.1344 Y16.1205
G01 X18.1260 Y16.1330
G01 X18.0710 Y16.2071
G01 X18.0615 Y16.2188
G01 X17.9995 Y16.2871
G01 X17.9889 Y16.2977
G01 X17.9206 Y16.3597
G01 X17.9089 Y16.3692
G01 X17.8348 Y16.4242
G01 X17.8223 Y16.4326
G01 X17.7432 Y16.4800
G01 X17.7299 Y16.4871
G01 X17.6465 Y16.5265
G01 X17.6326 Y16.5323
G01 X17.5458 Y16.5634
G01 X17.5313 Y16.5677
G01 X17.4419 Y16.5901
G01 X17.4271 Y16.5931
G01 X17.3359 Y16.6066
G01 X17.3209 Y16.6081
G01 X17.2287 Y16.6126
G01 X17.2137 Y16.6126
G01 X17.1215 Y16.6081
G01 X17.1065 Y16.6066
G01 X17.0153 Y16.5931
G01 X17.0005 Y16.5901
G01 X16.9111 Y16.5677
G01 X16.8966 Y16.5634
G01 X16.8098 Y16.5323
G01 X16.7959 Y16.5265
G01 X16.7125 Y16.4871
G01 X16.6992 Y16.4800
G01 X16.6201 Y16.4326
G01 X16.6076 Y16.4242
G01 X16.5335 Y16.3692
G01 X16.5218 Y16.3597
G01 X16.4535 Y16.2977
G01 X16.4429 Y16.2871
G01 X16.3809 Y16.2188
G01 X16.3714 Y16.2071
G01 X16.3164 Y16.1330
G01 X16.3080 Y16.1205
G01 X16.2606 Y16.0414
G01 X16.2535 Y16.0281
G01 X16.2141 Y15.9447
G01 X16.2083 Y15.9308
G01 X16.1772 Y15.8440
G01 X16.1729 Y15.8295
G01 X16.1505 Y15.7401
G01 X16.1475 Y15.7253
G01 X16.1340 Y15.6341
G01 X16.1325 Y15.6191
G01 X16.1280 Y15.5269
G01 X16.1280 Y15.5119
G01 X16.1325 Y15.4197
G01 X16.1340 Y15.4047
G01 X16.1475 Y15.3135
G01 X16.1505 Y15.2987
G01 X16.1729 Y15.2093
G01 X16.1772 Y15.1948
G01 X16.2083 Y15.1080
G01 X16.2141 Y15.0941
G01 X16.2535 Y15.0107
G01 X16.2606 Y14.9974
G01 X16.3080 Y14.9183
G01 X16.3164 Y14.9058
G01 X16.3714 Y14.8317
G01 X16.3809 Y14.8200
G01 X16.4429 Y14.7517
G01 X16.4535 Y14.7411
G01 X16.5218 Y14.6791
G01 X16.5335 Y14.6696
G01 X16.6076 Y14.6146
G01 X16.6201 Y14.6062
G01 X16.6992 Y14.5588
G01 X16.7125 Y14.5517
G01 X16.7959 Y14.5123
G01 X16.8098 Y14.5065
G01 X16.8966 Y14.4754
G01 X16.9111 Y14.4711
G01 X17.0005 Y14.4487
G01 X17.0153 Y14.4457
G01 X17.1065 Y14.4322
G01 X17.1215 Y14.4307
G01 X17.2137 Y14.4262
G01 X17.2287 Y14.4262
G01 X17.3209 Y14.4307
G01 X17.3359 Y14.4322
G01 X17.4271 Y14.4457
G01 X17.4419 Y14.4487
G01 X17.5313 Y14.4711
G01 X17.5458 Y14.4754
G01 X17.6326 Y14.5065
G01 X17.6465 Y14.5123
G01 X17.7299 Y14.5517
G01 X17.7432 Y14.5588
G01 X17.8223 Y14.6062
G01 X17.8348 Y14.6146
G01 X17.9089 Y14.6696
G01 X17.9206 Y14.6791
G01 X17.9889 Y14.7411
G01 X17.9995 Y14.7517
G01 X18.0615 Y14.8200
G01 X18.0715 Y14.8323
G00 X18.0715 Y14.8323
G01 F60.00
G01 Z-0.2000
G01 F60.00
G01 X28.7871 Y14.8323
G01 X29.1757 Y14.4437
G01 X29.1996 Y14.4217
G01 X29.2113 Y14.4122
G01 X29.2313 Y14.3973
G01 X29.2438 Y14.3890
G01 X29.2652 Y14.3761
G01 X29.2785 Y14.3690
G01 X29.3011 Y14.3584
G01 X29.3150 Y14.3526
G01 X29.3385 Y14.3442
G01 X29.3529 Y14.3398
G01 X29.3771 Y14.3338
G01 X29.3919 Y14.3308
G01 X29.4166 Y14.3272
G01 X29.4316 Y14.3257
G01 X29.4640 Y14.3243
G01 X31.4960 Y14.3243
G01 X31.5284 Y14.3257
G01 X31.5434 Y14.3272
G01 X31.5681 Y14.3308
G01 X31.5829 Y14.3338
G01 X31.6071 Y14.3398
G01 X31.6215 Y14.3442
G01 X31.6450 Y14.3526
G01 X31.6589 Y14.3584
G01 X31.6815 Y14.3690
G01 X31.6948 Y14.3761
G01 X31.7162 Y14.3890
G01 X31.7287 Y14.3973
G01 X31.7487 Y14.4122
G01 X31.7604 Y14.4217
G01 X31.7843 Y14.4437
G01 X32.7838 Y15.4432
G01 X32.7993 Y15.4393
G01 X32.8141 Y15.4363
G01 X32.9053 Y15.4228
G01 X32.9203 Y15.4213
G01 X33.0125 Y15.4168
G01 X33.0275 Y15.4168
G01 X33.1197 Y15.4213
G01 X33.1347 Y15.4228
G01 X33.2259 Y15.4363
G01 X33.2407 Y15.4393
G01 X33.3301 Y15.4617
G01 X33.3446 Y15.4660
G01 X33.4314 Y15.4971
G01 X33.4453 Y15.5029
G01 X33.5287 Y15.5423
G01 X33.5420 Y15.5494
G01 X33.6211 Y15.5968
G01 X33.6336 Y15.6052
G01 X33.7077 Y15.6602
G01 X33.7194 Y15.6697
G01 X33.7877 Y15.7317
G01 X33.7983 Y15.7423
G01 X33.8603 Y15.8106
G01 X33.8698 Y15.8223
G01 X33.9248 Y15.8964
G01 X33.9332 Y15.9089
G01 X33.9806 Y15.9880
G01 X33.9877 Y16.0013
G01 X34.0271 Y16.0847
G01 X34.0329 Y16.0986
G01 X34.0640 Y16.1854
G01 X34.0683 Y16.1999
G01 X34.0907 Y16.2893
G01 X34.0937 Y16.3041
G01 X34.1072 Y16.3953
G01 X34.1087 Y16.4103
G01 X34.1132 Y16.5025
G01 X34.1132 Y16.5175
G01 X34.1087 Y16.6097
G01 X34.1072 Y16.6247
G01 X34.0937 Y16.7159
G01 X34.0907 Y16.7307
G01 X34.0683 Y16.8201
G01 X34.0640 Y16.8346
G01 X34.0329 Y16.9214
G01 X34.0271 Y16.9353
G01 X33.9877 Y17.0187
G01 X33.9806 Y17.0320
G01 X33.9332 Y17.1111
G01 X33.9248 Y17.1236
G01 X33.8698 Y17.1977
G01 X33.8603 Y17.2094
G01 X33.7983 Y17.2777
G01 X33.7877 Y17.2883
G01 X33.7194 Y17.3503
G01 X33.7077 Y17.3598
G01 X33.6336 Y17.4148
G01 X33.6211 Y17.4232
G01 X33.5420 Y17.4706
G01 X33.5287 Y17.4777
G01 X33.4453 Y17.5171
G01 X33.4314 Y17.5229
G01 X33.3446 Y17.5540
G01 X33.3301 Y17.5583
G01 X33.2407 Y17.5807
G01 X33.2259 Y17.5837
G01 X33.1347 Y17.5972
G01 X33.1197 Y17.5987
G01 X33.0275 Y17.6032
G01 X33.0125 Y17.6032
G01 X32.9203 Y17.5987
G01 X32.9053 Y17.5972
G01 X32.8141 Y17.5837
G01 X32.7993 Y17.5807
G01 X32.7099 Y17.5583
G01 X32.6954 Y17.5540
G01 X32.6086 Y17.5229
G01 X32.5947 Y17.5171
G01 X32.5113 Y17.4777
G01 X32.4980 Y17.4706
G01 X32.4189 Y17.4232
G01 X32.4064 Y17.4148
G01 X32.3323 Y17.3598
G01 X32.3206 Y17.3503
G01 X32.2523 Y17.2883
G01 X32.2417 Y17.2777
G01 X32.1797 Y17.2094
G01 X32.1702 Y17.1977
G01 X32.1152 Y17.1236
G01 X32.1068 Y17.1111
G01 X32.0594 Y17.0320
G01 X32.0523 Y17.0187
G01 X32.0129 Y16.9353
G01 X32.0071 Y16.9214
G01 X31.9760 Y16.8346
G01 X31.9717 Y16.8201
G01 X31.9493 Y16.7307
G01 X31.9463 Y16.7159
G01 X31.9328 Y16.6247
G01 X31.9313 Y16.6097
G01 X31.9268 Y16.5175
G01 X31.9268 Y16.5025
G01 X31.9313 Y16.4103
G01 X31.9328 Y16.3953
G01 X31.9463 Y16.3041
G01 X31.9493 Y16.2893
G01 X31.9717 Y16.1999
G01 X31.9760 Y16.1854
G01 X32.0071 Y16.0986
G01 X32.0129 Y16.0847
G01 X32.0523 Y16.0013
G01 X32.0594 Y15.9880
G01 X32.1029 Y15.9155
G01 X31.3271 Y15.1397
G01 X29.6329 Y15.1397
G01 X29.2443 Y15.5283
G01 X29.2204 Y15.5503
G01 X29.2087 Y15.5598
G01 X29.1887 Y15.5747
G01 X29.1762 Y15.5830
G01 X29.1548 Y15.5959
G01 X29.1415 Y15.6030
G01 X29.1189 Y15.6136
G01 X29.1050 Y15.6194
G01 X29.0815 Y15.6278
G01 X29.0671 Y15.6322
G01 X29.0429 Y15.6382
G01 X29.0281 Y15.6412
G01 X29.0034 Y15.6448
G01 X28.9884 Y15.6463
G01 X28.9635 Y15.6475
G01 X18.3064 Y15.6477
G01 X18.2949 Y15.7253
G01 X18.2919 Y15.7401
G01 X18.2695 Y15.8295
G01 X18.2652 Y15.8440
G01 X18.2341 Y15.9308
G01 X18.2283 Y15.9447
G01 X18.1889 Y16.0281
G01 X18.1818 Y16.0414
G01 X18.1344 Y16.1205
G01 X18.1260 Y16.1330
G01 X18.0710 Y16.2071
G01 X18.0615 Y16.2188
G01 X17.9995 Y16.2871
G01 X17.9889 Y16.2977
G01 X17.9206 Y16.3597
G01 X17.9089 Y16.3692
G01 X17.8348 Y16.4242
G01 X17.8223 Y16.4326
G01 X17.7432 Y16.4800
G01 X17.7299 Y16.4871
G01 X17.6465 Y16.5265
G01 X17.6326 Y16.5323
G01 X17.5458 Y16.5634
G01 X17.5313 Y16.5677
G01 X17.4419 Y16.5901
G01 X17.4271 Y16.5931
G01 X17.3359 Y16.6066
G01 X17.3209 Y16.6081
G01 X17.2287 Y16.6126
G01 X17.2137 Y16.6126
G01 X17.1215 Y16.6081
G01 X17.1065 Y16.6066
G01 X17.0153 Y16.5931
G01 X17.0005 Y16.5901
G01 X16.9111 Y16.5677
G01 X16.8966 Y16.5634
G01 X16.8098 Y16.5323
G01 X16.7959 Y16.5265
G01 X16.7125 Y16.4871
G01 X16.6992 Y16.4800
G01 X16.6201 Y16.4326
G01 X16.6076 Y16.4242
G01 X16.5335 Y16.3692
G01 X16.5218 Y16.3597
G01 X16.4535 Y16.2977
G01 X16.4429 Y16.2871
G01 X16.3809 Y16.2188
G01 X16.3714 Y16.2071
G01 X16.3164 Y16.1330
G01 X16.3080 Y16.1205
G01 X16.2606 Y16.0414
G01 X16.2535 Y16.0281
G01 X16.2141 Y15.9447
G01 X16.2083 Y15.9308
G01 X16.1772 Y15.8440
G01 X16.1729 Y15.8295
G01 X16.1505 Y15.7401
G01 X16.1475 Y15.7253
G01 X16.1340 Y15.6341
G01 X16.1325 Y15.6191
G01 X16.1280 Y15.5269
G01 X16.1280 Y15.5119
G01 X16.1325 Y15.4197
G01 X16.1340 Y15.4047
G01 X16.1475 Y15.3135
G01 X16.1505 Y15.2987
G01 X16.1729 Y15.2093
G01 X16.1772 Y15.1948
G01 X16.2083 Y15.1080
G01 X16.2141 Y15.0941
G01 X16.2535 Y15.0107
G01 X16.2606 Y14.9974
G01 X16.3080 Y14.9183
G01 X16.3164 Y14.9058
G01 X16.3714 Y14.8317
G01 X16.3809 Y14.8200
G01 X16.4429 Y14.7517
G01 X16.4535 Y14.7411
G01 X16.5218 Y14.6791
G01 X16.5335 Y14.6696
G01 X16.6076 Y14.6146
G01 X16.6201 Y14.6062
G01 X16.6992 Y14.5588
G01 X16.7125 Y14.5517
G01 X16.7959 Y14.5123
G01 X16.8098 Y14.5065
G01 X16.8966 Y14.4754
G01 X16.9111 Y14.4711
G01 X17.0005 Y14.4487
G01 X17.0153 Y14.4457
G01 X17.1065 Y14.4322
G01 X17.1215 Y14.4307
G01 X17.2137 Y14.4262
G01 X17.2287 Y14.4262
G01 X17.3209 Y14.4307
G01 X17.3359 Y14.4322
G01 X17.4271 Y14.4457
G01 X17.4419 Y14.4487
G01 X17.5313 Y14.4711
G01 X17.5458 Y14.4754
G01 X17.6326 Y14.5065
G01 X17.6465 Y14.5123
G01 X17.7299 Y14.5517
G01 X17.7432 Y14.5588
G01 X17.8223 Y14.6062
G01 X17.8348 Y14.6146
G01 X17.9089 Y14.6696
G01 X17.9206 Y14.6791
G01 X17.9889 Y14.7411
G01 X17.9995 Y14.7517
G01 X18.0615 Y14.8200
G01 X18.0715 Y14.8323
G00 Z2.0000
G00 X24.9923 Y25.0886
G01 F60.00
G01 Z-0.0900
G01 F60.00
G01 X24.9923 Y21.8440
G01 X24.9937 Y21.8116
G01 X24.9952 Y21.7966
G01 X24.9988 Y21.7719
G01 X25.0018 Y21.7571
G01 X25.0078 Y21.7329
G01 X25.0122 Y21.7185
G01 X25.0206 Y21.6950
G01 X25.0264 Y21.6811
G01 X25.0370 Y21.6585
G01 X25.0441 Y21.6452
G01 X25.0570 Y21.6238
G01 X25.0653 Y21.6113
G01 X25.0802 Y21.5913
G01 X25.0897 Y21.5796
G01 X25.1117 Y21.5557
G01 X29.5629 Y17.1045
G01 X29.5194 Y17.0320
G01 X29.5123 Y17.0187
G01 X29.4729 Y16.9353
G01 X29.4671 Y16.9214
G01 X29.4360 Y16.8346
G01 X29.4317 Y16.8201
G01 X29.4093 Y16.7307
G01 X29.4063 Y16.7159
G01 X29.3928 Y16.6247
G01 X29.3913 Y16.6097
G01 X29.3868 Y16.5175
G01 X29.3868 Y16.5025
G01 X29.3913 Y16.4103
G01 X29.3928 Y16.3953
G01 X29.4063 Y16.3041
G01 X29.4093 Y16.2893
G01 X29.4317 Y16.1999
G01 X29.4360 Y16.1854
G01 X29.4671 Y16.0986
G01 X29.4729 Y16.0847
G01 X29.5123 Y16.0013
G01 X29.5194 Y15.9880
G01 X29.5668 Y15.9089
G01 X29.5752 Y15.8964
G01 X29.6302 Y15.8223
G01 X29.6397 Y15.8106
G01 X29.7017 Y15.7423
G01 X29.7123 Y15.7317
G01 X29.7806 Y15.6697
G01 X29.7923 Y15.6602
G01 X29.8664 Y15.6052
G01 X29.8789 Y15.5968
G01 X29.9580 Y15.5494
G01 X29.9713 Y15.5423
G01 X30.0547 Y15.5029
G01 X30.0686 Y15.4971
G01 X30.1554 Y15.4660
G01 X30.1699 Y15.4617
G01 X30.2593 Y15.4393
G01 X30.2741 Y15.4363
G01 X30.3653 Y15.4228
G01 X30.3803 Y15.4213
G01 X30.4725 Y15.4168
G01 X30.4875 Y15.4168
G01 X30.5797 Y15.4213
G01 X30.5947 Y15.4228
G01 X30.6859 Y15.4363
G01 X30.7007 Y15.4393
G01 X30.7901 Y15.4617
G01 X30.8046 Y15.4660
G01 X30.8914 Y15.4971
G01 X30.9053 Y15.5029
G01 X30.9887 Y15.5423
G01 X31.0020 Y15.5494
G01 X31.0811 Y15.5968
G01 X31.0936 Y15.6052
G01 X31.1677 Y15.6602
G01 X31.1794 Y15.6697
G01 X31.2477 Y15.7317
G01 X31.2583 Y15.7423
G01 X31.3203 Y15.8106
G01 X31.3298 Y15.8223
G01 X31.3848 Y15.8964
G01 X31.3932 Y15.9089
G01 X31.4406 Y15.9880
G01 X31.4477 Y16.0013
G01 X31.4871 Y16.0847
G01 X31.4929 Y16.0986
G01 X31.5240 Y16.1854
G01 X31.5283 Y16.1999
G01 X31.5507 Y16.2893
G01 X31.5537 Y16.3041
G01 X31.5672 Y16.3953
G01 X31.5687 Y16.4103
G01 X31.5732 Y16.5025
G01 X31.5732 Y16.5175
G01 X31.5687 Y16.6097
G01 X31.5672 Y16.6247
G01 X31.5537 Y16.7159
G01 X31.5507 Y16.7307
G01 X31.5283 Y16.8201
G01 X31.5240 Y16.8346
G01 X31.4929 Y16.9214
G01 X31.4871 Y16.9353
G01 X31.4477 Y17.0187
G01 X31.4406 Y17.0320
G01 X31.3932 Y17.1111
G01 X31.3848 Y17.1236
G01 X31.3298 Y17.1977
G01 X31.3203 Y17.2094
G01 X31.2583 Y17.2777
G01 X31.2477 Y17.2883
G01 X31.1794 Y17.3503
G01 X31.1677 Y17.3598
G01 X31.0936 Y17.4148
G01 X31.0811 Y17.4232
G01 X31.0020 Y17.4706
G01 X30.9887 Y17.4777
G01 X30.9053 Y17.5171
G01 X30.8914 Y17.5229
G01 X30.8046 Y17.5540
G01 X30.7901 Y17.5583
G01 X30.7007 Y17.5807
G01 X30.6859 Y17.5837
G01 X30.5947 Y17.5972
G01 X30.5797 Y17.5987
G01 X30.4875 Y17.6032
G01 X30.4725 Y17.6032
G01 X30.3803 Y17.5987
G01 X30.3653 Y17.5972
G01 X30.2741 Y17.5837
G01 X30.2593 Y17.5807
G01 X30.2438 Y17.5768
G01 X25.8077 Y22.0129
G01 X25.8077 Y25.0886
G01 X25.8251 Y25.0968
G01 X25.8384 Y25.1039
G01 X25.9025 Y25.1424
G01 X25.9151 Y25.1507
G01 X25.9751 Y25.1953
G01 X25.9868 Y25.2049
G01 X26.0422 Y25.2551
G01 X26.0529 Y25.2658
G01 X26.1031 Y25.3212
G01 X26.1127 Y25.3329
G01 X26.1573 Y25.3929
G01 X26.1656 Y25.4055
G01 X26.2041 Y25.4696
G01 X26.2112 Y25.4829
G01 X26.2432 Y25.5506
G01 X26.2490 Y25.5645
G01 X26.2742 Y25.6349
G01 X26.2786 Y25.6494
G01 X26.2967 Y25.7219
G01 X26.2997 Y25.7367
G01 X26.3106 Y25.8107
G01 X26.3121 Y25.8257
G01 X26.3160 Y25.9080
G01 X26.3158 Y27.4395
G01 X26.3121 Y27.5143
G01 X26.3106 Y27.5293
G01 X26.2997 Y27.6033
G01 X26.2967 Y27.6181
G01 X26.2786 Y27.6906
G01 X26.2742 Y27.7051
G01 X26.2490 Y27.7755
G01 X26.2432 Y27.7894
G01 X26.2112 Y27.8571
G01 X26.2041 Y27.8704
G01 X26.1656 Y27.9345
G01 X26.1573 Y27.9471
G01 X26.1127 Y28.0071
G01 X26.1031 Y28.0188
G01 X26.0529 Y28.0742
G01 X26.0422 Y28.0849
G01 X25.9868 Y28.1351
G01 X25.9751 Y28.1447
G01 X25.9151 Y28.1893
G01 X25.9025 Y28.1976
G01 X25.8384 Y28.2361
G01 X25.8251 Y28.2432
G01 X25.7574 Y28.2752
G01 X25.7435 Y28.2810
G01 X25.6731 Y28.3062
G01 X25.6586 Y28.3106
G01 X25.5861 Y28.3287
G01 X25.5713 Y28.3317
G01 X25.4973 Y28.3426
G01 X25.4823 Y28.3441
G01 X25.4075 Y28.3478
G01 X25.3925 Y28.3478
G01 X25.3177 Y28.3441
G01 X25.3027 Y28.3426
G01 X25.2287 Y28.3317
G01 X25.2139 Y28.3287
G01 X25.1414 Y28.3106
G01 X25.1269 Y28.3062
G01 X25.0565 Y28.2810
G01 X25.0426 Y28.2752
G01 X24.9749 Y28.2432
G01 X24.9616 Y28.2361
G01 X24.8975 Y28.1976
G01 X24.8849 Y28.1893
G01 X24.8249 Y28.1447
G01 X24.8132 Y28.1351
G01 X24.7578 Y28.0849
G01 X24.7471 Y28.0742
G01 X24.6969 Y28.0188
G01 X24.6873 Y28.0071
G01 X24.6427 Y27.9471
G01 X24.6344 Y27.9345
G01 X24.5959 Y27.8704
G01 X24.5888 Y27.8571
G01 X24.5568 Y27.7894
G01 X24.5510 Y27.7755
G01 X24.5258 Y27.7051
G01 X24.5214 Y27.6906
G01 X24.5033 Y27.6181
G01 X24.5003 Y27.6033
G01 X24.4894 Y27.5293
G01 X24.4879 Y27.5143
G01 X24.4840 Y27.4320
G01 X24.4840 Y25.9080
G01 X24.4879 Y25.8257
G01 X24.4894 Y25.8107
G01 X24.5003 Y25.7367
G01 X24.5033 Y25.7219
G01 X24.5214 Y25.6494
G01 X24.5258 Y25.6349
G01 X24.5510 Y25.5645
G01 X24.5568 Y25.5506
G01 X24.5888 Y25.4829
G01 X24.5959 Y25.4696
G01 X24.6344 Y25.4055
G01 X24.6427 Y25.3929
G01 X24.6873 Y25.3329
G01 X24.6969 Y25.3212
G01 X24.7471 Y25.2658
G01 X24.7578 Y25.2551
G01 X24.8132 Y25.2049
G01 X24.8249 Y25.1953
G01 X24.8849 Y25.1507
G01 X24.8975 Y25.1424
G01 X24.9616 Y25.1039
G01 X24.9749 Y25.0968
G01 X24.9923 Y25.0886
G00 X24.9923 Y25.0886
G01 F60.00
G01 Z-0.1800
G01 F60.00
G01 X24.9923 Y21.8440
G01 X24.9937 Y21.8116
G01 X24.9952 Y21.7966
G01 X24.9988 Y21.7719
G01 X25.0018 Y21.7571
G01 X25.0078 Y21.7329
G01 X25.0122 Y21.7185
G01 X25.0206 Y21.6950
G01 X25.0264 Y21.6811
G01 X25.0370 Y21.6585
G01 X25.0441 Y21.6452
G01 X25.0570 Y21.6238
G01 X25.0653 Y21.6113
G01 X25.0802 Y21.5913
G01 X25.0897 Y21.5796
G01 X25.1117 Y21.5557
G01 X29.5629 Y17.1045
G01 X29.5194 Y17.0320
G01 X29.5123 Y17.0187
G01 X29.4729 Y16.9353
G01 X29.4671 Y16.9214
G01 X29.4360 Y16.8346
G01 X29.4317 Y16.8201
G01 X29.4093 Y16.7307
G01 X29.4063 Y16.7159
G01 X29.3928 Y16.6247
G01 X29.3913 Y16.6097
G01 X29.3868 Y16.5175
G01 X29.3868 Y16.5025
G01 X29.3913 Y16.4103
G01 X29.3928 Y16.3953
G01 X29.4063 Y16.3041
G01 X29.4093 Y16.2893
G01 X29.4317 Y16.1999
G01 X29.4360 Y16.1854
G01 X29.4671 Y16.0986
G01 X29.4729 Y16.0847
G01 X29.5123 Y16.0013
G01 X29.5194 Y15.9880
G01 X29.5668 Y15.9089
G01 X29.5752 Y15.8964
G01 X29.6302 Y15.8223
G01 X29.6397 Y15.8106
G01 X29.7017 Y15.7423
G01 X29.7123 Y15.7317
G01 X29.7806 Y15.6697
G01 X29.7923 Y15.6602
G01 X29.8664 Y15.6052
G01 X29.8789 Y15.5968
G01 X29.9580 Y15.5494
G01 X29.9713 Y15.5423
G01 X30.0547 Y15.5029
G01 X30.0686 Y15.4971
G01 X30.1554 Y15.4660
G01 X30.1699 Y15.4617
G01 X30.2593 Y15.4393
G01 X30.2741 Y15.4363
G01 X30.3653 Y15.4228
G01 X30.3803 Y15.4213
G01 X30.4725 Y15.4168
G01 X30.4875 Y15.4168
G01 X30.5797 Y15.4213
G01 X30.5947 Y15.4228
G01 X30.6859 Y15.4363
G01 X30.7007 Y15.4393
G01 X30.7901 Y15.4617
G01 X30.8046 Y15.4660
G01 X30.8914 Y15.4971
G01 X30.9053 Y15.5029
G01 X30.9887 Y15.5423
G01 X31.0020 Y15.5494
G01 X31.0811 Y15.5968
G01 X31.0936 Y15.6052
G01 X31.1677 Y15.6602
G01 X31.1794 Y15.6697
G01 X31.2477 Y15.7317
G01 X31.2583 Y15.7423
G01 X31.3203 Y15.8106
G01 X31.3298 Y15.8223
G01 X31.3848 Y15.8964
G01 X31.3932 Y15.9089
G01 X31.4406 Y15.9880
G01 X31.4477 Y16.0013
G01 X31.4871 Y16.0847
G01 X31.4929 Y16.0986
G01 X31.5240 Y16.1854
G01 X31.5283 Y16.1999
G01 X31.5507 Y16.2893
G01 X31.5537 Y16.3041
G01 X31.5672 Y16.3953
G01 X31.5687 Y16.4103
G01 X31.5732 Y16.5025
G01 X31.5732 Y16.5175
G01 X31.5687 Y16.6097
G01 X31.5672 Y16.6247
G01 X31.5537 Y16.7159
G01 X31.5507 Y16.7307
G01 X31.5283 Y16.8201
G01 X31.5240 Y16.8346
G01 X31.4929 Y16.9214
G01 X31.4871 Y16.9353
G01 X31.4477 Y17.0187
G01 X31.4406 Y17.0320
G01 X31.3932 Y17.1111
G01 X31.3848 Y17.1236
G01 X31.3298 Y17.1977
G01 X31.3203 Y17.2094
G01 X31.2583 Y17.2777
G01 X31.2477 Y17.2883
G01 X31.1794 Y17.3503
G01 X31.1677 Y17.3598
G01 X31.0936 Y17.4148
G01 X31.0811 Y17.4232
G01 X31.0020 Y17.4706
G01 X30.9887 Y17.4777
G01 X30.9053 Y17.5171
G01 X30.8914 Y17.5229
G01 X30.8046 Y17.5540
G01 X30.7901 Y17.5583
G01 X30.7007 Y17.5807
G01 X30.6859 Y17.5837
G01 X30.5947 Y17.5972
G01 X30.5797 Y17.5987
G01 X30.4875 Y17.6032
G01 X30.4725 Y17.6032
G01 X30.3803 Y17.5987
G01 X30.3653 Y17.5972
G01 X30.2741 Y17.5837
G01 X30.2593 Y17.5807
G01 X30.2438 Y17.5768
G01 X25.8077 Y22.0129
G01 X25.8077 Y25.0886
G01 X25.8251 Y25.0968
G01 X25.8384 Y25.1039
G01 X25.9025 Y25.1424
G01 X25.9151 Y25.1507
G01 X25.9751 Y25.1953
G01 X25.9868 Y25.2049
G01 X26.0422 Y25.2551
G01 X26.0529 Y25.2658
G01 X26.1031 Y25.3212
G01 X26.1127 Y25.3329
G01 X26.1573 Y25.3929
G01 X26.1656 Y25.4055
G01 X26.2041 Y25.4696
G01 X26.2112 Y25.4829
G01 X26.2432 Y25.5506
G01 X26.2490 Y25.5645
G01 X26.2742 Y25.6349
G01 X26.2786 Y25.6494
G01 X26.2967 Y25.7219
G01 X26.2997 Y25.7367
G01 X26.3106 Y25.8107
G01 X26.3121 Y25.8257
G01 X26.3160 Y25.9080
G01 X26.3158 Y27.4395
G01 X26.3121 Y27.5143
G01 X26.3106 Y27.5293
G01 X26.2997 Y27.6033
G01 X26.2967 Y27.6181
G01 X26.2786 Y27.6906
G01 X26.2742 Y27.7051
G01 X26.2490 Y27.7755
G01 X26.2432 Y27.7894
G01 X26.2112 Y27.8571
G01 X26.2041 Y27.8704
G01 X26.1656 Y27.9345
G01 X26.1573 Y27.9471
G01 X26.1127 Y28.0071
G01 X26.1031 Y28.0188
G01 X26.0529 Y28.0742
G01 X26.0422 Y28.0849
G01 X25.9868 Y28.1351
G01 X25.9751 Y28.1447
G01 X25.9151 Y28.1893
G01 X25.9025 Y28.1976
G01 X25.8384 Y28.2361
G01 X25.8251 Y28.2432
G01 X25.7574 Y28.2752
G01 X25.7435 Y28.2810
G01 X25.6731 Y28.3062
G01 X25.6586 Y28.3106
G01 X25.5861 Y28.3287
G01 X25.5713 Y28.3317
G01 X25.4973 Y28.3426
G01 X25.4823 Y28.3441
G01 X25.4075 Y28.3478
G01 X25.3925 Y28.3478
G01 X25.3177 Y28.3441
G01 X25.3027 Y28.3426
G01 X25.2287 Y28.3317
G01 X25.2139 Y28.3287
G01 X25.1414 Y28.3106
G01 X25.1269 Y28.3062
G01 X25.0565 Y28.2810
G01 X25.0426 Y28.2752
G01 X24.9749 Y28.2432
G01 X24.9616 Y28.2361
G01 X24.8975 Y28.1976
G01 X24.8849 Y28.1893
G01 X24.8249 Y28.1447
G01 X24.8132 Y28.1351
G01 X24.7578 Y28.0849
G01 X24.7471 Y28.0742
G01 X24.6969 Y28.0188
G01 X24.6873 Y28.0071
G01 X24.6427 Y27.9471
G01 X24.6344 Y27.9345
G01 X24.5959 Y27.8704
G01 X24.5888 Y27.8571
G01 X24.5568 Y27.7894
G01 X24.5510 Y27.7755
G01 X24.5258 Y27.7051
G01 X24.5214 Y27.6906
G01 X24.5033 Y27.6181
G01 X24.5003 Y27.6033
G01 X24.4894 Y27.5293
G01 X24.4879 Y27.5143
G01 X24.4840 Y27.4320
G01 X24.4840 Y25.9080
G01 X24.4879 Y25.8257
G01 X24.4894 Y25.8107
G01 X24.5003 Y25.7367
G01 X24.5033 Y25.7219
G01 X24.5214 Y25.6494
G01 X24.5258 Y25.6349
G01 X24.5510 Y25.5645
G01 X24.5568 Y25.5506
G01 X24.5888 Y25.4829
G01 X24.5959 Y25.4696
G01 X24.6344 Y25.4055
G01 X24.6427 Y25.3929
G01 X24.6873 Y25.3329
G01 X24.6969 Y25.3212
G01 X24.7471 Y25.2658
G01 X24.7578 Y25.2551
G01 X24.8132 Y25.2049
G01 X24.8249 Y25.1953
G01 X24.8849 Y25.1507
G01 X24.8975 Y25.1424
G01 X24.9616 Y25.1039
G01 X24.9749 Y25.0968
G01 X24.9923 Y25.0886
G00 X24.9923 Y25.0886
G01 F60.00
G01 Z-0.2000
G01 F60.00
G01 X24.9923 Y21.8440
G01 X24.9937 Y21.8116
G01 X24.9952 Y21.7966
G01 X24.9988 Y21.7719
G01 X25.0018 Y21.7571
G01 X25.0078 Y21.7329
G01 X25.0122 Y21.7185
G01 X25.0206 Y21.6950
G01 X25.0264 Y21.6811
G01 X25.0370 Y21.6585
G01 X25.0441 Y21.6452
G01 X25.0570 Y21.6238
G01 X25.0653 Y21.6113
G01 X25.0802 Y21.5913
G01 X25.0897 Y21.5796
G01 X25.1117 Y21.5557
G01 X29.5629 Y17.1045
G01 X29.5194 Y17.0320
G01 X29.5123 Y17.0187
G01 X29.4729 Y16.9353
G01 X29.4671 Y16.9214
G01 X29.4360 Y16.8346
G01 X29.4317 Y16.8201
G01 X29.4093 Y16.7307
G01 X29.4063 Y16.7159
G01 X29.3928 Y16.6247
G01 X29.3913 Y16.6097
G01 X29.3868 Y16.5175
G01 X29.3868 Y16.5025
G01 X29.3913 Y16.4103
G01 X29.3928 Y16.3953
G01 X29.4063 Y16.3041
G01 X29.4093 Y16.2893
G01 X29.4317 Y16.1999
G01 X29.4360 Y16.1854
G01 X29.4671 Y16.0986
G01 X29.4729 Y16.0847
G01 X29.5123 Y16.0013
G01 X29.5194 Y15.9880
G01 X29.5668 Y15.9089
G01 X29.5752 Y15.8964
G01 X29.6302 Y15.8223
G01 X29.6397 Y15.8106
G01 X29.7017 Y15.7423
G01 X29.7123 Y15.7317
G01 X29.7806 Y15.6697
G01 X29.7923 Y15.6602
G01 X29.8664 Y15.6052
G01 X29.8789 Y15.5968
G01 X29.9580 Y15.5494
G01 X29.9713 Y15.5423
G01 X30.0547 Y15.5029
G01 X30.0686 Y15.4971
G01 X30.1554 Y15.4660
G01 X30.1699 Y15.4617
G01 X30.2593 Y15.4393
G01 X30.2741 Y15.4363
G01 X30.3653 Y15.4228
G01 X30.3803 Y15.4213
G01 X30.4725 Y15.4168
G01 X30.4875 Y15.4168
G01 X30.5797 Y15.4213
G01 X30.5947 Y15.4228
G01 X30.6859 Y15.4363
G01 X30.7007 Y15.4393
G01 X30.7901 Y15.4617
G01 X30.8046 Y15.4660
G01 X30.8914 Y15.4971
G01 X30.9053 Y15.5029
G01 X30.9887 Y15.5423
G01 X31.0020 Y15.5494
G01 X31.0811 Y15.5968
G01 X31.0936 Y15.6052
G01 X31.1677 Y15.6602
G01 X31.1794 Y15.6697
G01 X31.2477 Y15.7317
G01 X31.2583 Y15.7423
G01 X31.3203 Y15.8106
G01 X31.3298 Y15.8223
G01 X31.3848 Y15.8964
G01 X31.3932 Y15.9089
G01 X31.4406 Y15.9880
G01 X31.4477 Y16.0013
G01 X31.4871 Y16.0847
G01 X31.4929 Y16.0986
G01 X31.5240 Y16.1854
G01 X31.5283 Y16.1999
G01 X31.5507 Y16.2893
G01 X31.5537 Y16.3041
G01 X31.5672 Y16.3953
G01 X31.5687 Y16.4103
G01 X31.5732 Y16.5025
G01 X31.5732 Y16.5175
G01 X31.5687 Y16.6097
G01 X31.5672 Y16.6247
G01 X31.5537 Y16.7159
G01 X31.5507 Y16.7307
G01 X31.5283 Y16.8201
G01 X31.5240 Y16.8346
G01 X31.4929 Y16.9214
G01 X31.4871 Y16.9353
G01 X31.4477 Y17.0187
G01 X31.4406 Y17.0320
G01 X31.3932 Y17.1111
G01 X31.3848 Y17.1236
G01 X31.3298 Y17.1977
G01 X31.3203 Y17.2094
G01 X31.2583 Y17.2777
G01 X31.2477 Y17.2883
G01 X31.1794 Y17.3503
G01 X31.1677 Y17.3598
G01 X31.0936 Y17.4148
G01 X31.0811 Y17.4232
G01 X31.0020 Y17.4706
G01 X30.9887 Y17.4777
G01 X30.9053 Y17.5171
G01 X30.8914 Y17.5229
G01 X30.8046 Y17.5540
G01 X30.7901 Y17.5583
G01 X30.7007 Y17.5807
G01 X30.6859 Y17.5837
G01 X30.5947 Y17.5972
G01 X30.5797 Y17.5987
G01 X30.4875 Y17.6032
G01 X30.4725 Y17.6032
G01 X30.3803 Y17.5987
G01 X30.3653 Y17.5972
G01 X30.2741 Y17.5837
G01 X30.2593 Y17.5807
G01 X30.2438 Y17.5768
G01 X25.8077 Y22.0129
G01 X25.8077 Y25.0886
G01 X25.8251 Y25.0968
G01 X25.8384 Y25.1039
G01 X25.9025 Y25.1424
G01 X25.9151 Y25.1507
G01 X25.9751 Y25.1953
G01 X25.9868 Y25.2049
G01 X26.0422 Y25.2551
G01 X26.0529 Y25.2658
G01 X26.1031 Y25.3212
G01 X26.1127 Y25.3329
G01 X26.1573 Y25.3929
G01 X26.1656 Y25.4055
G01 X26.2041 Y25.4696
G01 X26.2112 Y25.4829
G01 X26.2432 Y25.5506
G01 X26.2490 Y25.5645
G01 X26.2742 Y25.6349
G01 X26.2786 Y25.6494
G01 X26.2967 Y25.7219
G01 X26.2997 Y25.7367
G01 X26.3106 Y25.8107
G01 X26.3121 Y25.8257
G01 X26.3160 Y25.9080
G01 X26.3158 Y27.4395
G01 X26.3121 Y27.5143
G01 X26.3106 Y27.5293
G01 X26.2997 Y27.6033
G01 X26.2967 Y27.6181
G01 X26.2786 Y27.6906
G01 X26.2742 Y27.7051
G01 X26.2490 Y27.7755
G01 X26.2432 Y27.7894
G01 X26.2112 Y27.8571
G01 X26.2041 Y27.8704
G01 X26.1656 Y27.9345
G01 X26.1573 Y27.9471
G01 X26.1127 Y28.0071
G01 X26.1031 Y28.0188
G01 X26.0529 Y28.0742
G01 X26.0422 Y28.0849
G01 X25.9868 Y28.1351
G01 X25.9751 Y28.1447
G01 X25.9151 Y28.1893
G01 X25.9025 Y28.1976
G01 X25.8384 Y28.2361
G01 X25.8251 Y28.2432
G01 X25.7574 Y28.2752
G01 X25.7435 Y28.2810
G01 X25.6731 Y28.3062
G01 X25.6586 Y28.3106
G01 X25.5861 Y28.3287
G01 X25.5713 Y28.3317
G01 X25.4973 Y28.3426
G01 X25.4823 Y28.3441
G01 X25.4075 Y28.3478
G01 X25.3925 Y28.3478
G01 X25.3177 Y28.3441
G01 X25.3027 Y28.3426
G01 X25.2287 Y28.3317
G01 X25.2139 Y28.3287
G01 X25.1414 Y28.3106
G01 X25.1269 Y28.3062
G01 X25.0565 Y28.2810
G01 X25.0426 Y28.2752
G01 X24.9749 Y28.2432
G01 X24.9616 Y28.2361
G01 X24.8975 Y28.1976
G01 X24.8849 Y28.1893
G01 X24.8249 Y28.1447
G01 X24.8132 Y28.1351
G01 X24.7578 Y28.0849
G01 X24.7471 Y28.0742
G01 X24.6969 Y28.0188
G01 X24.6873 Y28.0071
G01 X24.6427 Y27.9471
G01 X24.6344 Y27.9345
G01 X24.5959 Y27.8704
G01 X24.5888 Y27.8571
G01 X24.5568 Y27.7894
G01 X24.5510 Y27.7755
G01 X24.5258 Y27.7051
G01 X24.5214 Y27.6906
G01 X24.5033 Y27.6181
G01 X24.5003 Y27.6033
G01 X24.4894 Y27.5293
G01 X24.4879 Y27.5143
G01 X24.4840 Y27.4320
G01 X24.4840 Y25.9080
G01 X24.4879 Y25.8257
G01 X24.4894 Y25.8107
G01 X24.5003 Y25.7367
G01 X24.5033 Y25.7219
G01 X24.5214 Y25.6494
G01 X24.5258 Y25.6349
G01 X24.5510 Y25.5645
G01 X24.5568 Y25.5506
G01 X24.5888 Y25.4829
G01 X24.5959 Y25.4696
G01 X24.6344 Y25.4055
G01 X24.6427 Y25.3929
G01 X24.6873 Y25.3329
G01 X24.6969 Y25.3212
G01 X24.7471 Y25.2658
G01 X24.7578 Y25.2551
G01 X24.8132 Y25.2049
G01 X24.8249 Y25.1953
G01 X24.8849 Y25.1507
G01 X24.8975 Y25.1424
G01 X24.9616 Y25.1039
G01 X24.9749 Y25.0968
G01 X24.9923 Y25.0886
G00 Z2.0000
M05
G00 Z2.0000
G00 Z5.00
G00 X0.0 Y0.0

