(G-CODE GENERATED BY FLATCAM v8.991 - www.flatcam.org - Version Date: 2019/12/27)

(Name: copper_top.gbr_iso_cnc_2mm)
(Type: G-code from Geometry)
(Units: MM)

(Created on Wednesday, 21 June 2023 at 12:20)

(TOOL DIAMETER: 0.3608 mm)
(Feedrate: 60.0 mm/min)
(Feedrate_Z: 60.0 mm/min)
(Feedrate rapids 1500.0 mm/min)

(Z_Cut: -0.3 mm)
(DepthPerCut: 0.04 mm <=>8 passes)
(Z_Move: 0.3608 mm)
(Z Toolchange: 15.0 mm)
(X,Y Toolchange: 0.0000, 0.0000 mm)
(Z Start: None mm)
(Z End: 5.0 mm)
(Steps per circle: 64)
(Preprocessor Geometry: default)

(X range:    9.5453 ...   34.5240  mm)
(Y range:   13.2277 ...   28.4280  mm)

(Spindle Speed: 65535 RPM)
G21
G90
G94

(Acceleration settings)
M204 P36000 T36000

(Rapid speed)
G00 F1200.00

(Auto leveling map probing)
G29 L0 R10 F0 B15 N6 N6

(Tool change)
M06

(Probing new tool)
G30

(Give chance for removing probing wires)
M06

(Zeroing Z-axis after probing)
G92 X0 Y0 Z0


G01 F60.00
G00 Z0.3608

M03 S65535
G00 X11.8923 Y15.5309
G01 F60.00
G01 Z-0.0400
G01 F60.00
G01 X11.8877 Y15.6230
G01 X11.8855 Y15.6458
G01 X11.8720 Y15.7371
G01 X11.8675 Y15.7596
G01 X11.8451 Y15.8491
G01 X11.8384 Y15.8710
G01 X11.8073 Y15.9579
G01 X11.7986 Y15.9791
G01 X11.7591 Y16.0624
G01 X11.7483 Y16.0827
G01 X11.7009 Y16.1618
G01 X11.6881 Y16.1809
G01 X11.6332 Y16.2550
G01 X11.6186 Y16.2727
G01 X11.5567 Y16.3411
G01 X11.5405 Y16.3573
G01 X11.4721 Y16.4192
G01 X11.4544 Y16.4338
G01 X11.3803 Y16.4887
G01 X11.3612 Y16.5015
G01 X11.2821 Y16.5489
G01 X11.2618 Y16.5597
G01 X11.1785 Y16.5992
G01 X11.1573 Y16.6079
G01 X11.0704 Y16.6390
G01 X11.0485 Y16.6457
G01 X10.9590 Y16.6681
G01 X10.9365 Y16.6726
G01 X10.8452 Y16.6861
G01 X10.8224 Y16.6883
G01 X10.7303 Y16.6929
G01 X10.7073 Y16.6929
G01 X10.6152 Y16.6883
G01 X10.5924 Y16.6861
G01 X10.5011 Y16.6726
G01 X10.4786 Y16.6681
G01 X10.3891 Y16.6457
G01 X10.3672 Y16.6390
G01 X10.2803 Y16.6079
G01 X10.2591 Y16.5992
G01 X10.1758 Y16.5597
G01 X10.1555 Y16.5489
G01 X10.0764 Y16.5015
G01 X10.0573 Y16.4887
G01 X9.9832 Y16.4338
G01 X9.9655 Y16.4192
G01 X9.8971 Y16.3573
G01 X9.8809 Y16.3411
G01 X9.8190 Y16.2727
G01 X9.8044 Y16.2550
G01 X9.7495 Y16.1809
G01 X9.7367 Y16.1618
G01 X9.6893 Y16.0827
G01 X9.6785 Y16.0624
G01 X9.6390 Y15.9791
G01 X9.6303 Y15.9579
G01 X9.5992 Y15.8710
G01 X9.5925 Y15.8491
G01 X9.5701 Y15.7596
G01 X9.5656 Y15.7371
G01 X9.5521 Y15.6458
G01 X9.5499 Y15.6230
G01 X9.5453 Y15.5309
G01 X9.5453 Y15.5079
G01 X9.5499 Y15.4158
G01 X9.5521 Y15.3930
G01 X9.5656 Y15.3017
G01 X9.5701 Y15.2792
G01 X9.5925 Y15.1897
G01 X9.5992 Y15.1678
G01 X9.6303 Y15.0809
G01 X9.6390 Y15.0597
G01 X9.6785 Y14.9764
G01 X9.6893 Y14.9561
G01 X9.7367 Y14.8770
G01 X9.7495 Y14.8579
G01 X9.8044 Y14.7838
G01 X9.8190 Y14.7661
G01 X9.8809 Y14.6977
G01 X9.8971 Y14.6815
G01 X9.9655 Y14.6196
G01 X9.9832 Y14.6050
G01 X10.0573 Y14.5501
G01 X10.0764 Y14.5373
G01 X10.1555 Y14.4899
G01 X10.1758 Y14.4791
G01 X10.2591 Y14.4396
G01 X10.2803 Y14.4309
G01 X10.3672 Y14.3998
G01 X10.3891 Y14.3931
G01 X10.4786 Y14.3707
G01 X10.5011 Y14.3662
G01 X10.5924 Y14.3527
G01 X10.6152 Y14.3505
G01 X10.7073 Y14.3459
G01 X10.7303 Y14.3459
G01 X10.8224 Y14.3505
G01 X10.8452 Y14.3527
G01 X10.9365 Y14.3662
G01 X10.9590 Y14.3707
G01 X11.0485 Y14.3931
G01 X11.0704 Y14.3998
G01 X11.1573 Y14.4309
G01 X11.1785 Y14.4396
G01 X11.2618 Y14.4791
G01 X11.2821 Y14.4899
G01 X11.3612 Y14.5373
G01 X11.3803 Y14.5501
G01 X11.4544 Y14.6050
G01 X11.4721 Y14.6196
G01 X11.5405 Y14.6815
G01 X11.5567 Y14.6977
G01 X11.6186 Y14.7661
G01 X11.6332 Y14.7838
G01 X11.6881 Y14.8579
G01 X11.7009 Y14.8770
G01 X11.7483 Y14.9561
G01 X11.7591 Y14.9764
G01 X11.7986 Y15.0597
G01 X11.8073 Y15.0809
G01 X11.8384 Y15.1678
G01 X11.8451 Y15.1897
G01 X11.8675 Y15.2792
G01 X11.8720 Y15.3017
G01 X11.8855 Y15.3930
G01 X11.8877 Y15.4158
G01 X11.8923 Y15.5079
G01 X11.8923 Y15.5309
G00 X11.8923 Y15.5309
G01 F60.00
G01 Z-0.0800
G01 F60.00
G01 X11.8877 Y15.6230
G01 X11.8855 Y15.6458
G01 X11.8720 Y15.7371
G01 X11.8675 Y15.7596
G01 X11.8451 Y15.8491
G01 X11.8384 Y15.8710
G01 X11.8073 Y15.9579
G01 X11.7986 Y15.9791
G01 X11.7591 Y16.0624
G01 X11.7483 Y16.0827
G01 X11.7009 Y16.1618
G01 X11.6881 Y16.1809
G01 X11.6332 Y16.2550
G01 X11.6186 Y16.2727
G01 X11.5567 Y16.3411
G01 X11.5405 Y16.3573
G01 X11.4721 Y16.4192
G01 X11.4544 Y16.4338
G01 X11.3803 Y16.4887
G01 X11.3612 Y16.5015
G01 X11.2821 Y16.5489
G01 X11.2618 Y16.5597
G01 X11.1785 Y16.5992
G01 X11.1573 Y16.6079
G01 X11.0704 Y16.6390
G01 X11.0485 Y16.6457
G01 X10.9590 Y16.6681
G01 X10.9365 Y16.6726
G01 X10.8452 Y16.6861
G01 X10.8224 Y16.6883
G01 X10.7303 Y16.6929
G01 X10.7073 Y16.6929
G01 X10.6152 Y16.6883
G01 X10.5924 Y16.6861
G01 X10.5011 Y16.6726
G01 X10.4786 Y16.6681
G01 X10.3891 Y16.6457
G01 X10.3672 Y16.6390
G01 X10.2803 Y16.6079
G01 X10.2591 Y16.5992
G01 X10.1758 Y16.5597
G01 X10.1555 Y16.5489
G01 X10.0764 Y16.5015
G01 X10.0573 Y16.4887
G01 X9.9832 Y16.4338
G01 X9.9655 Y16.4192
G01 X9.8971 Y16.3573
G01 X9.8809 Y16.3411
G01 X9.8190 Y16.2727
G01 X9.8044 Y16.2550
G01 X9.7495 Y16.1809
G01 X9.7367 Y16.1618
G01 X9.6893 Y16.0827
G01 X9.6785 Y16.0624
G01 X9.6390 Y15.9791
G01 X9.6303 Y15.9579
G01 X9.5992 Y15.8710
G01 X9.5925 Y15.8491
G01 X9.5701 Y15.7596
G01 X9.5656 Y15.7371
G01 X9.5521 Y15.6458
G01 X9.5499 Y15.6230
G01 X9.5453 Y15.5309
G01 X9.5453 Y15.5079
G01 X9.5499 Y15.4158
G01 X9.5521 Y15.3930
G01 X9.5656 Y15.3017
G01 X9.5701 Y15.2792
G01 X9.5925 Y15.1897
G01 X9.5992 Y15.1678
G01 X9.6303 Y15.0809
G01 X9.6390 Y15.0597
G01 X9.6785 Y14.9764
G01 X9.6893 Y14.9561
G01 X9.7367 Y14.8770
G01 X9.7495 Y14.8579
G01 X9.8044 Y14.7838
G01 X9.8190 Y14.7661
G01 X9.8809 Y14.6977
G01 X9.8971 Y14.6815
G01 X9.9655 Y14.6196
G01 X9.9832 Y14.6050
G01 X10.0573 Y14.5501
G01 X10.0764 Y14.5373
G01 X10.1555 Y14.4899
G01 X10.1758 Y14.4791
G01 X10.2591 Y14.4396
G01 X10.2803 Y14.4309
G01 X10.3672 Y14.3998
G01 X10.3891 Y14.3931
G01 X10.4786 Y14.3707
G01 X10.5011 Y14.3662
G01 X10.5924 Y14.3527
G01 X10.6152 Y14.3505
G01 X10.7073 Y14.3459
G01 X10.7303 Y14.3459
G01 X10.8224 Y14.3505
G01 X10.8452 Y14.3527
G01 X10.9365 Y14.3662
G01 X10.9590 Y14.3707
G01 X11.0485 Y14.3931
G01 X11.0704 Y14.3998
G01 X11.1573 Y14.4309
G01 X11.1785 Y14.4396
G01 X11.2618 Y14.4791
G01 X11.2821 Y14.4899
G01 X11.3612 Y14.5373
G01 X11.3803 Y14.5501
G01 X11.4544 Y14.6050
G01 X11.4721 Y14.6196
G01 X11.5405 Y14.6815
G01 X11.5567 Y14.6977
G01 X11.6186 Y14.7661
G01 X11.6332 Y14.7838
G01 X11.6881 Y14.8579
G01 X11.7009 Y14.8770
G01 X11.7483 Y14.9561
G01 X11.7591 Y14.9764
G01 X11.7986 Y15.0597
G01 X11.8073 Y15.0809
G01 X11.8384 Y15.1678
G01 X11.8451 Y15.1897
G01 X11.8675 Y15.2792
G01 X11.8720 Y15.3017
G01 X11.8855 Y15.3930
G01 X11.8877 Y15.4158
G01 X11.8923 Y15.5079
G01 X11.8923 Y15.5309
G00 X11.8923 Y15.5309
G01 F60.00
G01 Z-0.1200
G01 F60.00
G01 X11.8877 Y15.6230
G01 X11.8855 Y15.6458
G01 X11.8720 Y15.7371
G01 X11.8675 Y15.7596
G01 X11.8451 Y15.8491
G01 X11.8384 Y15.8710
G01 X11.8073 Y15.9579
G01 X11.7986 Y15.9791
G01 X11.7591 Y16.0624
G01 X11.7483 Y16.0827
G01 X11.7009 Y16.1618
G01 X11.6881 Y16.1809
G01 X11.6332 Y16.2550
G01 X11.6186 Y16.2727
G01 X11.5567 Y16.3411
G01 X11.5405 Y16.3573
G01 X11.4721 Y16.4192
G01 X11.4544 Y16.4338
G01 X11.3803 Y16.4887
G01 X11.3612 Y16.5015
G01 X11.2821 Y16.5489
G01 X11.2618 Y16.5597
G01 X11.1785 Y16.5992
G01 X11.1573 Y16.6079
G01 X11.0704 Y16.6390
G01 X11.0485 Y16.6457
G01 X10.9590 Y16.6681
G01 X10.9365 Y16.6726
G01 X10.8452 Y16.6861
G01 X10.8224 Y16.6883
G01 X10.7303 Y16.6929
G01 X10.7073 Y16.6929
G01 X10.6152 Y16.6883
G01 X10.5924 Y16.6861
G01 X10.5011 Y16.6726
G01 X10.4786 Y16.6681
G01 X10.3891 Y16.6457
G01 X10.3672 Y16.6390
G01 X10.2803 Y16.6079
G01 X10.2591 Y16.5992
G01 X10.1758 Y16.5597
G01 X10.1555 Y16.5489
G01 X10.0764 Y16.5015
G01 X10.0573 Y16.4887
G01 X9.9832 Y16.4338
G01 X9.9655 Y16.4192
G01 X9.8971 Y16.3573
G01 X9.8809 Y16.3411
G01 X9.8190 Y16.2727
G01 X9.8044 Y16.2550
G01 X9.7495 Y16.1809
G01 X9.7367 Y16.1618
G01 X9.6893 Y16.0827
G01 X9.6785 Y16.0624
G01 X9.6390 Y15.9791
G01 X9.6303 Y15.9579
G01 X9.5992 Y15.8710
G01 X9.5925 Y15.8491
G01 X9.5701 Y15.7596
G01 X9.5656 Y15.7371
G01 X9.5521 Y15.6458
G01 X9.5499 Y15.6230
G01 X9.5453 Y15.5309
G01 X9.5453 Y15.5079
G01 X9.5499 Y15.4158
G01 X9.5521 Y15.3930
G01 X9.5656 Y15.3017
G01 X9.5701 Y15.2792
G01 X9.5925 Y15.1897
G01 X9.5992 Y15.1678
G01 X9.6303 Y15.0809
G01 X9.6390 Y15.0597
G01 X9.6785 Y14.9764
G01 X9.6893 Y14.9561
G01 X9.7367 Y14.8770
G01 X9.7495 Y14.8579
G01 X9.8044 Y14.7838
G01 X9.8190 Y14.7661
G01 X9.8809 Y14.6977
G01 X9.8971 Y14.6815
G01 X9.9655 Y14.6196
G01 X9.9832 Y14.6050
G01 X10.0573 Y14.5501
G01 X10.0764 Y14.5373
G01 X10.1555 Y14.4899
G01 X10.1758 Y14.4791
G01 X10.2591 Y14.4396
G01 X10.2803 Y14.4309
G01 X10.3672 Y14.3998
G01 X10.3891 Y14.3931
G01 X10.4786 Y14.3707
G01 X10.5011 Y14.3662
G01 X10.5924 Y14.3527
G01 X10.6152 Y14.3505
G01 X10.7073 Y14.3459
G01 X10.7303 Y14.3459
G01 X10.8224 Y14.3505
G01 X10.8452 Y14.3527
G01 X10.9365 Y14.3662
G01 X10.9590 Y14.3707
G01 X11.0485 Y14.3931
G01 X11.0704 Y14.3998
G01 X11.1573 Y14.4309
G01 X11.1785 Y14.4396
G01 X11.2618 Y14.4791
G01 X11.2821 Y14.4899
G01 X11.3612 Y14.5373
G01 X11.3803 Y14.5501
G01 X11.4544 Y14.6050
G01 X11.4721 Y14.6196
G01 X11.5405 Y14.6815
G01 X11.5567 Y14.6977
G01 X11.6186 Y14.7661
G01 X11.6332 Y14.7838
G01 X11.6881 Y14.8579
G01 X11.7009 Y14.8770
G01 X11.7483 Y14.9561
G01 X11.7591 Y14.9764
G01 X11.7986 Y15.0597
G01 X11.8073 Y15.0809
G01 X11.8384 Y15.1678
G01 X11.8451 Y15.1897
G01 X11.8675 Y15.2792
G01 X11.8720 Y15.3017
G01 X11.8855 Y15.3930
G01 X11.8877 Y15.4158
G01 X11.8923 Y15.5079
G01 X11.8923 Y15.5309
G00 X11.8923 Y15.5309
G01 F60.00
G01 Z-0.1600
G01 F60.00
G01 X11.8877 Y15.6230
G01 X11.8855 Y15.6458
G01 X11.8720 Y15.7371
G01 X11.8675 Y15.7596
G01 X11.8451 Y15.8491
G01 X11.8384 Y15.8710
G01 X11.8073 Y15.9579
G01 X11.7986 Y15.9791
G01 X11.7591 Y16.0624
G01 X11.7483 Y16.0827
G01 X11.7009 Y16.1618
G01 X11.6881 Y16.1809
G01 X11.6332 Y16.2550
G01 X11.6186 Y16.2727
G01 X11.5567 Y16.3411
G01 X11.5405 Y16.3573
G01 X11.4721 Y16.4192
G01 X11.4544 Y16.4338
G01 X11.3803 Y16.4887
G01 X11.3612 Y16.5015
G01 X11.2821 Y16.5489
G01 X11.2618 Y16.5597
G01 X11.1785 Y16.5992
G01 X11.1573 Y16.6079
G01 X11.0704 Y16.6390
G01 X11.0485 Y16.6457
G01 X10.9590 Y16.6681
G01 X10.9365 Y16.6726
G01 X10.8452 Y16.6861
G01 X10.8224 Y16.6883
G01 X10.7303 Y16.6929
G01 X10.7073 Y16.6929
G01 X10.6152 Y16.6883
G01 X10.5924 Y16.6861
G01 X10.5011 Y16.6726
G01 X10.4786 Y16.6681
G01 X10.3891 Y16.6457
G01 X10.3672 Y16.6390
G01 X10.2803 Y16.6079
G01 X10.2591 Y16.5992
G01 X10.1758 Y16.5597
G01 X10.1555 Y16.5489
G01 X10.0764 Y16.5015
G01 X10.0573 Y16.4887
G01 X9.9832 Y16.4338
G01 X9.9655 Y16.4192
G01 X9.8971 Y16.3573
G01 X9.8809 Y16.3411
G01 X9.8190 Y16.2727
G01 X9.8044 Y16.2550
G01 X9.7495 Y16.1809
G01 X9.7367 Y16.1618
G01 X9.6893 Y16.0827
G01 X9.6785 Y16.0624
G01 X9.6390 Y15.9791
G01 X9.6303 Y15.9579
G01 X9.5992 Y15.8710
G01 X9.5925 Y15.8491
G01 X9.5701 Y15.7596
G01 X9.5656 Y15.7371
G01 X9.5521 Y15.6458
G01 X9.5499 Y15.6230
G01 X9.5453 Y15.5309
G01 X9.5453 Y15.5079
G01 X9.5499 Y15.4158
G01 X9.5521 Y15.3930
G01 X9.5656 Y15.3017
G01 X9.5701 Y15.2792
G01 X9.5925 Y15.1897
G01 X9.5992 Y15.1678
G01 X9.6303 Y15.0809
G01 X9.6390 Y15.0597
G01 X9.6785 Y14.9764
G01 X9.6893 Y14.9561
G01 X9.7367 Y14.8770
G01 X9.7495 Y14.8579
G01 X9.8044 Y14.7838
G01 X9.8190 Y14.7661
G01 X9.8809 Y14.6977
G01 X9.8971 Y14.6815
G01 X9.9655 Y14.6196
G01 X9.9832 Y14.6050
G01 X10.0573 Y14.5501
G01 X10.0764 Y14.5373
G01 X10.1555 Y14.4899
G01 X10.1758 Y14.4791
G01 X10.2591 Y14.4396
G01 X10.2803 Y14.4309
G01 X10.3672 Y14.3998
G01 X10.3891 Y14.3931
G01 X10.4786 Y14.3707
G01 X10.5011 Y14.3662
G01 X10.5924 Y14.3527
G01 X10.6152 Y14.3505
G01 X10.7073 Y14.3459
G01 X10.7303 Y14.3459
G01 X10.8224 Y14.3505
G01 X10.8452 Y14.3527
G01 X10.9365 Y14.3662
G01 X10.9590 Y14.3707
G01 X11.0485 Y14.3931
G01 X11.0704 Y14.3998
G01 X11.1573 Y14.4309
G01 X11.1785 Y14.4396
G01 X11.2618 Y14.4791
G01 X11.2821 Y14.4899
G01 X11.3612 Y14.5373
G01 X11.3803 Y14.5501
G01 X11.4544 Y14.6050
G01 X11.4721 Y14.6196
G01 X11.5405 Y14.6815
G01 X11.5567 Y14.6977
G01 X11.6186 Y14.7661
G01 X11.6332 Y14.7838
G01 X11.6881 Y14.8579
G01 X11.7009 Y14.8770
G01 X11.7483 Y14.9561
G01 X11.7591 Y14.9764
G01 X11.7986 Y15.0597
G01 X11.8073 Y15.0809
G01 X11.8384 Y15.1678
G01 X11.8451 Y15.1897
G01 X11.8675 Y15.2792
G01 X11.8720 Y15.3017
G01 X11.8855 Y15.3930
G01 X11.8877 Y15.4158
G01 X11.8923 Y15.5079
G01 X11.8923 Y15.5309
G00 X11.8923 Y15.5309
G01 F60.00
G01 Z-0.2000
G01 F60.00
G01 X11.8877 Y15.6230
G01 X11.8855 Y15.6458
G01 X11.8720 Y15.7371
G01 X11.8675 Y15.7596
G01 X11.8451 Y15.8491
G01 X11.8384 Y15.8710
G01 X11.8073 Y15.9579
G01 X11.7986 Y15.9791
G01 X11.7591 Y16.0624
G01 X11.7483 Y16.0827
G01 X11.7009 Y16.1618
G01 X11.6881 Y16.1809
G01 X11.6332 Y16.2550
G01 X11.6186 Y16.2727
G01 X11.5567 Y16.3411
G01 X11.5405 Y16.3573
G01 X11.4721 Y16.4192
G01 X11.4544 Y16.4338
G01 X11.3803 Y16.4887
G01 X11.3612 Y16.5015
G01 X11.2821 Y16.5489
G01 X11.2618 Y16.5597
G01 X11.1785 Y16.5992
G01 X11.1573 Y16.6079
G01 X11.0704 Y16.6390
G01 X11.0485 Y16.6457
G01 X10.9590 Y16.6681
G01 X10.9365 Y16.6726
G01 X10.8452 Y16.6861
G01 X10.8224 Y16.6883
G01 X10.7303 Y16.6929
G01 X10.7073 Y16.6929
G01 X10.6152 Y16.6883
G01 X10.5924 Y16.6861
G01 X10.5011 Y16.6726
G01 X10.4786 Y16.6681
G01 X10.3891 Y16.6457
G01 X10.3672 Y16.6390
G01 X10.2803 Y16.6079
G01 X10.2591 Y16.5992
G01 X10.1758 Y16.5597
G01 X10.1555 Y16.5489
G01 X10.0764 Y16.5015
G01 X10.0573 Y16.4887
G01 X9.9832 Y16.4338
G01 X9.9655 Y16.4192
G01 X9.8971 Y16.3573
G01 X9.8809 Y16.3411
G01 X9.8190 Y16.2727
G01 X9.8044 Y16.2550
G01 X9.7495 Y16.1809
G01 X9.7367 Y16.1618
G01 X9.6893 Y16.0827
G01 X9.6785 Y16.0624
G01 X9.6390 Y15.9791
G01 X9.6303 Y15.9579
G01 X9.5992 Y15.8710
G01 X9.5925 Y15.8491
G01 X9.5701 Y15.7596
G01 X9.5656 Y15.7371
G01 X9.5521 Y15.6458
G01 X9.5499 Y15.6230
G01 X9.5453 Y15.5309
G01 X9.5453 Y15.5079
G01 X9.5499 Y15.4158
G01 X9.5521 Y15.3930
G01 X9.5656 Y15.3017
G01 X9.5701 Y15.2792
G01 X9.5925 Y15.1897
G01 X9.5992 Y15.1678
G01 X9.6303 Y15.0809
G01 X9.6390 Y15.0597
G01 X9.6785 Y14.9764
G01 X9.6893 Y14.9561
G01 X9.7367 Y14.8770
G01 X9.7495 Y14.8579
G01 X9.8044 Y14.7838
G01 X9.8190 Y14.7661
G01 X9.8809 Y14.6977
G01 X9.8971 Y14.6815
G01 X9.9655 Y14.6196
G01 X9.9832 Y14.6050
G01 X10.0573 Y14.5501
G01 X10.0764 Y14.5373
G01 X10.1555 Y14.4899
G01 X10.1758 Y14.4791
G01 X10.2591 Y14.4396
G01 X10.2803 Y14.4309
G01 X10.3672 Y14.3998
G01 X10.3891 Y14.3931
G01 X10.4786 Y14.3707
G01 X10.5011 Y14.3662
G01 X10.5924 Y14.3527
G01 X10.6152 Y14.3505
G01 X10.7073 Y14.3459
G01 X10.7303 Y14.3459
G01 X10.8224 Y14.3505
G01 X10.8452 Y14.3527
G01 X10.9365 Y14.3662
G01 X10.9590 Y14.3707
G01 X11.0485 Y14.3931
G01 X11.0704 Y14.3998
G01 X11.1573 Y14.4309
G01 X11.1785 Y14.4396
G01 X11.2618 Y14.4791
G01 X11.2821 Y14.4899
G01 X11.3612 Y14.5373
G01 X11.3803 Y14.5501
G01 X11.4544 Y14.6050
G01 X11.4721 Y14.6196
G01 X11.5405 Y14.6815
G01 X11.5567 Y14.6977
G01 X11.6186 Y14.7661
G01 X11.6332 Y14.7838
G01 X11.6881 Y14.8579
G01 X11.7009 Y14.8770
G01 X11.7483 Y14.9561
G01 X11.7591 Y14.9764
G01 X11.7986 Y15.0597
G01 X11.8073 Y15.0809
G01 X11.8384 Y15.1678
G01 X11.8451 Y15.1897
G01 X11.8675 Y15.2792
G01 X11.8720 Y15.3017
G01 X11.8855 Y15.3930
G01 X11.8877 Y15.4158
G01 X11.8923 Y15.5079
G01 X11.8923 Y15.5309
G00 X11.8923 Y15.5309
G01 F60.00
G01 Z-0.2400
G01 F60.00
G01 X11.8877 Y15.6230
G01 X11.8855 Y15.6458
G01 X11.8720 Y15.7371
G01 X11.8675 Y15.7596
G01 X11.8451 Y15.8491
G01 X11.8384 Y15.8710
G01 X11.8073 Y15.9579
G01 X11.7986 Y15.9791
G01 X11.7591 Y16.0624
G01 X11.7483 Y16.0827
G01 X11.7009 Y16.1618
G01 X11.6881 Y16.1809
G01 X11.6332 Y16.2550
G01 X11.6186 Y16.2727
G01 X11.5567 Y16.3411
G01 X11.5405 Y16.3573
G01 X11.4721 Y16.4192
G01 X11.4544 Y16.4338
G01 X11.3803 Y16.4887
G01 X11.3612 Y16.5015
G01 X11.2821 Y16.5489
G01 X11.2618 Y16.5597
G01 X11.1785 Y16.5992
G01 X11.1573 Y16.6079
G01 X11.0704 Y16.6390
G01 X11.0485 Y16.6457
G01 X10.9590 Y16.6681
G01 X10.9365 Y16.6726
G01 X10.8452 Y16.6861
G01 X10.8224 Y16.6883
G01 X10.7303 Y16.6929
G01 X10.7073 Y16.6929
G01 X10.6152 Y16.6883
G01 X10.5924 Y16.6861
G01 X10.5011 Y16.6726
G01 X10.4786 Y16.6681
G01 X10.3891 Y16.6457
G01 X10.3672 Y16.6390
G01 X10.2803 Y16.6079
G01 X10.2591 Y16.5992
G01 X10.1758 Y16.5597
G01 X10.1555 Y16.5489
G01 X10.0764 Y16.5015
G01 X10.0573 Y16.4887
G01 X9.9832 Y16.4338
G01 X9.9655 Y16.4192
G01 X9.8971 Y16.3573
G01 X9.8809 Y16.3411
G01 X9.8190 Y16.2727
G01 X9.8044 Y16.2550
G01 X9.7495 Y16.1809
G01 X9.7367 Y16.1618
G01 X9.6893 Y16.0827
G01 X9.6785 Y16.0624
G01 X9.6390 Y15.9791
G01 X9.6303 Y15.9579
G01 X9.5992 Y15.8710
G01 X9.5925 Y15.8491
G01 X9.5701 Y15.7596
G01 X9.5656 Y15.7371
G01 X9.5521 Y15.6458
G01 X9.5499 Y15.6230
G01 X9.5453 Y15.5309
G01 X9.5453 Y15.5079
G01 X9.5499 Y15.4158
G01 X9.5521 Y15.3930
G01 X9.5656 Y15.3017
G01 X9.5701 Y15.2792
G01 X9.5925 Y15.1897
G01 X9.5992 Y15.1678
G01 X9.6303 Y15.0809
G01 X9.6390 Y15.0597
G01 X9.6785 Y14.9764
G01 X9.6893 Y14.9561
G01 X9.7367 Y14.8770
G01 X9.7495 Y14.8579
G01 X9.8044 Y14.7838
G01 X9.8190 Y14.7661
G01 X9.8809 Y14.6977
G01 X9.8971 Y14.6815
G01 X9.9655 Y14.6196
G01 X9.9832 Y14.6050
G01 X10.0573 Y14.5501
G01 X10.0764 Y14.5373
G01 X10.1555 Y14.4899
G01 X10.1758 Y14.4791
G01 X10.2591 Y14.4396
G01 X10.2803 Y14.4309
G01 X10.3672 Y14.3998
G01 X10.3891 Y14.3931
G01 X10.4786 Y14.3707
G01 X10.5011 Y14.3662
G01 X10.5924 Y14.3527
G01 X10.6152 Y14.3505
G01 X10.7073 Y14.3459
G01 X10.7303 Y14.3459
G01 X10.8224 Y14.3505
G01 X10.8452 Y14.3527
G01 X10.9365 Y14.3662
G01 X10.9590 Y14.3707
G01 X11.0485 Y14.3931
G01 X11.0704 Y14.3998
G01 X11.1573 Y14.4309
G01 X11.1785 Y14.4396
G01 X11.2618 Y14.4791
G01 X11.2821 Y14.4899
G01 X11.3612 Y14.5373
G01 X11.3803 Y14.5501
G01 X11.4544 Y14.6050
G01 X11.4721 Y14.6196
G01 X11.5405 Y14.6815
G01 X11.5567 Y14.6977
G01 X11.6186 Y14.7661
G01 X11.6332 Y14.7838
G01 X11.6881 Y14.8579
G01 X11.7009 Y14.8770
G01 X11.7483 Y14.9561
G01 X11.7591 Y14.9764
G01 X11.7986 Y15.0597
G01 X11.8073 Y15.0809
G01 X11.8384 Y15.1678
G01 X11.8451 Y15.1897
G01 X11.8675 Y15.2792
G01 X11.8720 Y15.3017
G01 X11.8855 Y15.3930
G01 X11.8877 Y15.4158
G01 X11.8923 Y15.5079
G01 X11.8923 Y15.5309
G00 X11.8923 Y15.5309
G01 F60.00
G01 Z-0.2800
G01 F60.00
G01 X11.8877 Y15.6230
G01 X11.8855 Y15.6458
G01 X11.8720 Y15.7371
G01 X11.8675 Y15.7596
G01 X11.8451 Y15.8491
G01 X11.8384 Y15.8710
G01 X11.8073 Y15.9579
G01 X11.7986 Y15.9791
G01 X11.7591 Y16.0624
G01 X11.7483 Y16.0827
G01 X11.7009 Y16.1618
G01 X11.6881 Y16.1809
G01 X11.6332 Y16.2550
G01 X11.6186 Y16.2727
G01 X11.5567 Y16.3411
G01 X11.5405 Y16.3573
G01 X11.4721 Y16.4192
G01 X11.4544 Y16.4338
G01 X11.3803 Y16.4887
G01 X11.3612 Y16.5015
G01 X11.2821 Y16.5489
G01 X11.2618 Y16.5597
G01 X11.1785 Y16.5992
G01 X11.1573 Y16.6079
G01 X11.0704 Y16.6390
G01 X11.0485 Y16.6457
G01 X10.9590 Y16.6681
G01 X10.9365 Y16.6726
G01 X10.8452 Y16.6861
G01 X10.8224 Y16.6883
G01 X10.7303 Y16.6929
G01 X10.7073 Y16.6929
G01 X10.6152 Y16.6883
G01 X10.5924 Y16.6861
G01 X10.5011 Y16.6726
G01 X10.4786 Y16.6681
G01 X10.3891 Y16.6457
G01 X10.3672 Y16.6390
G01 X10.2803 Y16.6079
G01 X10.2591 Y16.5992
G01 X10.1758 Y16.5597
G01 X10.1555 Y16.5489
G01 X10.0764 Y16.5015
G01 X10.0573 Y16.4887
G01 X9.9832 Y16.4338
G01 X9.9655 Y16.4192
G01 X9.8971 Y16.3573
G01 X9.8809 Y16.3411
G01 X9.8190 Y16.2727
G01 X9.8044 Y16.2550
G01 X9.7495 Y16.1809
G01 X9.7367 Y16.1618
G01 X9.6893 Y16.0827
G01 X9.6785 Y16.0624
G01 X9.6390 Y15.9791
G01 X9.6303 Y15.9579
G01 X9.5992 Y15.8710
G01 X9.5925 Y15.8491
G01 X9.5701 Y15.7596
G01 X9.5656 Y15.7371
G01 X9.5521 Y15.6458
G01 X9.5499 Y15.6230
G01 X9.5453 Y15.5309
G01 X9.5453 Y15.5079
G01 X9.5499 Y15.4158
G01 X9.5521 Y15.3930
G01 X9.5656 Y15.3017
G01 X9.5701 Y15.2792
G01 X9.5925 Y15.1897
G01 X9.5992 Y15.1678
G01 X9.6303 Y15.0809
G01 X9.6390 Y15.0597
G01 X9.6785 Y14.9764
G01 X9.6893 Y14.9561
G01 X9.7367 Y14.8770
G01 X9.7495 Y14.8579
G01 X9.8044 Y14.7838
G01 X9.8190 Y14.7661
G01 X9.8809 Y14.6977
G01 X9.8971 Y14.6815
G01 X9.9655 Y14.6196
G01 X9.9832 Y14.6050
G01 X10.0573 Y14.5501
G01 X10.0764 Y14.5373
G01 X10.1555 Y14.4899
G01 X10.1758 Y14.4791
G01 X10.2591 Y14.4396
G01 X10.2803 Y14.4309
G01 X10.3672 Y14.3998
G01 X10.3891 Y14.3931
G01 X10.4786 Y14.3707
G01 X10.5011 Y14.3662
G01 X10.5924 Y14.3527
G01 X10.6152 Y14.3505
G01 X10.7073 Y14.3459
G01 X10.7303 Y14.3459
G01 X10.8224 Y14.3505
G01 X10.8452 Y14.3527
G01 X10.9365 Y14.3662
G01 X10.9590 Y14.3707
G01 X11.0485 Y14.3931
G01 X11.0704 Y14.3998
G01 X11.1573 Y14.4309
G01 X11.1785 Y14.4396
G01 X11.2618 Y14.4791
G01 X11.2821 Y14.4899
G01 X11.3612 Y14.5373
G01 X11.3803 Y14.5501
G01 X11.4544 Y14.6050
G01 X11.4721 Y14.6196
G01 X11.5405 Y14.6815
G01 X11.5567 Y14.6977
G01 X11.6186 Y14.7661
G01 X11.6332 Y14.7838
G01 X11.6881 Y14.8579
G01 X11.7009 Y14.8770
G01 X11.7483 Y14.9561
G01 X11.7591 Y14.9764
G01 X11.7986 Y15.0597
G01 X11.8073 Y15.0809
G01 X11.8384 Y15.1678
G01 X11.8451 Y15.1897
G01 X11.8675 Y15.2792
G01 X11.8720 Y15.3017
G01 X11.8855 Y15.3930
G01 X11.8877 Y15.4158
G01 X11.8923 Y15.5079
G01 X11.8923 Y15.5309
G00 X11.8923 Y15.5309
G01 F60.00
G01 Z-0.3000
G01 F60.00
G01 X11.8877 Y15.6230
G01 X11.8855 Y15.6458
G01 X11.8720 Y15.7371
G01 X11.8675 Y15.7596
G01 X11.8451 Y15.8491
G01 X11.8384 Y15.8710
G01 X11.8073 Y15.9579
G01 X11.7986 Y15.9791
G01 X11.7591 Y16.0624
G01 X11.7483 Y16.0827
G01 X11.7009 Y16.1618
G01 X11.6881 Y16.1809
G01 X11.6332 Y16.2550
G01 X11.6186 Y16.2727
G01 X11.5567 Y16.3411
G01 X11.5405 Y16.3573
G01 X11.4721 Y16.4192
G01 X11.4544 Y16.4338
G01 X11.3803 Y16.4887
G01 X11.3612 Y16.5015
G01 X11.2821 Y16.5489
G01 X11.2618 Y16.5597
G01 X11.1785 Y16.5992
G01 X11.1573 Y16.6079
G01 X11.0704 Y16.6390
G01 X11.0485 Y16.6457
G01 X10.9590 Y16.6681
G01 X10.9365 Y16.6726
G01 X10.8452 Y16.6861
G01 X10.8224 Y16.6883
G01 X10.7303 Y16.6929
G01 X10.7073 Y16.6929
G01 X10.6152 Y16.6883
G01 X10.5924 Y16.6861
G01 X10.5011 Y16.6726
G01 X10.4786 Y16.6681
G01 X10.3891 Y16.6457
G01 X10.3672 Y16.6390
G01 X10.2803 Y16.6079
G01 X10.2591 Y16.5992
G01 X10.1758 Y16.5597
G01 X10.1555 Y16.5489
G01 X10.0764 Y16.5015
G01 X10.0573 Y16.4887
G01 X9.9832 Y16.4338
G01 X9.9655 Y16.4192
G01 X9.8971 Y16.3573
G01 X9.8809 Y16.3411
G01 X9.8190 Y16.2727
G01 X9.8044 Y16.2550
G01 X9.7495 Y16.1809
G01 X9.7367 Y16.1618
G01 X9.6893 Y16.0827
G01 X9.6785 Y16.0624
G01 X9.6390 Y15.9791
G01 X9.6303 Y15.9579
G01 X9.5992 Y15.8710
G01 X9.5925 Y15.8491
G01 X9.5701 Y15.7596
G01 X9.5656 Y15.7371
G01 X9.5521 Y15.6458
G01 X9.5499 Y15.6230
G01 X9.5453 Y15.5309
G01 X9.5453 Y15.5079
G01 X9.5499 Y15.4158
G01 X9.5521 Y15.3930
G01 X9.5656 Y15.3017
G01 X9.5701 Y15.2792
G01 X9.5925 Y15.1897
G01 X9.5992 Y15.1678
G01 X9.6303 Y15.0809
G01 X9.6390 Y15.0597
G01 X9.6785 Y14.9764
G01 X9.6893 Y14.9561
G01 X9.7367 Y14.8770
G01 X9.7495 Y14.8579
G01 X9.8044 Y14.7838
G01 X9.8190 Y14.7661
G01 X9.8809 Y14.6977
G01 X9.8971 Y14.6815
G01 X9.9655 Y14.6196
G01 X9.9832 Y14.6050
G01 X10.0573 Y14.5501
G01 X10.0764 Y14.5373
G01 X10.1555 Y14.4899
G01 X10.1758 Y14.4791
G01 X10.2591 Y14.4396
G01 X10.2803 Y14.4309
G01 X10.3672 Y14.3998
G01 X10.3891 Y14.3931
G01 X10.4786 Y14.3707
G01 X10.5011 Y14.3662
G01 X10.5924 Y14.3527
G01 X10.6152 Y14.3505
G01 X10.7073 Y14.3459
G01 X10.7303 Y14.3459
G01 X10.8224 Y14.3505
G01 X10.8452 Y14.3527
G01 X10.9365 Y14.3662
G01 X10.9590 Y14.3707
G01 X11.0485 Y14.3931
G01 X11.0704 Y14.3998
G01 X11.1573 Y14.4309
G01 X11.1785 Y14.4396
G01 X11.2618 Y14.4791
G01 X11.2821 Y14.4899
G01 X11.3612 Y14.5373
G01 X11.3803 Y14.5501
G01 X11.4544 Y14.6050
G01 X11.4721 Y14.6196
G01 X11.5405 Y14.6815
G01 X11.5567 Y14.6977
G01 X11.6186 Y14.7661
G01 X11.6332 Y14.7838
G01 X11.6881 Y14.8579
G01 X11.7009 Y14.8770
G01 X11.7483 Y14.9561
G01 X11.7591 Y14.9764
G01 X11.7986 Y15.0597
G01 X11.8073 Y15.0809
G01 X11.8384 Y15.1678
G01 X11.8451 Y15.1897
G01 X11.8675 Y15.2792
G01 X11.8720 Y15.3017
G01 X11.8855 Y15.3930
G01 X11.8877 Y15.4158
G01 X11.8923 Y15.5079
G01 X11.8923 Y15.5309
G00 Z0.3608
G00 X11.8923 Y20.0521
G01 F60.00
G01 Z-0.0400
G01 F60.00
G01 X11.8877 Y20.1442
G01 X11.8855 Y20.1670
G01 X11.8720 Y20.2583
G01 X11.8675 Y20.2808
G01 X11.8451 Y20.3703
G01 X11.8384 Y20.3922
G01 X11.8073 Y20.4791
G01 X11.7986 Y20.5003
G01 X11.7591 Y20.5836
G01 X11.7483 Y20.6039
G01 X11.7009 Y20.6830
G01 X11.6881 Y20.7021
G01 X11.6332 Y20.7762
G01 X11.6186 Y20.7939
G01 X11.5567 Y20.8623
G01 X11.5405 Y20.8785
G01 X11.4721 Y20.9404
G01 X11.4544 Y20.9550
G01 X11.3803 Y21.0099
G01 X11.3612 Y21.0227
G01 X11.2821 Y21.0701
G01 X11.2618 Y21.0809
G01 X11.1785 Y21.1204
G01 X11.1573 Y21.1291
G01 X11.0704 Y21.1602
G01 X11.0485 Y21.1669
G01 X10.9590 Y21.1893
G01 X10.9365 Y21.1938
G01 X10.8452 Y21.2073
G01 X10.8224 Y21.2095
G01 X10.7303 Y21.2141
G01 X10.7073 Y21.2141
G01 X10.6152 Y21.2095
G01 X10.5924 Y21.2073
G01 X10.5011 Y21.1938
G01 X10.4786 Y21.1893
G01 X10.3891 Y21.1669
G01 X10.3672 Y21.1602
G01 X10.2803 Y21.1291
G01 X10.2591 Y21.1204
G01 X10.1758 Y21.0809
G01 X10.1555 Y21.0701
G01 X10.0764 Y21.0227
G01 X10.0573 Y21.0099
G01 X9.9832 Y20.9550
G01 X9.9655 Y20.9404
G01 X9.8971 Y20.8785
G01 X9.8809 Y20.8623
G01 X9.8190 Y20.7939
G01 X9.8044 Y20.7762
G01 X9.7495 Y20.7021
G01 X9.7367 Y20.6830
G01 X9.6893 Y20.6039
G01 X9.6785 Y20.5836
G01 X9.6390 Y20.5003
G01 X9.6303 Y20.4791
G01 X9.5992 Y20.3922
G01 X9.5925 Y20.3703
G01 X9.5701 Y20.2808
G01 X9.5656 Y20.2583
G01 X9.5521 Y20.1670
G01 X9.5499 Y20.1442
G01 X9.5453 Y20.0521
G01 X9.5453 Y20.0291
G01 X9.5499 Y19.9370
G01 X9.5521 Y19.9142
G01 X9.5656 Y19.8229
G01 X9.5701 Y19.8004
G01 X9.5925 Y19.7109
G01 X9.5992 Y19.6890
G01 X9.6303 Y19.6021
G01 X9.6390 Y19.5809
G01 X9.6785 Y19.4976
G01 X9.6893 Y19.4773
G01 X9.7367 Y19.3982
G01 X9.7495 Y19.3791
G01 X9.8044 Y19.3050
G01 X9.8190 Y19.2873
G01 X9.8809 Y19.2189
G01 X9.8971 Y19.2027
G01 X9.9655 Y19.1408
G01 X9.9832 Y19.1262
G01 X10.0573 Y19.0713
G01 X10.0764 Y19.0585
G01 X10.1555 Y19.0111
G01 X10.1758 Y19.0003
G01 X10.2591 Y18.9608
G01 X10.2803 Y18.9521
G01 X10.3672 Y18.9210
G01 X10.3891 Y18.9143
G01 X10.4786 Y18.8919
G01 X10.5011 Y18.8874
G01 X10.5924 Y18.8739
G01 X10.6152 Y18.8717
G01 X10.7073 Y18.8671
G01 X10.7303 Y18.8671
G01 X10.8224 Y18.8717
G01 X10.8452 Y18.8739
G01 X10.9365 Y18.8874
G01 X10.9590 Y18.8919
G01 X11.0485 Y18.9143
G01 X11.0704 Y18.9210
G01 X11.1573 Y18.9521
G01 X11.1785 Y18.9608
G01 X11.2618 Y19.0003
G01 X11.2821 Y19.0111
G01 X11.3612 Y19.0585
G01 X11.3803 Y19.0713
G01 X11.4544 Y19.1262
G01 X11.4721 Y19.1408
G01 X11.5405 Y19.2027
G01 X11.5567 Y19.2189
G01 X11.6186 Y19.2873
G01 X11.6332 Y19.3050
G01 X11.6881 Y19.3791
G01 X11.7009 Y19.3982
G01 X11.7483 Y19.4773
G01 X11.7591 Y19.4976
G01 X11.7986 Y19.5809
G01 X11.8073 Y19.6021
G01 X11.8384 Y19.6890
G01 X11.8451 Y19.7109
G01 X11.8675 Y19.8004
G01 X11.8720 Y19.8229
G01 X11.8855 Y19.9142
G01 X11.8877 Y19.9370
G01 X11.8923 Y20.0291
G01 X11.8923 Y20.0521
G00 X11.8923 Y20.0521
G01 F60.00
G01 Z-0.0800
G01 F60.00
G01 X11.8877 Y20.1442
G01 X11.8855 Y20.1670
G01 X11.8720 Y20.2583
G01 X11.8675 Y20.2808
G01 X11.8451 Y20.3703
G01 X11.8384 Y20.3922
G01 X11.8073 Y20.4791
G01 X11.7986 Y20.5003
G01 X11.7591 Y20.5836
G01 X11.7483 Y20.6039
G01 X11.7009 Y20.6830
G01 X11.6881 Y20.7021
G01 X11.6332 Y20.7762
G01 X11.6186 Y20.7939
G01 X11.5567 Y20.8623
G01 X11.5405 Y20.8785
G01 X11.4721 Y20.9404
G01 X11.4544 Y20.9550
G01 X11.3803 Y21.0099
G01 X11.3612 Y21.0227
G01 X11.2821 Y21.0701
G01 X11.2618 Y21.0809
G01 X11.1785 Y21.1204
G01 X11.1573 Y21.1291
G01 X11.0704 Y21.1602
G01 X11.0485 Y21.1669
G01 X10.9590 Y21.1893
G01 X10.9365 Y21.1938
G01 X10.8452 Y21.2073
G01 X10.8224 Y21.2095
G01 X10.7303 Y21.2141
G01 X10.7073 Y21.2141
G01 X10.6152 Y21.2095
G01 X10.5924 Y21.2073
G01 X10.5011 Y21.1938
G01 X10.4786 Y21.1893
G01 X10.3891 Y21.1669
G01 X10.3672 Y21.1602
G01 X10.2803 Y21.1291
G01 X10.2591 Y21.1204
G01 X10.1758 Y21.0809
G01 X10.1555 Y21.0701
G01 X10.0764 Y21.0227
G01 X10.0573 Y21.0099
G01 X9.9832 Y20.9550
G01 X9.9655 Y20.9404
G01 X9.8971 Y20.8785
G01 X9.8809 Y20.8623
G01 X9.8190 Y20.7939
G01 X9.8044 Y20.7762
G01 X9.7495 Y20.7021
G01 X9.7367 Y20.6830
G01 X9.6893 Y20.6039
G01 X9.6785 Y20.5836
G01 X9.6390 Y20.5003
G01 X9.6303 Y20.4791
G01 X9.5992 Y20.3922
G01 X9.5925 Y20.3703
G01 X9.5701 Y20.2808
G01 X9.5656 Y20.2583
G01 X9.5521 Y20.1670
G01 X9.5499 Y20.1442
G01 X9.5453 Y20.0521
G01 X9.5453 Y20.0291
G01 X9.5499 Y19.9370
G01 X9.5521 Y19.9142
G01 X9.5656 Y19.8229
G01 X9.5701 Y19.8004
G01 X9.5925 Y19.7109
G01 X9.5992 Y19.6890
G01 X9.6303 Y19.6021
G01 X9.6390 Y19.5809
G01 X9.6785 Y19.4976
G01 X9.6893 Y19.4773
G01 X9.7367 Y19.3982
G01 X9.7495 Y19.3791
G01 X9.8044 Y19.3050
G01 X9.8190 Y19.2873
G01 X9.8809 Y19.2189
G01 X9.8971 Y19.2027
G01 X9.9655 Y19.1408
G01 X9.9832 Y19.1262
G01 X10.0573 Y19.0713
G01 X10.0764 Y19.0585
G01 X10.1555 Y19.0111
G01 X10.1758 Y19.0003
G01 X10.2591 Y18.9608
G01 X10.2803 Y18.9521
G01 X10.3672 Y18.9210
G01 X10.3891 Y18.9143
G01 X10.4786 Y18.8919
G01 X10.5011 Y18.8874
G01 X10.5924 Y18.8739
G01 X10.6152 Y18.8717
G01 X10.7073 Y18.8671
G01 X10.7303 Y18.8671
G01 X10.8224 Y18.8717
G01 X10.8452 Y18.8739
G01 X10.9365 Y18.8874
G01 X10.9590 Y18.8919
G01 X11.0485 Y18.9143
G01 X11.0704 Y18.9210
G01 X11.1573 Y18.9521
G01 X11.1785 Y18.9608
G01 X11.2618 Y19.0003
G01 X11.2821 Y19.0111
G01 X11.3612 Y19.0585
G01 X11.3803 Y19.0713
G01 X11.4544 Y19.1262
G01 X11.4721 Y19.1408
G01 X11.5405 Y19.2027
G01 X11.5567 Y19.2189
G01 X11.6186 Y19.2873
G01 X11.6332 Y19.3050
G01 X11.6881 Y19.3791
G01 X11.7009 Y19.3982
G01 X11.7483 Y19.4773
G01 X11.7591 Y19.4976
G01 X11.7986 Y19.5809
G01 X11.8073 Y19.6021
G01 X11.8384 Y19.6890
G01 X11.8451 Y19.7109
G01 X11.8675 Y19.8004
G01 X11.8720 Y19.8229
G01 X11.8855 Y19.9142
G01 X11.8877 Y19.9370
G01 X11.8923 Y20.0291
G01 X11.8923 Y20.0521
G00 X11.8923 Y20.0521
G01 F60.00
G01 Z-0.1200
G01 F60.00
G01 X11.8877 Y20.1442
G01 X11.8855 Y20.1670
G01 X11.8720 Y20.2583
G01 X11.8675 Y20.2808
G01 X11.8451 Y20.3703
G01 X11.8384 Y20.3922
G01 X11.8073 Y20.4791
G01 X11.7986 Y20.5003
G01 X11.7591 Y20.5836
G01 X11.7483 Y20.6039
G01 X11.7009 Y20.6830
G01 X11.6881 Y20.7021
G01 X11.6332 Y20.7762
G01 X11.6186 Y20.7939
G01 X11.5567 Y20.8623
G01 X11.5405 Y20.8785
G01 X11.4721 Y20.9404
G01 X11.4544 Y20.9550
G01 X11.3803 Y21.0099
G01 X11.3612 Y21.0227
G01 X11.2821 Y21.0701
G01 X11.2618 Y21.0809
G01 X11.1785 Y21.1204
G01 X11.1573 Y21.1291
G01 X11.0704 Y21.1602
G01 X11.0485 Y21.1669
G01 X10.9590 Y21.1893
G01 X10.9365 Y21.1938
G01 X10.8452 Y21.2073
G01 X10.8224 Y21.2095
G01 X10.7303 Y21.2141
G01 X10.7073 Y21.2141
G01 X10.6152 Y21.2095
G01 X10.5924 Y21.2073
G01 X10.5011 Y21.1938
G01 X10.4786 Y21.1893
G01 X10.3891 Y21.1669
G01 X10.3672 Y21.1602
G01 X10.2803 Y21.1291
G01 X10.2591 Y21.1204
G01 X10.1758 Y21.0809
G01 X10.1555 Y21.0701
G01 X10.0764 Y21.0227
G01 X10.0573 Y21.0099
G01 X9.9832 Y20.9550
G01 X9.9655 Y20.9404
G01 X9.8971 Y20.8785
G01 X9.8809 Y20.8623
G01 X9.8190 Y20.7939
G01 X9.8044 Y20.7762
G01 X9.7495 Y20.7021
G01 X9.7367 Y20.6830
G01 X9.6893 Y20.6039
G01 X9.6785 Y20.5836
G01 X9.6390 Y20.5003
G01 X9.6303 Y20.4791
G01 X9.5992 Y20.3922
G01 X9.5925 Y20.3703
G01 X9.5701 Y20.2808
G01 X9.5656 Y20.2583
G01 X9.5521 Y20.1670
G01 X9.5499 Y20.1442
G01 X9.5453 Y20.0521
G01 X9.5453 Y20.0291
G01 X9.5499 Y19.9370
G01 X9.5521 Y19.9142
G01 X9.5656 Y19.8229
G01 X9.5701 Y19.8004
G01 X9.5925 Y19.7109
G01 X9.5992 Y19.6890
G01 X9.6303 Y19.6021
G01 X9.6390 Y19.5809
G01 X9.6785 Y19.4976
G01 X9.6893 Y19.4773
G01 X9.7367 Y19.3982
G01 X9.7495 Y19.3791
G01 X9.8044 Y19.3050
G01 X9.8190 Y19.2873
G01 X9.8809 Y19.2189
G01 X9.8971 Y19.2027
G01 X9.9655 Y19.1408
G01 X9.9832 Y19.1262
G01 X10.0573 Y19.0713
G01 X10.0764 Y19.0585
G01 X10.1555 Y19.0111
G01 X10.1758 Y19.0003
G01 X10.2591 Y18.9608
G01 X10.2803 Y18.9521
G01 X10.3672 Y18.9210
G01 X10.3891 Y18.9143
G01 X10.4786 Y18.8919
G01 X10.5011 Y18.8874
G01 X10.5924 Y18.8739
G01 X10.6152 Y18.8717
G01 X10.7073 Y18.8671
G01 X10.7303 Y18.8671
G01 X10.8224 Y18.8717
G01 X10.8452 Y18.8739
G01 X10.9365 Y18.8874
G01 X10.9590 Y18.8919
G01 X11.0485 Y18.9143
G01 X11.0704 Y18.9210
G01 X11.1573 Y18.9521
G01 X11.1785 Y18.9608
G01 X11.2618 Y19.0003
G01 X11.2821 Y19.0111
G01 X11.3612 Y19.0585
G01 X11.3803 Y19.0713
G01 X11.4544 Y19.1262
G01 X11.4721 Y19.1408
G01 X11.5405 Y19.2027
G01 X11.5567 Y19.2189
G01 X11.6186 Y19.2873
G01 X11.6332 Y19.3050
G01 X11.6881 Y19.3791
G01 X11.7009 Y19.3982
G01 X11.7483 Y19.4773
G01 X11.7591 Y19.4976
G01 X11.7986 Y19.5809
G01 X11.8073 Y19.6021
G01 X11.8384 Y19.6890
G01 X11.8451 Y19.7109
G01 X11.8675 Y19.8004
G01 X11.8720 Y19.8229
G01 X11.8855 Y19.9142
G01 X11.8877 Y19.9370
G01 X11.8923 Y20.0291
G01 X11.8923 Y20.0521
G00 X11.8923 Y20.0521
G01 F60.00
G01 Z-0.1600
G01 F60.00
G01 X11.8877 Y20.1442
G01 X11.8855 Y20.1670
G01 X11.8720 Y20.2583
G01 X11.8675 Y20.2808
G01 X11.8451 Y20.3703
G01 X11.8384 Y20.3922
G01 X11.8073 Y20.4791
G01 X11.7986 Y20.5003
G01 X11.7591 Y20.5836
G01 X11.7483 Y20.6039
G01 X11.7009 Y20.6830
G01 X11.6881 Y20.7021
G01 X11.6332 Y20.7762
G01 X11.6186 Y20.7939
G01 X11.5567 Y20.8623
G01 X11.5405 Y20.8785
G01 X11.4721 Y20.9404
G01 X11.4544 Y20.9550
G01 X11.3803 Y21.0099
G01 X11.3612 Y21.0227
G01 X11.2821 Y21.0701
G01 X11.2618 Y21.0809
G01 X11.1785 Y21.1204
G01 X11.1573 Y21.1291
G01 X11.0704 Y21.1602
G01 X11.0485 Y21.1669
G01 X10.9590 Y21.1893
G01 X10.9365 Y21.1938
G01 X10.8452 Y21.2073
G01 X10.8224 Y21.2095
G01 X10.7303 Y21.2141
G01 X10.7073 Y21.2141
G01 X10.6152 Y21.2095
G01 X10.5924 Y21.2073
G01 X10.5011 Y21.1938
G01 X10.4786 Y21.1893
G01 X10.3891 Y21.1669
G01 X10.3672 Y21.1602
G01 X10.2803 Y21.1291
G01 X10.2591 Y21.1204
G01 X10.1758 Y21.0809
G01 X10.1555 Y21.0701
G01 X10.0764 Y21.0227
G01 X10.0573 Y21.0099
G01 X9.9832 Y20.9550
G01 X9.9655 Y20.9404
G01 X9.8971 Y20.8785
G01 X9.8809 Y20.8623
G01 X9.8190 Y20.7939
G01 X9.8044 Y20.7762
G01 X9.7495 Y20.7021
G01 X9.7367 Y20.6830
G01 X9.6893 Y20.6039
G01 X9.6785 Y20.5836
G01 X9.6390 Y20.5003
G01 X9.6303 Y20.4791
G01 X9.5992 Y20.3922
G01 X9.5925 Y20.3703
G01 X9.5701 Y20.2808
G01 X9.5656 Y20.2583
G01 X9.5521 Y20.1670
G01 X9.5499 Y20.1442
G01 X9.5453 Y20.0521
G01 X9.5453 Y20.0291
G01 X9.5499 Y19.9370
G01 X9.5521 Y19.9142
G01 X9.5656 Y19.8229
G01 X9.5701 Y19.8004
G01 X9.5925 Y19.7109
G01 X9.5992 Y19.6890
G01 X9.6303 Y19.6021
G01 X9.6390 Y19.5809
G01 X9.6785 Y19.4976
G01 X9.6893 Y19.4773
G01 X9.7367 Y19.3982
G01 X9.7495 Y19.3791
G01 X9.8044 Y19.3050
G01 X9.8190 Y19.2873
G01 X9.8809 Y19.2189
G01 X9.8971 Y19.2027
G01 X9.9655 Y19.1408
G01 X9.9832 Y19.1262
G01 X10.0573 Y19.0713
G01 X10.0764 Y19.0585
G01 X10.1555 Y19.0111
G01 X10.1758 Y19.0003
G01 X10.2591 Y18.9608
G01 X10.2803 Y18.9521
G01 X10.3672 Y18.9210
G01 X10.3891 Y18.9143
G01 X10.4786 Y18.8919
G01 X10.5011 Y18.8874
G01 X10.5924 Y18.8739
G01 X10.6152 Y18.8717
G01 X10.7073 Y18.8671
G01 X10.7303 Y18.8671
G01 X10.8224 Y18.8717
G01 X10.8452 Y18.8739
G01 X10.9365 Y18.8874
G01 X10.9590 Y18.8919
G01 X11.0485 Y18.9143
G01 X11.0704 Y18.9210
G01 X11.1573 Y18.9521
G01 X11.1785 Y18.9608
G01 X11.2618 Y19.0003
G01 X11.2821 Y19.0111
G01 X11.3612 Y19.0585
G01 X11.3803 Y19.0713
G01 X11.4544 Y19.1262
G01 X11.4721 Y19.1408
G01 X11.5405 Y19.2027
G01 X11.5567 Y19.2189
G01 X11.6186 Y19.2873
G01 X11.6332 Y19.3050
G01 X11.6881 Y19.3791
G01 X11.7009 Y19.3982
G01 X11.7483 Y19.4773
G01 X11.7591 Y19.4976
G01 X11.7986 Y19.5809
G01 X11.8073 Y19.6021
G01 X11.8384 Y19.6890
G01 X11.8451 Y19.7109
G01 X11.8675 Y19.8004
G01 X11.8720 Y19.8229
G01 X11.8855 Y19.9142
G01 X11.8877 Y19.9370
G01 X11.8923 Y20.0291
G01 X11.8923 Y20.0521
G00 X11.8923 Y20.0521
G01 F60.00
G01 Z-0.2000
G01 F60.00
G01 X11.8877 Y20.1442
G01 X11.8855 Y20.1670
G01 X11.8720 Y20.2583
G01 X11.8675 Y20.2808
G01 X11.8451 Y20.3703
G01 X11.8384 Y20.3922
G01 X11.8073 Y20.4791
G01 X11.7986 Y20.5003
G01 X11.7591 Y20.5836
G01 X11.7483 Y20.6039
G01 X11.7009 Y20.6830
G01 X11.6881 Y20.7021
G01 X11.6332 Y20.7762
G01 X11.6186 Y20.7939
G01 X11.5567 Y20.8623
G01 X11.5405 Y20.8785
G01 X11.4721 Y20.9404
G01 X11.4544 Y20.9550
G01 X11.3803 Y21.0099
G01 X11.3612 Y21.0227
G01 X11.2821 Y21.0701
G01 X11.2618 Y21.0809
G01 X11.1785 Y21.1204
G01 X11.1573 Y21.1291
G01 X11.0704 Y21.1602
G01 X11.0485 Y21.1669
G01 X10.9590 Y21.1893
G01 X10.9365 Y21.1938
G01 X10.8452 Y21.2073
G01 X10.8224 Y21.2095
G01 X10.7303 Y21.2141
G01 X10.7073 Y21.2141
G01 X10.6152 Y21.2095
G01 X10.5924 Y21.2073
G01 X10.5011 Y21.1938
G01 X10.4786 Y21.1893
G01 X10.3891 Y21.1669
G01 X10.3672 Y21.1602
G01 X10.2803 Y21.1291
G01 X10.2591 Y21.1204
G01 X10.1758 Y21.0809
G01 X10.1555 Y21.0701
G01 X10.0764 Y21.0227
G01 X10.0573 Y21.0099
G01 X9.9832 Y20.9550
G01 X9.9655 Y20.9404
G01 X9.8971 Y20.8785
G01 X9.8809 Y20.8623
G01 X9.8190 Y20.7939
G01 X9.8044 Y20.7762
G01 X9.7495 Y20.7021
G01 X9.7367 Y20.6830
G01 X9.6893 Y20.6039
G01 X9.6785 Y20.5836
G01 X9.6390 Y20.5003
G01 X9.6303 Y20.4791
G01 X9.5992 Y20.3922
G01 X9.5925 Y20.3703
G01 X9.5701 Y20.2808
G01 X9.5656 Y20.2583
G01 X9.5521 Y20.1670
G01 X9.5499 Y20.1442
G01 X9.5453 Y20.0521
G01 X9.5453 Y20.0291
G01 X9.5499 Y19.9370
G01 X9.5521 Y19.9142
G01 X9.5656 Y19.8229
G01 X9.5701 Y19.8004
G01 X9.5925 Y19.7109
G01 X9.5992 Y19.6890
G01 X9.6303 Y19.6021
G01 X9.6390 Y19.5809
G01 X9.6785 Y19.4976
G01 X9.6893 Y19.4773
G01 X9.7367 Y19.3982
G01 X9.7495 Y19.3791
G01 X9.8044 Y19.3050
G01 X9.8190 Y19.2873
G01 X9.8809 Y19.2189
G01 X9.8971 Y19.2027
G01 X9.9655 Y19.1408
G01 X9.9832 Y19.1262
G01 X10.0573 Y19.0713
G01 X10.0764 Y19.0585
G01 X10.1555 Y19.0111
G01 X10.1758 Y19.0003
G01 X10.2591 Y18.9608
G01 X10.2803 Y18.9521
G01 X10.3672 Y18.9210
G01 X10.3891 Y18.9143
G01 X10.4786 Y18.8919
G01 X10.5011 Y18.8874
G01 X10.5924 Y18.8739
G01 X10.6152 Y18.8717
G01 X10.7073 Y18.8671
G01 X10.7303 Y18.8671
G01 X10.8224 Y18.8717
G01 X10.8452 Y18.8739
G01 X10.9365 Y18.8874
G01 X10.9590 Y18.8919
G01 X11.0485 Y18.9143
G01 X11.0704 Y18.9210
G01 X11.1573 Y18.9521
G01 X11.1785 Y18.9608
G01 X11.2618 Y19.0003
G01 X11.2821 Y19.0111
G01 X11.3612 Y19.0585
G01 X11.3803 Y19.0713
G01 X11.4544 Y19.1262
G01 X11.4721 Y19.1408
G01 X11.5405 Y19.2027
G01 X11.5567 Y19.2189
G01 X11.6186 Y19.2873
G01 X11.6332 Y19.3050
G01 X11.6881 Y19.3791
G01 X11.7009 Y19.3982
G01 X11.7483 Y19.4773
G01 X11.7591 Y19.4976
G01 X11.7986 Y19.5809
G01 X11.8073 Y19.6021
G01 X11.8384 Y19.6890
G01 X11.8451 Y19.7109
G01 X11.8675 Y19.8004
G01 X11.8720 Y19.8229
G01 X11.8855 Y19.9142
G01 X11.8877 Y19.9370
G01 X11.8923 Y20.0291
G01 X11.8923 Y20.0521
G00 X11.8923 Y20.0521
G01 F60.00
G01 Z-0.2400
G01 F60.00
G01 X11.8877 Y20.1442
G01 X11.8855 Y20.1670
G01 X11.8720 Y20.2583
G01 X11.8675 Y20.2808
G01 X11.8451 Y20.3703
G01 X11.8384 Y20.3922
G01 X11.8073 Y20.4791
G01 X11.7986 Y20.5003
G01 X11.7591 Y20.5836
G01 X11.7483 Y20.6039
G01 X11.7009 Y20.6830
G01 X11.6881 Y20.7021
G01 X11.6332 Y20.7762
G01 X11.6186 Y20.7939
G01 X11.5567 Y20.8623
G01 X11.5405 Y20.8785
G01 X11.4721 Y20.9404
G01 X11.4544 Y20.9550
G01 X11.3803 Y21.0099
G01 X11.3612 Y21.0227
G01 X11.2821 Y21.0701
G01 X11.2618 Y21.0809
G01 X11.1785 Y21.1204
G01 X11.1573 Y21.1291
G01 X11.0704 Y21.1602
G01 X11.0485 Y21.1669
G01 X10.9590 Y21.1893
G01 X10.9365 Y21.1938
G01 X10.8452 Y21.2073
G01 X10.8224 Y21.2095
G01 X10.7303 Y21.2141
G01 X10.7073 Y21.2141
G01 X10.6152 Y21.2095
G01 X10.5924 Y21.2073
G01 X10.5011 Y21.1938
G01 X10.4786 Y21.1893
G01 X10.3891 Y21.1669
G01 X10.3672 Y21.1602
G01 X10.2803 Y21.1291
G01 X10.2591 Y21.1204
G01 X10.1758 Y21.0809
G01 X10.1555 Y21.0701
G01 X10.0764 Y21.0227
G01 X10.0573 Y21.0099
G01 X9.9832 Y20.9550
G01 X9.9655 Y20.9404
G01 X9.8971 Y20.8785
G01 X9.8809 Y20.8623
G01 X9.8190 Y20.7939
G01 X9.8044 Y20.7762
G01 X9.7495 Y20.7021
G01 X9.7367 Y20.6830
G01 X9.6893 Y20.6039
G01 X9.6785 Y20.5836
G01 X9.6390 Y20.5003
G01 X9.6303 Y20.4791
G01 X9.5992 Y20.3922
G01 X9.5925 Y20.3703
G01 X9.5701 Y20.2808
G01 X9.5656 Y20.2583
G01 X9.5521 Y20.1670
G01 X9.5499 Y20.1442
G01 X9.5453 Y20.0521
G01 X9.5453 Y20.0291
G01 X9.5499 Y19.9370
G01 X9.5521 Y19.9142
G01 X9.5656 Y19.8229
G01 X9.5701 Y19.8004
G01 X9.5925 Y19.7109
G01 X9.5992 Y19.6890
G01 X9.6303 Y19.6021
G01 X9.6390 Y19.5809
G01 X9.6785 Y19.4976
G01 X9.6893 Y19.4773
G01 X9.7367 Y19.3982
G01 X9.7495 Y19.3791
G01 X9.8044 Y19.3050
G01 X9.8190 Y19.2873
G01 X9.8809 Y19.2189
G01 X9.8971 Y19.2027
G01 X9.9655 Y19.1408
G01 X9.9832 Y19.1262
G01 X10.0573 Y19.0713
G01 X10.0764 Y19.0585
G01 X10.1555 Y19.0111
G01 X10.1758 Y19.0003
G01 X10.2591 Y18.9608
G01 X10.2803 Y18.9521
G01 X10.3672 Y18.9210
G01 X10.3891 Y18.9143
G01 X10.4786 Y18.8919
G01 X10.5011 Y18.8874
G01 X10.5924 Y18.8739
G01 X10.6152 Y18.8717
G01 X10.7073 Y18.8671
G01 X10.7303 Y18.8671
G01 X10.8224 Y18.8717
G01 X10.8452 Y18.8739
G01 X10.9365 Y18.8874
G01 X10.9590 Y18.8919
G01 X11.0485 Y18.9143
G01 X11.0704 Y18.9210
G01 X11.1573 Y18.9521
G01 X11.1785 Y18.9608
G01 X11.2618 Y19.0003
G01 X11.2821 Y19.0111
G01 X11.3612 Y19.0585
G01 X11.3803 Y19.0713
G01 X11.4544 Y19.1262
G01 X11.4721 Y19.1408
G01 X11.5405 Y19.2027
G01 X11.5567 Y19.2189
G01 X11.6186 Y19.2873
G01 X11.6332 Y19.3050
G01 X11.6881 Y19.3791
G01 X11.7009 Y19.3982
G01 X11.7483 Y19.4773
G01 X11.7591 Y19.4976
G01 X11.7986 Y19.5809
G01 X11.8073 Y19.6021
G01 X11.8384 Y19.6890
G01 X11.8451 Y19.7109
G01 X11.8675 Y19.8004
G01 X11.8720 Y19.8229
G01 X11.8855 Y19.9142
G01 X11.8877 Y19.9370
G01 X11.8923 Y20.0291
G01 X11.8923 Y20.0521
G00 X11.8923 Y20.0521
G01 F60.00
G01 Z-0.2800
G01 F60.00
G01 X11.8877 Y20.1442
G01 X11.8855 Y20.1670
G01 X11.8720 Y20.2583
G01 X11.8675 Y20.2808
G01 X11.8451 Y20.3703
G01 X11.8384 Y20.3922
G01 X11.8073 Y20.4791
G01 X11.7986 Y20.5003
G01 X11.7591 Y20.5836
G01 X11.7483 Y20.6039
G01 X11.7009 Y20.6830
G01 X11.6881 Y20.7021
G01 X11.6332 Y20.7762
G01 X11.6186 Y20.7939
G01 X11.5567 Y20.8623
G01 X11.5405 Y20.8785
G01 X11.4721 Y20.9404
G01 X11.4544 Y20.9550
G01 X11.3803 Y21.0099
G01 X11.3612 Y21.0227
G01 X11.2821 Y21.0701
G01 X11.2618 Y21.0809
G01 X11.1785 Y21.1204
G01 X11.1573 Y21.1291
G01 X11.0704 Y21.1602
G01 X11.0485 Y21.1669
G01 X10.9590 Y21.1893
G01 X10.9365 Y21.1938
G01 X10.8452 Y21.2073
G01 X10.8224 Y21.2095
G01 X10.7303 Y21.2141
G01 X10.7073 Y21.2141
G01 X10.6152 Y21.2095
G01 X10.5924 Y21.2073
G01 X10.5011 Y21.1938
G01 X10.4786 Y21.1893
G01 X10.3891 Y21.1669
G01 X10.3672 Y21.1602
G01 X10.2803 Y21.1291
G01 X10.2591 Y21.1204
G01 X10.1758 Y21.0809
G01 X10.1555 Y21.0701
G01 X10.0764 Y21.0227
G01 X10.0573 Y21.0099
G01 X9.9832 Y20.9550
G01 X9.9655 Y20.9404
G01 X9.8971 Y20.8785
G01 X9.8809 Y20.8623
G01 X9.8190 Y20.7939
G01 X9.8044 Y20.7762
G01 X9.7495 Y20.7021
G01 X9.7367 Y20.6830
G01 X9.6893 Y20.6039
G01 X9.6785 Y20.5836
G01 X9.6390 Y20.5003
G01 X9.6303 Y20.4791
G01 X9.5992 Y20.3922
G01 X9.5925 Y20.3703
G01 X9.5701 Y20.2808
G01 X9.5656 Y20.2583
G01 X9.5521 Y20.1670
G01 X9.5499 Y20.1442
G01 X9.5453 Y20.0521
G01 X9.5453 Y20.0291
G01 X9.5499 Y19.9370
G01 X9.5521 Y19.9142
G01 X9.5656 Y19.8229
G01 X9.5701 Y19.8004
G01 X9.5925 Y19.7109
G01 X9.5992 Y19.6890
G01 X9.6303 Y19.6021
G01 X9.6390 Y19.5809
G01 X9.6785 Y19.4976
G01 X9.6893 Y19.4773
G01 X9.7367 Y19.3982
G01 X9.7495 Y19.3791
G01 X9.8044 Y19.3050
G01 X9.8190 Y19.2873
G01 X9.8809 Y19.2189
G01 X9.8971 Y19.2027
G01 X9.9655 Y19.1408
G01 X9.9832 Y19.1262
G01 X10.0573 Y19.0713
G01 X10.0764 Y19.0585
G01 X10.1555 Y19.0111
G01 X10.1758 Y19.0003
G01 X10.2591 Y18.9608
G01 X10.2803 Y18.9521
G01 X10.3672 Y18.9210
G01 X10.3891 Y18.9143
G01 X10.4786 Y18.8919
G01 X10.5011 Y18.8874
G01 X10.5924 Y18.8739
G01 X10.6152 Y18.8717
G01 X10.7073 Y18.8671
G01 X10.7303 Y18.8671
G01 X10.8224 Y18.8717
G01 X10.8452 Y18.8739
G01 X10.9365 Y18.8874
G01 X10.9590 Y18.8919
G01 X11.0485 Y18.9143
G01 X11.0704 Y18.9210
G01 X11.1573 Y18.9521
G01 X11.1785 Y18.9608
G01 X11.2618 Y19.0003
G01 X11.2821 Y19.0111
G01 X11.3612 Y19.0585
G01 X11.3803 Y19.0713
G01 X11.4544 Y19.1262
G01 X11.4721 Y19.1408
G01 X11.5405 Y19.2027
G01 X11.5567 Y19.2189
G01 X11.6186 Y19.2873
G01 X11.6332 Y19.3050
G01 X11.6881 Y19.3791
G01 X11.7009 Y19.3982
G01 X11.7483 Y19.4773
G01 X11.7591 Y19.4976
G01 X11.7986 Y19.5809
G01 X11.8073 Y19.6021
G01 X11.8384 Y19.6890
G01 X11.8451 Y19.7109
G01 X11.8675 Y19.8004
G01 X11.8720 Y19.8229
G01 X11.8855 Y19.9142
G01 X11.8877 Y19.9370
G01 X11.8923 Y20.0291
G01 X11.8923 Y20.0521
G00 X11.8923 Y20.0521
G01 F60.00
G01 Z-0.3000
G01 F60.00
G01 X11.8877 Y20.1442
G01 X11.8855 Y20.1670
G01 X11.8720 Y20.2583
G01 X11.8675 Y20.2808
G01 X11.8451 Y20.3703
G01 X11.8384 Y20.3922
G01 X11.8073 Y20.4791
G01 X11.7986 Y20.5003
G01 X11.7591 Y20.5836
G01 X11.7483 Y20.6039
G01 X11.7009 Y20.6830
G01 X11.6881 Y20.7021
G01 X11.6332 Y20.7762
G01 X11.6186 Y20.7939
G01 X11.5567 Y20.8623
G01 X11.5405 Y20.8785
G01 X11.4721 Y20.9404
G01 X11.4544 Y20.9550
G01 X11.3803 Y21.0099
G01 X11.3612 Y21.0227
G01 X11.2821 Y21.0701
G01 X11.2618 Y21.0809
G01 X11.1785 Y21.1204
G01 X11.1573 Y21.1291
G01 X11.0704 Y21.1602
G01 X11.0485 Y21.1669
G01 X10.9590 Y21.1893
G01 X10.9365 Y21.1938
G01 X10.8452 Y21.2073
G01 X10.8224 Y21.2095
G01 X10.7303 Y21.2141
G01 X10.7073 Y21.2141
G01 X10.6152 Y21.2095
G01 X10.5924 Y21.2073
G01 X10.5011 Y21.1938
G01 X10.4786 Y21.1893
G01 X10.3891 Y21.1669
G01 X10.3672 Y21.1602
G01 X10.2803 Y21.1291
G01 X10.2591 Y21.1204
G01 X10.1758 Y21.0809
G01 X10.1555 Y21.0701
G01 X10.0764 Y21.0227
G01 X10.0573 Y21.0099
G01 X9.9832 Y20.9550
G01 X9.9655 Y20.9404
G01 X9.8971 Y20.8785
G01 X9.8809 Y20.8623
G01 X9.8190 Y20.7939
G01 X9.8044 Y20.7762
G01 X9.7495 Y20.7021
G01 X9.7367 Y20.6830
G01 X9.6893 Y20.6039
G01 X9.6785 Y20.5836
G01 X9.6390 Y20.5003
G01 X9.6303 Y20.4791
G01 X9.5992 Y20.3922
G01 X9.5925 Y20.3703
G01 X9.5701 Y20.2808
G01 X9.5656 Y20.2583
G01 X9.5521 Y20.1670
G01 X9.5499 Y20.1442
G01 X9.5453 Y20.0521
G01 X9.5453 Y20.0291
G01 X9.5499 Y19.9370
G01 X9.5521 Y19.9142
G01 X9.5656 Y19.8229
G01 X9.5701 Y19.8004
G01 X9.5925 Y19.7109
G01 X9.5992 Y19.6890
G01 X9.6303 Y19.6021
G01 X9.6390 Y19.5809
G01 X9.6785 Y19.4976
G01 X9.6893 Y19.4773
G01 X9.7367 Y19.3982
G01 X9.7495 Y19.3791
G01 X9.8044 Y19.3050
G01 X9.8190 Y19.2873
G01 X9.8809 Y19.2189
G01 X9.8971 Y19.2027
G01 X9.9655 Y19.1408
G01 X9.9832 Y19.1262
G01 X10.0573 Y19.0713
G01 X10.0764 Y19.0585
G01 X10.1555 Y19.0111
G01 X10.1758 Y19.0003
G01 X10.2591 Y18.9608
G01 X10.2803 Y18.9521
G01 X10.3672 Y18.9210
G01 X10.3891 Y18.9143
G01 X10.4786 Y18.8919
G01 X10.5011 Y18.8874
G01 X10.5924 Y18.8739
G01 X10.6152 Y18.8717
G01 X10.7073 Y18.8671
G01 X10.7303 Y18.8671
G01 X10.8224 Y18.8717
G01 X10.8452 Y18.8739
G01 X10.9365 Y18.8874
G01 X10.9590 Y18.8919
G01 X11.0485 Y18.9143
G01 X11.0704 Y18.9210
G01 X11.1573 Y18.9521
G01 X11.1785 Y18.9608
G01 X11.2618 Y19.0003
G01 X11.2821 Y19.0111
G01 X11.3612 Y19.0585
G01 X11.3803 Y19.0713
G01 X11.4544 Y19.1262
G01 X11.4721 Y19.1408
G01 X11.5405 Y19.2027
G01 X11.5567 Y19.2189
G01 X11.6186 Y19.2873
G01 X11.6332 Y19.3050
G01 X11.6881 Y19.3791
G01 X11.7009 Y19.3982
G01 X11.7483 Y19.4773
G01 X11.7591 Y19.4976
G01 X11.7986 Y19.5809
G01 X11.8073 Y19.6021
G01 X11.8384 Y19.6890
G01 X11.8451 Y19.7109
G01 X11.8675 Y19.8004
G01 X11.8720 Y19.8229
G01 X11.8855 Y19.9142
G01 X11.8877 Y19.9370
G01 X11.8923 Y20.0291
G01 X11.8923 Y20.0521
G00 Z0.3608
G00 X16.2757 Y20.7342
G01 F60.00
G01 Z-0.0400
G01 F60.00
G01 X16.2519 Y20.7021
G01 X16.2391 Y20.6830
G01 X16.1917 Y20.6039
G01 X16.1809 Y20.5836
G01 X16.1414 Y20.5003
G01 X16.1327 Y20.4791
G01 X16.1016 Y20.3922
G01 X16.0949 Y20.3703
G01 X16.0725 Y20.2808
G01 X16.0680 Y20.2583
G01 X16.0545 Y20.1670
G01 X16.0523 Y20.1442
G01 X16.0477 Y20.0521
G01 X16.0477 Y20.0291
G01 X16.0523 Y19.9370
G01 X16.0545 Y19.9142
G01 X16.0680 Y19.8229
G01 X16.0725 Y19.8004
G01 X16.0949 Y19.7109
G01 X16.1016 Y19.6890
G01 X16.1327 Y19.6021
G01 X16.1414 Y19.5809
G01 X16.1809 Y19.4976
G01 X16.1917 Y19.4773
G01 X16.2391 Y19.3982
G01 X16.2519 Y19.3791
G01 X16.3068 Y19.3050
G01 X16.3214 Y19.2873
G01 X16.3833 Y19.2189
G01 X16.3995 Y19.2027
G01 X16.4679 Y19.1408
G01 X16.4856 Y19.1262
G01 X16.5597 Y19.0713
G01 X16.5788 Y19.0585
G01 X16.6579 Y19.0111
G01 X16.6782 Y19.0003
G01 X16.7615 Y18.9608
G01 X16.7827 Y18.9521
G01 X16.8696 Y18.9210
G01 X16.8915 Y18.9143
G01 X16.9810 Y18.8919
G01 X17.0035 Y18.8874
G01 X17.0948 Y18.8739
G01 X17.1176 Y18.8717
G01 X17.2097 Y18.8671
G01 X17.2327 Y18.8671
G01 X17.3248 Y18.8717
G01 X17.3476 Y18.8739
G01 X17.4389 Y18.8874
G01 X17.4614 Y18.8919
G01 X17.5509 Y18.9143
G01 X17.5728 Y18.9210
G01 X17.6597 Y18.9521
G01 X17.6809 Y18.9608
G01 X17.7642 Y19.0003
G01 X17.7845 Y19.0111
G01 X17.8636 Y19.0585
G01 X17.8827 Y19.0713
G01 X17.9568 Y19.1262
G01 X17.9745 Y19.1408
G01 X18.0429 Y19.2027
G01 X18.0591 Y19.2189
G01 X18.1210 Y19.2873
G01 X18.1356 Y19.3050
G01 X18.1905 Y19.3791
G01 X18.2033 Y19.3982
G01 X18.2507 Y19.4773
G01 X18.2615 Y19.4976
G01 X18.3010 Y19.5809
G01 X18.3097 Y19.6021
G01 X18.3408 Y19.6890
G01 X18.3475 Y19.7109
G01 X18.3699 Y19.8004
G01 X18.3744 Y19.8229
G01 X18.3879 Y19.9142
G01 X18.3901 Y19.9370
G01 X18.3947 Y20.0291
G01 X18.3947 Y20.0521
G01 X18.3901 Y20.1442
G01 X18.3879 Y20.1670
G01 X18.3744 Y20.2583
G01 X18.3699 Y20.2808
G01 X18.3475 Y20.3703
G01 X18.3408 Y20.3922
G01 X18.3097 Y20.4791
G01 X18.3010 Y20.5003
G01 X18.2683 Y20.5692
G01 X18.2683 Y20.9233
G01 X22.3801 Y25.0351
G01 X22.4006 Y25.0242
G01 X22.4682 Y24.9922
G01 X22.4894 Y24.9834
G01 X22.5599 Y24.9582
G01 X22.5818 Y24.9515
G01 X22.6544 Y24.9333
G01 X22.6769 Y24.9289
G01 X22.7509 Y24.9179
G01 X22.7738 Y24.9156
G01 X22.8485 Y24.9120
G01 X22.8715 Y24.9120
G01 X22.9462 Y24.9156
G01 X22.9691 Y24.9179
G01 X23.0431 Y24.9289
G01 X23.0656 Y24.9333
G01 X23.1382 Y24.9515
G01 X23.1601 Y24.9582
G01 X23.2306 Y24.9834
G01 X23.2518 Y24.9922
G01 X23.3194 Y25.0242
G01 X23.3397 Y25.0350
G01 X23.4038 Y25.0734
G01 X23.4229 Y25.0862
G01 X23.4830 Y25.1308
G01 X23.5008 Y25.1453
G01 X23.5562 Y25.1956
G01 X23.5724 Y25.2118
G01 X23.6227 Y25.2672
G01 X23.6372 Y25.2850
G01 X23.6818 Y25.3451
G01 X23.6946 Y25.3642
G01 X23.7330 Y25.4283
G01 X23.7438 Y25.4486
G01 X23.7758 Y25.5162
G01 X23.7846 Y25.5374
G01 X23.8098 Y25.6079
G01 X23.8165 Y25.6298
G01 X23.8347 Y25.7024
G01 X23.8391 Y25.7249
G01 X23.8501 Y25.7989
G01 X23.8524 Y25.8218
G01 X23.8563 Y25.9080
G01 X23.8563 Y27.4320
G01 X23.8524 Y27.5182
G01 X23.8501 Y27.5411
G01 X23.8391 Y27.6151
G01 X23.8347 Y27.6376
G01 X23.8165 Y27.7102
G01 X23.8098 Y27.7321
G01 X23.7846 Y27.8026
G01 X23.7758 Y27.8238
G01 X23.7438 Y27.8914
G01 X23.7330 Y27.9117
G01 X23.6946 Y27.9758
G01 X23.6818 Y27.9949
G01 X23.6372 Y28.0550
G01 X23.6227 Y28.0728
G01 X23.5724 Y28.1282
G01 X23.5562 Y28.1444
G01 X23.5008 Y28.1947
G01 X23.4830 Y28.2092
G01 X23.4229 Y28.2538
G01 X23.4038 Y28.2666
G01 X23.3397 Y28.3050
G01 X23.3194 Y28.3158
G01 X23.2518 Y28.3478
G01 X23.2306 Y28.3566
G01 X23.1601 Y28.3818
G01 X23.1382 Y28.3885
G01 X23.0656 Y28.4067
G01 X23.0431 Y28.4111
G01 X22.9691 Y28.4221
G01 X22.9462 Y28.4244
G01 X22.8715 Y28.4280
G01 X22.8485 Y28.4280
G01 X22.7738 Y28.4244
G01 X22.7509 Y28.4221
G01 X22.6769 Y28.4111
G01 X22.6544 Y28.4067
G01 X22.5818 Y28.3885
G01 X22.5599 Y28.3818
G01 X22.4894 Y28.3566
G01 X22.4682 Y28.3478
G01 X22.4006 Y28.3158
G01 X22.3803 Y28.3050
G01 X22.3162 Y28.2666
G01 X22.2971 Y28.2538
G01 X22.2370 Y28.2092
G01 X22.2192 Y28.1947
G01 X22.1638 Y28.1444
G01 X22.1476 Y28.1282
G01 X22.0973 Y28.0728
G01 X22.0828 Y28.0550
G01 X22.0382 Y27.9949
G01 X22.0254 Y27.9758
G01 X21.9870 Y27.9117
G01 X21.9762 Y27.8914
G01 X21.9442 Y27.8238
G01 X21.9354 Y27.8026
G01 X21.9102 Y27.7321
G01 X21.9035 Y27.7102
G01 X21.8853 Y27.6376
G01 X21.8809 Y27.6151
G01 X21.8699 Y27.5411
G01 X21.8676 Y27.5182
G01 X21.8637 Y27.4320
G01 X21.8637 Y27.2838
G01 X21.8311 Y27.2651
G01 X21.8082 Y27.2506
G01 X21.7891 Y27.2378
G01 X21.7699 Y27.2236
G01 X21.7504 Y27.2099
G01 X21.7322 Y27.1958
G01 X21.7112 Y27.1787
G01 X21.6936 Y27.1627
G01 X21.6755 Y27.1471
G01 X21.6475 Y27.1205
G01 X16.5675 Y22.0405
G01 X16.5093 Y21.9768
G01 X16.4948 Y21.9590
G01 X16.4502 Y21.8989
G01 X16.4374 Y21.8798
G01 X16.3990 Y21.8157
G01 X16.3882 Y21.7954
G01 X16.3562 Y21.7278
G01 X16.3474 Y21.7066
G01 X16.3222 Y21.6361
G01 X16.3155 Y21.6142
G01 X16.2973 Y21.5416
G01 X16.2929 Y21.5191
G01 X16.2819 Y21.4451
G01 X16.2796 Y21.4222
G01 X16.2757 Y21.3360
G01 X16.2757 Y20.7342
G00 X16.2757 Y20.7342
G01 F60.00
G01 Z-0.0800
G01 F60.00
G01 X16.2519 Y20.7021
G01 X16.2391 Y20.6830
G01 X16.1917 Y20.6039
G01 X16.1809 Y20.5836
G01 X16.1414 Y20.5003
G01 X16.1327 Y20.4791
G01 X16.1016 Y20.3922
G01 X16.0949 Y20.3703
G01 X16.0725 Y20.2808
G01 X16.0680 Y20.2583
G01 X16.0545 Y20.1670
G01 X16.0523 Y20.1442
G01 X16.0477 Y20.0521
G01 X16.0477 Y20.0291
G01 X16.0523 Y19.9370
G01 X16.0545 Y19.9142
G01 X16.0680 Y19.8229
G01 X16.0725 Y19.8004
G01 X16.0949 Y19.7109
G01 X16.1016 Y19.6890
G01 X16.1327 Y19.6021
G01 X16.1414 Y19.5809
G01 X16.1809 Y19.4976
G01 X16.1917 Y19.4773
G01 X16.2391 Y19.3982
G01 X16.2519 Y19.3791
G01 X16.3068 Y19.3050
G01 X16.3214 Y19.2873
G01 X16.3833 Y19.2189
G01 X16.3995 Y19.2027
G01 X16.4679 Y19.1408
G01 X16.4856 Y19.1262
G01 X16.5597 Y19.0713
G01 X16.5788 Y19.0585
G01 X16.6579 Y19.0111
G01 X16.6782 Y19.0003
G01 X16.7615 Y18.9608
G01 X16.7827 Y18.9521
G01 X16.8696 Y18.9210
G01 X16.8915 Y18.9143
G01 X16.9810 Y18.8919
G01 X17.0035 Y18.8874
G01 X17.0948 Y18.8739
G01 X17.1176 Y18.8717
G01 X17.2097 Y18.8671
G01 X17.2327 Y18.8671
G01 X17.3248 Y18.8717
G01 X17.3476 Y18.8739
G01 X17.4389 Y18.8874
G01 X17.4614 Y18.8919
G01 X17.5509 Y18.9143
G01 X17.5728 Y18.9210
G01 X17.6597 Y18.9521
G01 X17.6809 Y18.9608
G01 X17.7642 Y19.0003
G01 X17.7845 Y19.0111
G01 X17.8636 Y19.0585
G01 X17.8827 Y19.0713
G01 X17.9568 Y19.1262
G01 X17.9745 Y19.1408
G01 X18.0429 Y19.2027
G01 X18.0591 Y19.2189
G01 X18.1210 Y19.2873
G01 X18.1356 Y19.3050
G01 X18.1905 Y19.3791
G01 X18.2033 Y19.3982
G01 X18.2507 Y19.4773
G01 X18.2615 Y19.4976
G01 X18.3010 Y19.5809
G01 X18.3097 Y19.6021
G01 X18.3408 Y19.6890
G01 X18.3475 Y19.7109
G01 X18.3699 Y19.8004
G01 X18.3744 Y19.8229
G01 X18.3879 Y19.9142
G01 X18.3901 Y19.9370
G01 X18.3947 Y20.0291
G01 X18.3947 Y20.0521
G01 X18.3901 Y20.1442
G01 X18.3879 Y20.1670
G01 X18.3744 Y20.2583
G01 X18.3699 Y20.2808
G01 X18.3475 Y20.3703
G01 X18.3408 Y20.3922
G01 X18.3097 Y20.4791
G01 X18.3010 Y20.5003
G01 X18.2683 Y20.5692
G01 X18.2683 Y20.9233
G01 X22.3801 Y25.0351
G01 X22.4006 Y25.0242
G01 X22.4682 Y24.9922
G01 X22.4894 Y24.9834
G01 X22.5599 Y24.9582
G01 X22.5818 Y24.9515
G01 X22.6544 Y24.9333
G01 X22.6769 Y24.9289
G01 X22.7509 Y24.9179
G01 X22.7738 Y24.9156
G01 X22.8485 Y24.9120
G01 X22.8715 Y24.9120
G01 X22.9462 Y24.9156
G01 X22.9691 Y24.9179
G01 X23.0431 Y24.9289
G01 X23.0656 Y24.9333
G01 X23.1382 Y24.9515
G01 X23.1601 Y24.9582
G01 X23.2306 Y24.9834
G01 X23.2518 Y24.9922
G01 X23.3194 Y25.0242
G01 X23.3397 Y25.0350
G01 X23.4038 Y25.0734
G01 X23.4229 Y25.0862
G01 X23.4830 Y25.1308
G01 X23.5008 Y25.1453
G01 X23.5562 Y25.1956
G01 X23.5724 Y25.2118
G01 X23.6227 Y25.2672
G01 X23.6372 Y25.2850
G01 X23.6818 Y25.3451
G01 X23.6946 Y25.3642
G01 X23.7330 Y25.4283
G01 X23.7438 Y25.4486
G01 X23.7758 Y25.5162
G01 X23.7846 Y25.5374
G01 X23.8098 Y25.6079
G01 X23.8165 Y25.6298
G01 X23.8347 Y25.7024
G01 X23.8391 Y25.7249
G01 X23.8501 Y25.7989
G01 X23.8524 Y25.8218
G01 X23.8563 Y25.9080
G01 X23.8563 Y27.4320
G01 X23.8524 Y27.5182
G01 X23.8501 Y27.5411
G01 X23.8391 Y27.6151
G01 X23.8347 Y27.6376
G01 X23.8165 Y27.7102
G01 X23.8098 Y27.7321
G01 X23.7846 Y27.8026
G01 X23.7758 Y27.8238
G01 X23.7438 Y27.8914
G01 X23.7330 Y27.9117
G01 X23.6946 Y27.9758
G01 X23.6818 Y27.9949
G01 X23.6372 Y28.0550
G01 X23.6227 Y28.0728
G01 X23.5724 Y28.1282
G01 X23.5562 Y28.1444
G01 X23.5008 Y28.1947
G01 X23.4830 Y28.2092
G01 X23.4229 Y28.2538
G01 X23.4038 Y28.2666
G01 X23.3397 Y28.3050
G01 X23.3194 Y28.3158
G01 X23.2518 Y28.3478
G01 X23.2306 Y28.3566
G01 X23.1601 Y28.3818
G01 X23.1382 Y28.3885
G01 X23.0656 Y28.4067
G01 X23.0431 Y28.4111
G01 X22.9691 Y28.4221
G01 X22.9462 Y28.4244
G01 X22.8715 Y28.4280
G01 X22.8485 Y28.4280
G01 X22.7738 Y28.4244
G01 X22.7509 Y28.4221
G01 X22.6769 Y28.4111
G01 X22.6544 Y28.4067
G01 X22.5818 Y28.3885
G01 X22.5599 Y28.3818
G01 X22.4894 Y28.3566
G01 X22.4682 Y28.3478
G01 X22.4006 Y28.3158
G01 X22.3803 Y28.3050
G01 X22.3162 Y28.2666
G01 X22.2971 Y28.2538
G01 X22.2370 Y28.2092
G01 X22.2192 Y28.1947
G01 X22.1638 Y28.1444
G01 X22.1476 Y28.1282
G01 X22.0973 Y28.0728
G01 X22.0828 Y28.0550
G01 X22.0382 Y27.9949
G01 X22.0254 Y27.9758
G01 X21.9870 Y27.9117
G01 X21.9762 Y27.8914
G01 X21.9442 Y27.8238
G01 X21.9354 Y27.8026
G01 X21.9102 Y27.7321
G01 X21.9035 Y27.7102
G01 X21.8853 Y27.6376
G01 X21.8809 Y27.6151
G01 X21.8699 Y27.5411
G01 X21.8676 Y27.5182
G01 X21.8637 Y27.4320
G01 X21.8637 Y27.2838
G01 X21.8311 Y27.2651
G01 X21.8082 Y27.2506
G01 X21.7891 Y27.2378
G01 X21.7699 Y27.2236
G01 X21.7504 Y27.2099
G01 X21.7322 Y27.1958
G01 X21.7112 Y27.1787
G01 X21.6936 Y27.1627
G01 X21.6755 Y27.1471
G01 X21.6475 Y27.1205
G01 X16.5675 Y22.0405
G01 X16.5093 Y21.9768
G01 X16.4948 Y21.9590
G01 X16.4502 Y21.8989
G01 X16.4374 Y21.8798
G01 X16.3990 Y21.8157
G01 X16.3882 Y21.7954
G01 X16.3562 Y21.7278
G01 X16.3474 Y21.7066
G01 X16.3222 Y21.6361
G01 X16.3155 Y21.6142
G01 X16.2973 Y21.5416
G01 X16.2929 Y21.5191
G01 X16.2819 Y21.4451
G01 X16.2796 Y21.4222
G01 X16.2757 Y21.3360
G01 X16.2757 Y20.7342
G00 X16.2757 Y20.7342
G01 F60.00
G01 Z-0.1200
G01 F60.00
G01 X16.2519 Y20.7021
G01 X16.2391 Y20.6830
G01 X16.1917 Y20.6039
G01 X16.1809 Y20.5836
G01 X16.1414 Y20.5003
G01 X16.1327 Y20.4791
G01 X16.1016 Y20.3922
G01 X16.0949 Y20.3703
G01 X16.0725 Y20.2808
G01 X16.0680 Y20.2583
G01 X16.0545 Y20.1670
G01 X16.0523 Y20.1442
G01 X16.0477 Y20.0521
G01 X16.0477 Y20.0291
G01 X16.0523 Y19.9370
G01 X16.0545 Y19.9142
G01 X16.0680 Y19.8229
G01 X16.0725 Y19.8004
G01 X16.0949 Y19.7109
G01 X16.1016 Y19.6890
G01 X16.1327 Y19.6021
G01 X16.1414 Y19.5809
G01 X16.1809 Y19.4976
G01 X16.1917 Y19.4773
G01 X16.2391 Y19.3982
G01 X16.2519 Y19.3791
G01 X16.3068 Y19.3050
G01 X16.3214 Y19.2873
G01 X16.3833 Y19.2189
G01 X16.3995 Y19.2027
G01 X16.4679 Y19.1408
G01 X16.4856 Y19.1262
G01 X16.5597 Y19.0713
G01 X16.5788 Y19.0585
G01 X16.6579 Y19.0111
G01 X16.6782 Y19.0003
G01 X16.7615 Y18.9608
G01 X16.7827 Y18.9521
G01 X16.8696 Y18.9210
G01 X16.8915 Y18.9143
G01 X16.9810 Y18.8919
G01 X17.0035 Y18.8874
G01 X17.0948 Y18.8739
G01 X17.1176 Y18.8717
G01 X17.2097 Y18.8671
G01 X17.2327 Y18.8671
G01 X17.3248 Y18.8717
G01 X17.3476 Y18.8739
G01 X17.4389 Y18.8874
G01 X17.4614 Y18.8919
G01 X17.5509 Y18.9143
G01 X17.5728 Y18.9210
G01 X17.6597 Y18.9521
G01 X17.6809 Y18.9608
G01 X17.7642 Y19.0003
G01 X17.7845 Y19.0111
G01 X17.8636 Y19.0585
G01 X17.8827 Y19.0713
G01 X17.9568 Y19.1262
G01 X17.9745 Y19.1408
G01 X18.0429 Y19.2027
G01 X18.0591 Y19.2189
G01 X18.1210 Y19.2873
G01 X18.1356 Y19.3050
G01 X18.1905 Y19.3791
G01 X18.2033 Y19.3982
G01 X18.2507 Y19.4773
G01 X18.2615 Y19.4976
G01 X18.3010 Y19.5809
G01 X18.3097 Y19.6021
G01 X18.3408 Y19.6890
G01 X18.3475 Y19.7109
G01 X18.3699 Y19.8004
G01 X18.3744 Y19.8229
G01 X18.3879 Y19.9142
G01 X18.3901 Y19.9370
G01 X18.3947 Y20.0291
G01 X18.3947 Y20.0521
G01 X18.3901 Y20.1442
G01 X18.3879 Y20.1670
G01 X18.3744 Y20.2583
G01 X18.3699 Y20.2808
G01 X18.3475 Y20.3703
G01 X18.3408 Y20.3922
G01 X18.3097 Y20.4791
G01 X18.3010 Y20.5003
G01 X18.2683 Y20.5692
G01 X18.2683 Y20.9233
G01 X22.3801 Y25.0351
G01 X22.4006 Y25.0242
G01 X22.4682 Y24.9922
G01 X22.4894 Y24.9834
G01 X22.5599 Y24.9582
G01 X22.5818 Y24.9515
G01 X22.6544 Y24.9333
G01 X22.6769 Y24.9289
G01 X22.7509 Y24.9179
G01 X22.7738 Y24.9156
G01 X22.8485 Y24.9120
G01 X22.8715 Y24.9120
G01 X22.9462 Y24.9156
G01 X22.9691 Y24.9179
G01 X23.0431 Y24.9289
G01 X23.0656 Y24.9333
G01 X23.1382 Y24.9515
G01 X23.1601 Y24.9582
G01 X23.2306 Y24.9834
G01 X23.2518 Y24.9922
G01 X23.3194 Y25.0242
G01 X23.3397 Y25.0350
G01 X23.4038 Y25.0734
G01 X23.4229 Y25.0862
G01 X23.4830 Y25.1308
G01 X23.5008 Y25.1453
G01 X23.5562 Y25.1956
G01 X23.5724 Y25.2118
G01 X23.6227 Y25.2672
G01 X23.6372 Y25.2850
G01 X23.6818 Y25.3451
G01 X23.6946 Y25.3642
G01 X23.7330 Y25.4283
G01 X23.7438 Y25.4486
G01 X23.7758 Y25.5162
G01 X23.7846 Y25.5374
G01 X23.8098 Y25.6079
G01 X23.8165 Y25.6298
G01 X23.8347 Y25.7024
G01 X23.8391 Y25.7249
G01 X23.8501 Y25.7989
G01 X23.8524 Y25.8218
G01 X23.8563 Y25.9080
G01 X23.8563 Y27.4320
G01 X23.8524 Y27.5182
G01 X23.8501 Y27.5411
G01 X23.8391 Y27.6151
G01 X23.8347 Y27.6376
G01 X23.8165 Y27.7102
G01 X23.8098 Y27.7321
G01 X23.7846 Y27.8026
G01 X23.7758 Y27.8238
G01 X23.7438 Y27.8914
G01 X23.7330 Y27.9117
G01 X23.6946 Y27.9758
G01 X23.6818 Y27.9949
G01 X23.6372 Y28.0550
G01 X23.6227 Y28.0728
G01 X23.5724 Y28.1282
G01 X23.5562 Y28.1444
G01 X23.5008 Y28.1947
G01 X23.4830 Y28.2092
G01 X23.4229 Y28.2538
G01 X23.4038 Y28.2666
G01 X23.3397 Y28.3050
G01 X23.3194 Y28.3158
G01 X23.2518 Y28.3478
G01 X23.2306 Y28.3566
G01 X23.1601 Y28.3818
G01 X23.1382 Y28.3885
G01 X23.0656 Y28.4067
G01 X23.0431 Y28.4111
G01 X22.9691 Y28.4221
G01 X22.9462 Y28.4244
G01 X22.8715 Y28.4280
G01 X22.8485 Y28.4280
G01 X22.7738 Y28.4244
G01 X22.7509 Y28.4221
G01 X22.6769 Y28.4111
G01 X22.6544 Y28.4067
G01 X22.5818 Y28.3885
G01 X22.5599 Y28.3818
G01 X22.4894 Y28.3566
G01 X22.4682 Y28.3478
G01 X22.4006 Y28.3158
G01 X22.3803 Y28.3050
G01 X22.3162 Y28.2666
G01 X22.2971 Y28.2538
G01 X22.2370 Y28.2092
G01 X22.2192 Y28.1947
G01 X22.1638 Y28.1444
G01 X22.1476 Y28.1282
G01 X22.0973 Y28.0728
G01 X22.0828 Y28.0550
G01 X22.0382 Y27.9949
G01 X22.0254 Y27.9758
G01 X21.9870 Y27.9117
G01 X21.9762 Y27.8914
G01 X21.9442 Y27.8238
G01 X21.9354 Y27.8026
G01 X21.9102 Y27.7321
G01 X21.9035 Y27.7102
G01 X21.8853 Y27.6376
G01 X21.8809 Y27.6151
G01 X21.8699 Y27.5411
G01 X21.8676 Y27.5182
G01 X21.8637 Y27.4320
G01 X21.8637 Y27.2838
G01 X21.8311 Y27.2651
G01 X21.8082 Y27.2506
G01 X21.7891 Y27.2378
G01 X21.7699 Y27.2236
G01 X21.7504 Y27.2099
G01 X21.7322 Y27.1958
G01 X21.7112 Y27.1787
G01 X21.6936 Y27.1627
G01 X21.6755 Y27.1471
G01 X21.6475 Y27.1205
G01 X16.5675 Y22.0405
G01 X16.5093 Y21.9768
G01 X16.4948 Y21.9590
G01 X16.4502 Y21.8989
G01 X16.4374 Y21.8798
G01 X16.3990 Y21.8157
G01 X16.3882 Y21.7954
G01 X16.3562 Y21.7278
G01 X16.3474 Y21.7066
G01 X16.3222 Y21.6361
G01 X16.3155 Y21.6142
G01 X16.2973 Y21.5416
G01 X16.2929 Y21.5191
G01 X16.2819 Y21.4451
G01 X16.2796 Y21.4222
G01 X16.2757 Y21.3360
G01 X16.2757 Y20.7342
G00 X16.2757 Y20.7342
G01 F60.00
G01 Z-0.1600
G01 F60.00
G01 X16.2519 Y20.7021
G01 X16.2391 Y20.6830
G01 X16.1917 Y20.6039
G01 X16.1809 Y20.5836
G01 X16.1414 Y20.5003
G01 X16.1327 Y20.4791
G01 X16.1016 Y20.3922
G01 X16.0949 Y20.3703
G01 X16.0725 Y20.2808
G01 X16.0680 Y20.2583
G01 X16.0545 Y20.1670
G01 X16.0523 Y20.1442
G01 X16.0477 Y20.0521
G01 X16.0477 Y20.0291
G01 X16.0523 Y19.9370
G01 X16.0545 Y19.9142
G01 X16.0680 Y19.8229
G01 X16.0725 Y19.8004
G01 X16.0949 Y19.7109
G01 X16.1016 Y19.6890
G01 X16.1327 Y19.6021
G01 X16.1414 Y19.5809
G01 X16.1809 Y19.4976
G01 X16.1917 Y19.4773
G01 X16.2391 Y19.3982
G01 X16.2519 Y19.3791
G01 X16.3068 Y19.3050
G01 X16.3214 Y19.2873
G01 X16.3833 Y19.2189
G01 X16.3995 Y19.2027
G01 X16.4679 Y19.1408
G01 X16.4856 Y19.1262
G01 X16.5597 Y19.0713
G01 X16.5788 Y19.0585
G01 X16.6579 Y19.0111
G01 X16.6782 Y19.0003
G01 X16.7615 Y18.9608
G01 X16.7827 Y18.9521
G01 X16.8696 Y18.9210
G01 X16.8915 Y18.9143
G01 X16.9810 Y18.8919
G01 X17.0035 Y18.8874
G01 X17.0948 Y18.8739
G01 X17.1176 Y18.8717
G01 X17.2097 Y18.8671
G01 X17.2327 Y18.8671
G01 X17.3248 Y18.8717
G01 X17.3476 Y18.8739
G01 X17.4389 Y18.8874
G01 X17.4614 Y18.8919
G01 X17.5509 Y18.9143
G01 X17.5728 Y18.9210
G01 X17.6597 Y18.9521
G01 X17.6809 Y18.9608
G01 X17.7642 Y19.0003
G01 X17.7845 Y19.0111
G01 X17.8636 Y19.0585
G01 X17.8827 Y19.0713
G01 X17.9568 Y19.1262
G01 X17.9745 Y19.1408
G01 X18.0429 Y19.2027
G01 X18.0591 Y19.2189
G01 X18.1210 Y19.2873
G01 X18.1356 Y19.3050
G01 X18.1905 Y19.3791
G01 X18.2033 Y19.3982
G01 X18.2507 Y19.4773
G01 X18.2615 Y19.4976
G01 X18.3010 Y19.5809
G01 X18.3097 Y19.6021
G01 X18.3408 Y19.6890
G01 X18.3475 Y19.7109
G01 X18.3699 Y19.8004
G01 X18.3744 Y19.8229
G01 X18.3879 Y19.9142
G01 X18.3901 Y19.9370
G01 X18.3947 Y20.0291
G01 X18.3947 Y20.0521
G01 X18.3901 Y20.1442
G01 X18.3879 Y20.1670
G01 X18.3744 Y20.2583
G01 X18.3699 Y20.2808
G01 X18.3475 Y20.3703
G01 X18.3408 Y20.3922
G01 X18.3097 Y20.4791
G01 X18.3010 Y20.5003
G01 X18.2683 Y20.5692
G01 X18.2683 Y20.9233
G01 X22.3801 Y25.0351
G01 X22.4006 Y25.0242
G01 X22.4682 Y24.9922
G01 X22.4894 Y24.9834
G01 X22.5599 Y24.9582
G01 X22.5818 Y24.9515
G01 X22.6544 Y24.9333
G01 X22.6769 Y24.9289
G01 X22.7509 Y24.9179
G01 X22.7738 Y24.9156
G01 X22.8485 Y24.9120
G01 X22.8715 Y24.9120
G01 X22.9462 Y24.9156
G01 X22.9691 Y24.9179
G01 X23.0431 Y24.9289
G01 X23.0656 Y24.9333
G01 X23.1382 Y24.9515
G01 X23.1601 Y24.9582
G01 X23.2306 Y24.9834
G01 X23.2518 Y24.9922
G01 X23.3194 Y25.0242
G01 X23.3397 Y25.0350
G01 X23.4038 Y25.0734
G01 X23.4229 Y25.0862
G01 X23.4830 Y25.1308
G01 X23.5008 Y25.1453
G01 X23.5562 Y25.1956
G01 X23.5724 Y25.2118
G01 X23.6227 Y25.2672
G01 X23.6372 Y25.2850
G01 X23.6818 Y25.3451
G01 X23.6946 Y25.3642
G01 X23.7330 Y25.4283
G01 X23.7438 Y25.4486
G01 X23.7758 Y25.5162
G01 X23.7846 Y25.5374
G01 X23.8098 Y25.6079
G01 X23.8165 Y25.6298
G01 X23.8347 Y25.7024
G01 X23.8391 Y25.7249
G01 X23.8501 Y25.7989
G01 X23.8524 Y25.8218
G01 X23.8563 Y25.9080
G01 X23.8563 Y27.4320
G01 X23.8524 Y27.5182
G01 X23.8501 Y27.5411
G01 X23.8391 Y27.6151
G01 X23.8347 Y27.6376
G01 X23.8165 Y27.7102
G01 X23.8098 Y27.7321
G01 X23.7846 Y27.8026
G01 X23.7758 Y27.8238
G01 X23.7438 Y27.8914
G01 X23.7330 Y27.9117
G01 X23.6946 Y27.9758
G01 X23.6818 Y27.9949
G01 X23.6372 Y28.0550
G01 X23.6227 Y28.0728
G01 X23.5724 Y28.1282
G01 X23.5562 Y28.1444
G01 X23.5008 Y28.1947
G01 X23.4830 Y28.2092
G01 X23.4229 Y28.2538
G01 X23.4038 Y28.2666
G01 X23.3397 Y28.3050
G01 X23.3194 Y28.3158
G01 X23.2518 Y28.3478
G01 X23.2306 Y28.3566
G01 X23.1601 Y28.3818
G01 X23.1382 Y28.3885
G01 X23.0656 Y28.4067
G01 X23.0431 Y28.4111
G01 X22.9691 Y28.4221
G01 X22.9462 Y28.4244
G01 X22.8715 Y28.4280
G01 X22.8485 Y28.4280
G01 X22.7738 Y28.4244
G01 X22.7509 Y28.4221
G01 X22.6769 Y28.4111
G01 X22.6544 Y28.4067
G01 X22.5818 Y28.3885
G01 X22.5599 Y28.3818
G01 X22.4894 Y28.3566
G01 X22.4682 Y28.3478
G01 X22.4006 Y28.3158
G01 X22.3803 Y28.3050
G01 X22.3162 Y28.2666
G01 X22.2971 Y28.2538
G01 X22.2370 Y28.2092
G01 X22.2192 Y28.1947
G01 X22.1638 Y28.1444
G01 X22.1476 Y28.1282
G01 X22.0973 Y28.0728
G01 X22.0828 Y28.0550
G01 X22.0382 Y27.9949
G01 X22.0254 Y27.9758
G01 X21.9870 Y27.9117
G01 X21.9762 Y27.8914
G01 X21.9442 Y27.8238
G01 X21.9354 Y27.8026
G01 X21.9102 Y27.7321
G01 X21.9035 Y27.7102
G01 X21.8853 Y27.6376
G01 X21.8809 Y27.6151
G01 X21.8699 Y27.5411
G01 X21.8676 Y27.5182
G01 X21.8637 Y27.4320
G01 X21.8637 Y27.2838
G01 X21.8311 Y27.2651
G01 X21.8082 Y27.2506
G01 X21.7891 Y27.2378
G01 X21.7699 Y27.2236
G01 X21.7504 Y27.2099
G01 X21.7322 Y27.1958
G01 X21.7112 Y27.1787
G01 X21.6936 Y27.1627
G01 X21.6755 Y27.1471
G01 X21.6475 Y27.1205
G01 X16.5675 Y22.0405
G01 X16.5093 Y21.9768
G01 X16.4948 Y21.9590
G01 X16.4502 Y21.8989
G01 X16.4374 Y21.8798
G01 X16.3990 Y21.8157
G01 X16.3882 Y21.7954
G01 X16.3562 Y21.7278
G01 X16.3474 Y21.7066
G01 X16.3222 Y21.6361
G01 X16.3155 Y21.6142
G01 X16.2973 Y21.5416
G01 X16.2929 Y21.5191
G01 X16.2819 Y21.4451
G01 X16.2796 Y21.4222
G01 X16.2757 Y21.3360
G01 X16.2757 Y20.7342
G00 X16.2757 Y20.7342
G01 F60.00
G01 Z-0.2000
G01 F60.00
G01 X16.2519 Y20.7021
G01 X16.2391 Y20.6830
G01 X16.1917 Y20.6039
G01 X16.1809 Y20.5836
G01 X16.1414 Y20.5003
G01 X16.1327 Y20.4791
G01 X16.1016 Y20.3922
G01 X16.0949 Y20.3703
G01 X16.0725 Y20.2808
G01 X16.0680 Y20.2583
G01 X16.0545 Y20.1670
G01 X16.0523 Y20.1442
G01 X16.0477 Y20.0521
G01 X16.0477 Y20.0291
G01 X16.0523 Y19.9370
G01 X16.0545 Y19.9142
G01 X16.0680 Y19.8229
G01 X16.0725 Y19.8004
G01 X16.0949 Y19.7109
G01 X16.1016 Y19.6890
G01 X16.1327 Y19.6021
G01 X16.1414 Y19.5809
G01 X16.1809 Y19.4976
G01 X16.1917 Y19.4773
G01 X16.2391 Y19.3982
G01 X16.2519 Y19.3791
G01 X16.3068 Y19.3050
G01 X16.3214 Y19.2873
G01 X16.3833 Y19.2189
G01 X16.3995 Y19.2027
G01 X16.4679 Y19.1408
G01 X16.4856 Y19.1262
G01 X16.5597 Y19.0713
G01 X16.5788 Y19.0585
G01 X16.6579 Y19.0111
G01 X16.6782 Y19.0003
G01 X16.7615 Y18.9608
G01 X16.7827 Y18.9521
G01 X16.8696 Y18.9210
G01 X16.8915 Y18.9143
G01 X16.9810 Y18.8919
G01 X17.0035 Y18.8874
G01 X17.0948 Y18.8739
G01 X17.1176 Y18.8717
G01 X17.2097 Y18.8671
G01 X17.2327 Y18.8671
G01 X17.3248 Y18.8717
G01 X17.3476 Y18.8739
G01 X17.4389 Y18.8874
G01 X17.4614 Y18.8919
G01 X17.5509 Y18.9143
G01 X17.5728 Y18.9210
G01 X17.6597 Y18.9521
G01 X17.6809 Y18.9608
G01 X17.7642 Y19.0003
G01 X17.7845 Y19.0111
G01 X17.8636 Y19.0585
G01 X17.8827 Y19.0713
G01 X17.9568 Y19.1262
G01 X17.9745 Y19.1408
G01 X18.0429 Y19.2027
G01 X18.0591 Y19.2189
G01 X18.1210 Y19.2873
G01 X18.1356 Y19.3050
G01 X18.1905 Y19.3791
G01 X18.2033 Y19.3982
G01 X18.2507 Y19.4773
G01 X18.2615 Y19.4976
G01 X18.3010 Y19.5809
G01 X18.3097 Y19.6021
G01 X18.3408 Y19.6890
G01 X18.3475 Y19.7109
G01 X18.3699 Y19.8004
G01 X18.3744 Y19.8229
G01 X18.3879 Y19.9142
G01 X18.3901 Y19.9370
G01 X18.3947 Y20.0291
G01 X18.3947 Y20.0521
G01 X18.3901 Y20.1442
G01 X18.3879 Y20.1670
G01 X18.3744 Y20.2583
G01 X18.3699 Y20.2808
G01 X18.3475 Y20.3703
G01 X18.3408 Y20.3922
G01 X18.3097 Y20.4791
G01 X18.3010 Y20.5003
G01 X18.2683 Y20.5692
G01 X18.2683 Y20.9233
G01 X22.3801 Y25.0351
G01 X22.4006 Y25.0242
G01 X22.4682 Y24.9922
G01 X22.4894 Y24.9834
G01 X22.5599 Y24.9582
G01 X22.5818 Y24.9515
G01 X22.6544 Y24.9333
G01 X22.6769 Y24.9289
G01 X22.7509 Y24.9179
G01 X22.7738 Y24.9156
G01 X22.8485 Y24.9120
G01 X22.8715 Y24.9120
G01 X22.9462 Y24.9156
G01 X22.9691 Y24.9179
G01 X23.0431 Y24.9289
G01 X23.0656 Y24.9333
G01 X23.1382 Y24.9515
G01 X23.1601 Y24.9582
G01 X23.2306 Y24.9834
G01 X23.2518 Y24.9922
G01 X23.3194 Y25.0242
G01 X23.3397 Y25.0350
G01 X23.4038 Y25.0734
G01 X23.4229 Y25.0862
G01 X23.4830 Y25.1308
G01 X23.5008 Y25.1453
G01 X23.5562 Y25.1956
G01 X23.5724 Y25.2118
G01 X23.6227 Y25.2672
G01 X23.6372 Y25.2850
G01 X23.6818 Y25.3451
G01 X23.6946 Y25.3642
G01 X23.7330 Y25.4283
G01 X23.7438 Y25.4486
G01 X23.7758 Y25.5162
G01 X23.7846 Y25.5374
G01 X23.8098 Y25.6079
G01 X23.8165 Y25.6298
G01 X23.8347 Y25.7024
G01 X23.8391 Y25.7249
G01 X23.8501 Y25.7989
G01 X23.8524 Y25.8218
G01 X23.8563 Y25.9080
G01 X23.8563 Y27.4320
G01 X23.8524 Y27.5182
G01 X23.8501 Y27.5411
G01 X23.8391 Y27.6151
G01 X23.8347 Y27.6376
G01 X23.8165 Y27.7102
G01 X23.8098 Y27.7321
G01 X23.7846 Y27.8026
G01 X23.7758 Y27.8238
G01 X23.7438 Y27.8914
G01 X23.7330 Y27.9117
G01 X23.6946 Y27.9758
G01 X23.6818 Y27.9949
G01 X23.6372 Y28.0550
G01 X23.6227 Y28.0728
G01 X23.5724 Y28.1282
G01 X23.5562 Y28.1444
G01 X23.5008 Y28.1947
G01 X23.4830 Y28.2092
G01 X23.4229 Y28.2538
G01 X23.4038 Y28.2666
G01 X23.3397 Y28.3050
G01 X23.3194 Y28.3158
G01 X23.2518 Y28.3478
G01 X23.2306 Y28.3566
G01 X23.1601 Y28.3818
G01 X23.1382 Y28.3885
G01 X23.0656 Y28.4067
G01 X23.0431 Y28.4111
G01 X22.9691 Y28.4221
G01 X22.9462 Y28.4244
G01 X22.8715 Y28.4280
G01 X22.8485 Y28.4280
G01 X22.7738 Y28.4244
G01 X22.7509 Y28.4221
G01 X22.6769 Y28.4111
G01 X22.6544 Y28.4067
G01 X22.5818 Y28.3885
G01 X22.5599 Y28.3818
G01 X22.4894 Y28.3566
G01 X22.4682 Y28.3478
G01 X22.4006 Y28.3158
G01 X22.3803 Y28.3050
G01 X22.3162 Y28.2666
G01 X22.2971 Y28.2538
G01 X22.2370 Y28.2092
G01 X22.2192 Y28.1947
G01 X22.1638 Y28.1444
G01 X22.1476 Y28.1282
G01 X22.0973 Y28.0728
G01 X22.0828 Y28.0550
G01 X22.0382 Y27.9949
G01 X22.0254 Y27.9758
G01 X21.9870 Y27.9117
G01 X21.9762 Y27.8914
G01 X21.9442 Y27.8238
G01 X21.9354 Y27.8026
G01 X21.9102 Y27.7321
G01 X21.9035 Y27.7102
G01 X21.8853 Y27.6376
G01 X21.8809 Y27.6151
G01 X21.8699 Y27.5411
G01 X21.8676 Y27.5182
G01 X21.8637 Y27.4320
G01 X21.8637 Y27.2838
G01 X21.8311 Y27.2651
G01 X21.8082 Y27.2506
G01 X21.7891 Y27.2378
G01 X21.7699 Y27.2236
G01 X21.7504 Y27.2099
G01 X21.7322 Y27.1958
G01 X21.7112 Y27.1787
G01 X21.6936 Y27.1627
G01 X21.6755 Y27.1471
G01 X21.6475 Y27.1205
G01 X16.5675 Y22.0405
G01 X16.5093 Y21.9768
G01 X16.4948 Y21.9590
G01 X16.4502 Y21.8989
G01 X16.4374 Y21.8798
G01 X16.3990 Y21.8157
G01 X16.3882 Y21.7954
G01 X16.3562 Y21.7278
G01 X16.3474 Y21.7066
G01 X16.3222 Y21.6361
G01 X16.3155 Y21.6142
G01 X16.2973 Y21.5416
G01 X16.2929 Y21.5191
G01 X16.2819 Y21.4451
G01 X16.2796 Y21.4222
G01 X16.2757 Y21.3360
G01 X16.2757 Y20.7342
G00 X16.2757 Y20.7342
G01 F60.00
G01 Z-0.2400
G01 F60.00
G01 X16.2519 Y20.7021
G01 X16.2391 Y20.6830
G01 X16.1917 Y20.6039
G01 X16.1809 Y20.5836
G01 X16.1414 Y20.5003
G01 X16.1327 Y20.4791
G01 X16.1016 Y20.3922
G01 X16.0949 Y20.3703
G01 X16.0725 Y20.2808
G01 X16.0680 Y20.2583
G01 X16.0545 Y20.1670
G01 X16.0523 Y20.1442
G01 X16.0477 Y20.0521
G01 X16.0477 Y20.0291
G01 X16.0523 Y19.9370
G01 X16.0545 Y19.9142
G01 X16.0680 Y19.8229
G01 X16.0725 Y19.8004
G01 X16.0949 Y19.7109
G01 X16.1016 Y19.6890
G01 X16.1327 Y19.6021
G01 X16.1414 Y19.5809
G01 X16.1809 Y19.4976
G01 X16.1917 Y19.4773
G01 X16.2391 Y19.3982
G01 X16.2519 Y19.3791
G01 X16.3068 Y19.3050
G01 X16.3214 Y19.2873
G01 X16.3833 Y19.2189
G01 X16.3995 Y19.2027
G01 X16.4679 Y19.1408
G01 X16.4856 Y19.1262
G01 X16.5597 Y19.0713
G01 X16.5788 Y19.0585
G01 X16.6579 Y19.0111
G01 X16.6782 Y19.0003
G01 X16.7615 Y18.9608
G01 X16.7827 Y18.9521
G01 X16.8696 Y18.9210
G01 X16.8915 Y18.9143
G01 X16.9810 Y18.8919
G01 X17.0035 Y18.8874
G01 X17.0948 Y18.8739
G01 X17.1176 Y18.8717
G01 X17.2097 Y18.8671
G01 X17.2327 Y18.8671
G01 X17.3248 Y18.8717
G01 X17.3476 Y18.8739
G01 X17.4389 Y18.8874
G01 X17.4614 Y18.8919
G01 X17.5509 Y18.9143
G01 X17.5728 Y18.9210
G01 X17.6597 Y18.9521
G01 X17.6809 Y18.9608
G01 X17.7642 Y19.0003
G01 X17.7845 Y19.0111
G01 X17.8636 Y19.0585
G01 X17.8827 Y19.0713
G01 X17.9568 Y19.1262
G01 X17.9745 Y19.1408
G01 X18.0429 Y19.2027
G01 X18.0591 Y19.2189
G01 X18.1210 Y19.2873
G01 X18.1356 Y19.3050
G01 X18.1905 Y19.3791
G01 X18.2033 Y19.3982
G01 X18.2507 Y19.4773
G01 X18.2615 Y19.4976
G01 X18.3010 Y19.5809
G01 X18.3097 Y19.6021
G01 X18.3408 Y19.6890
G01 X18.3475 Y19.7109
G01 X18.3699 Y19.8004
G01 X18.3744 Y19.8229
G01 X18.3879 Y19.9142
G01 X18.3901 Y19.9370
G01 X18.3947 Y20.0291
G01 X18.3947 Y20.0521
G01 X18.3901 Y20.1442
G01 X18.3879 Y20.1670
G01 X18.3744 Y20.2583
G01 X18.3699 Y20.2808
G01 X18.3475 Y20.3703
G01 X18.3408 Y20.3922
G01 X18.3097 Y20.4791
G01 X18.3010 Y20.5003
G01 X18.2683 Y20.5692
G01 X18.2683 Y20.9233
G01 X22.3801 Y25.0351
G01 X22.4006 Y25.0242
G01 X22.4682 Y24.9922
G01 X22.4894 Y24.9834
G01 X22.5599 Y24.9582
G01 X22.5818 Y24.9515
G01 X22.6544 Y24.9333
G01 X22.6769 Y24.9289
G01 X22.7509 Y24.9179
G01 X22.7738 Y24.9156
G01 X22.8485 Y24.9120
G01 X22.8715 Y24.9120
G01 X22.9462 Y24.9156
G01 X22.9691 Y24.9179
G01 X23.0431 Y24.9289
G01 X23.0656 Y24.9333
G01 X23.1382 Y24.9515
G01 X23.1601 Y24.9582
G01 X23.2306 Y24.9834
G01 X23.2518 Y24.9922
G01 X23.3194 Y25.0242
G01 X23.3397 Y25.0350
G01 X23.4038 Y25.0734
G01 X23.4229 Y25.0862
G01 X23.4830 Y25.1308
G01 X23.5008 Y25.1453
G01 X23.5562 Y25.1956
G01 X23.5724 Y25.2118
G01 X23.6227 Y25.2672
G01 X23.6372 Y25.2850
G01 X23.6818 Y25.3451
G01 X23.6946 Y25.3642
G01 X23.7330 Y25.4283
G01 X23.7438 Y25.4486
G01 X23.7758 Y25.5162
G01 X23.7846 Y25.5374
G01 X23.8098 Y25.6079
G01 X23.8165 Y25.6298
G01 X23.8347 Y25.7024
G01 X23.8391 Y25.7249
G01 X23.8501 Y25.7989
G01 X23.8524 Y25.8218
G01 X23.8563 Y25.9080
G01 X23.8563 Y27.4320
G01 X23.8524 Y27.5182
G01 X23.8501 Y27.5411
G01 X23.8391 Y27.6151
G01 X23.8347 Y27.6376
G01 X23.8165 Y27.7102
G01 X23.8098 Y27.7321
G01 X23.7846 Y27.8026
G01 X23.7758 Y27.8238
G01 X23.7438 Y27.8914
G01 X23.7330 Y27.9117
G01 X23.6946 Y27.9758
G01 X23.6818 Y27.9949
G01 X23.6372 Y28.0550
G01 X23.6227 Y28.0728
G01 X23.5724 Y28.1282
G01 X23.5562 Y28.1444
G01 X23.5008 Y28.1947
G01 X23.4830 Y28.2092
G01 X23.4229 Y28.2538
G01 X23.4038 Y28.2666
G01 X23.3397 Y28.3050
G01 X23.3194 Y28.3158
G01 X23.2518 Y28.3478
G01 X23.2306 Y28.3566
G01 X23.1601 Y28.3818
G01 X23.1382 Y28.3885
G01 X23.0656 Y28.4067
G01 X23.0431 Y28.4111
G01 X22.9691 Y28.4221
G01 X22.9462 Y28.4244
G01 X22.8715 Y28.4280
G01 X22.8485 Y28.4280
G01 X22.7738 Y28.4244
G01 X22.7509 Y28.4221
G01 X22.6769 Y28.4111
G01 X22.6544 Y28.4067
G01 X22.5818 Y28.3885
G01 X22.5599 Y28.3818
G01 X22.4894 Y28.3566
G01 X22.4682 Y28.3478
G01 X22.4006 Y28.3158
G01 X22.3803 Y28.3050
G01 X22.3162 Y28.2666
G01 X22.2971 Y28.2538
G01 X22.2370 Y28.2092
G01 X22.2192 Y28.1947
G01 X22.1638 Y28.1444
G01 X22.1476 Y28.1282
G01 X22.0973 Y28.0728
G01 X22.0828 Y28.0550
G01 X22.0382 Y27.9949
G01 X22.0254 Y27.9758
G01 X21.9870 Y27.9117
G01 X21.9762 Y27.8914
G01 X21.9442 Y27.8238
G01 X21.9354 Y27.8026
G01 X21.9102 Y27.7321
G01 X21.9035 Y27.7102
G01 X21.8853 Y27.6376
G01 X21.8809 Y27.6151
G01 X21.8699 Y27.5411
G01 X21.8676 Y27.5182
G01 X21.8637 Y27.4320
G01 X21.8637 Y27.2838
G01 X21.8311 Y27.2651
G01 X21.8082 Y27.2506
G01 X21.7891 Y27.2378
G01 X21.7699 Y27.2236
G01 X21.7504 Y27.2099
G01 X21.7322 Y27.1958
G01 X21.7112 Y27.1787
G01 X21.6936 Y27.1627
G01 X21.6755 Y27.1471
G01 X21.6475 Y27.1205
G01 X16.5675 Y22.0405
G01 X16.5093 Y21.9768
G01 X16.4948 Y21.9590
G01 X16.4502 Y21.8989
G01 X16.4374 Y21.8798
G01 X16.3990 Y21.8157
G01 X16.3882 Y21.7954
G01 X16.3562 Y21.7278
G01 X16.3474 Y21.7066
G01 X16.3222 Y21.6361
G01 X16.3155 Y21.6142
G01 X16.2973 Y21.5416
G01 X16.2929 Y21.5191
G01 X16.2819 Y21.4451
G01 X16.2796 Y21.4222
G01 X16.2757 Y21.3360
G01 X16.2757 Y20.7342
G00 X16.2757 Y20.7342
G01 F60.00
G01 Z-0.2800
G01 F60.00
G01 X16.2519 Y20.7021
G01 X16.2391 Y20.6830
G01 X16.1917 Y20.6039
G01 X16.1809 Y20.5836
G01 X16.1414 Y20.5003
G01 X16.1327 Y20.4791
G01 X16.1016 Y20.3922
G01 X16.0949 Y20.3703
G01 X16.0725 Y20.2808
G01 X16.0680 Y20.2583
G01 X16.0545 Y20.1670
G01 X16.0523 Y20.1442
G01 X16.0477 Y20.0521
G01 X16.0477 Y20.0291
G01 X16.0523 Y19.9370
G01 X16.0545 Y19.9142
G01 X16.0680 Y19.8229
G01 X16.0725 Y19.8004
G01 X16.0949 Y19.7109
G01 X16.1016 Y19.6890
G01 X16.1327 Y19.6021
G01 X16.1414 Y19.5809
G01 X16.1809 Y19.4976
G01 X16.1917 Y19.4773
G01 X16.2391 Y19.3982
G01 X16.2519 Y19.3791
G01 X16.3068 Y19.3050
G01 X16.3214 Y19.2873
G01 X16.3833 Y19.2189
G01 X16.3995 Y19.2027
G01 X16.4679 Y19.1408
G01 X16.4856 Y19.1262
G01 X16.5597 Y19.0713
G01 X16.5788 Y19.0585
G01 X16.6579 Y19.0111
G01 X16.6782 Y19.0003
G01 X16.7615 Y18.9608
G01 X16.7827 Y18.9521
G01 X16.8696 Y18.9210
G01 X16.8915 Y18.9143
G01 X16.9810 Y18.8919
G01 X17.0035 Y18.8874
G01 X17.0948 Y18.8739
G01 X17.1176 Y18.8717
G01 X17.2097 Y18.8671
G01 X17.2327 Y18.8671
G01 X17.3248 Y18.8717
G01 X17.3476 Y18.8739
G01 X17.4389 Y18.8874
G01 X17.4614 Y18.8919
G01 X17.5509 Y18.9143
G01 X17.5728 Y18.9210
G01 X17.6597 Y18.9521
G01 X17.6809 Y18.9608
G01 X17.7642 Y19.0003
G01 X17.7845 Y19.0111
G01 X17.8636 Y19.0585
G01 X17.8827 Y19.0713
G01 X17.9568 Y19.1262
G01 X17.9745 Y19.1408
G01 X18.0429 Y19.2027
G01 X18.0591 Y19.2189
G01 X18.1210 Y19.2873
G01 X18.1356 Y19.3050
G01 X18.1905 Y19.3791
G01 X18.2033 Y19.3982
G01 X18.2507 Y19.4773
G01 X18.2615 Y19.4976
G01 X18.3010 Y19.5809
G01 X18.3097 Y19.6021
G01 X18.3408 Y19.6890
G01 X18.3475 Y19.7109
G01 X18.3699 Y19.8004
G01 X18.3744 Y19.8229
G01 X18.3879 Y19.9142
G01 X18.3901 Y19.9370
G01 X18.3947 Y20.0291
G01 X18.3947 Y20.0521
G01 X18.3901 Y20.1442
G01 X18.3879 Y20.1670
G01 X18.3744 Y20.2583
G01 X18.3699 Y20.2808
G01 X18.3475 Y20.3703
G01 X18.3408 Y20.3922
G01 X18.3097 Y20.4791
G01 X18.3010 Y20.5003
G01 X18.2683 Y20.5692
G01 X18.2683 Y20.9233
G01 X22.3801 Y25.0351
G01 X22.4006 Y25.0242
G01 X22.4682 Y24.9922
G01 X22.4894 Y24.9834
G01 X22.5599 Y24.9582
G01 X22.5818 Y24.9515
G01 X22.6544 Y24.9333
G01 X22.6769 Y24.9289
G01 X22.7509 Y24.9179
G01 X22.7738 Y24.9156
G01 X22.8485 Y24.9120
G01 X22.8715 Y24.9120
G01 X22.9462 Y24.9156
G01 X22.9691 Y24.9179
G01 X23.0431 Y24.9289
G01 X23.0656 Y24.9333
G01 X23.1382 Y24.9515
G01 X23.1601 Y24.9582
G01 X23.2306 Y24.9834
G01 X23.2518 Y24.9922
G01 X23.3194 Y25.0242
G01 X23.3397 Y25.0350
G01 X23.4038 Y25.0734
G01 X23.4229 Y25.0862
G01 X23.4830 Y25.1308
G01 X23.5008 Y25.1453
G01 X23.5562 Y25.1956
G01 X23.5724 Y25.2118
G01 X23.6227 Y25.2672
G01 X23.6372 Y25.2850
G01 X23.6818 Y25.3451
G01 X23.6946 Y25.3642
G01 X23.7330 Y25.4283
G01 X23.7438 Y25.4486
G01 X23.7758 Y25.5162
G01 X23.7846 Y25.5374
G01 X23.8098 Y25.6079
G01 X23.8165 Y25.6298
G01 X23.8347 Y25.7024
G01 X23.8391 Y25.7249
G01 X23.8501 Y25.7989
G01 X23.8524 Y25.8218
G01 X23.8563 Y25.9080
G01 X23.8563 Y27.4320
G01 X23.8524 Y27.5182
G01 X23.8501 Y27.5411
G01 X23.8391 Y27.6151
G01 X23.8347 Y27.6376
G01 X23.8165 Y27.7102
G01 X23.8098 Y27.7321
G01 X23.7846 Y27.8026
G01 X23.7758 Y27.8238
G01 X23.7438 Y27.8914
G01 X23.7330 Y27.9117
G01 X23.6946 Y27.9758
G01 X23.6818 Y27.9949
G01 X23.6372 Y28.0550
G01 X23.6227 Y28.0728
G01 X23.5724 Y28.1282
G01 X23.5562 Y28.1444
G01 X23.5008 Y28.1947
G01 X23.4830 Y28.2092
G01 X23.4229 Y28.2538
G01 X23.4038 Y28.2666
G01 X23.3397 Y28.3050
G01 X23.3194 Y28.3158
G01 X23.2518 Y28.3478
G01 X23.2306 Y28.3566
G01 X23.1601 Y28.3818
G01 X23.1382 Y28.3885
G01 X23.0656 Y28.4067
G01 X23.0431 Y28.4111
G01 X22.9691 Y28.4221
G01 X22.9462 Y28.4244
G01 X22.8715 Y28.4280
G01 X22.8485 Y28.4280
G01 X22.7738 Y28.4244
G01 X22.7509 Y28.4221
G01 X22.6769 Y28.4111
G01 X22.6544 Y28.4067
G01 X22.5818 Y28.3885
G01 X22.5599 Y28.3818
G01 X22.4894 Y28.3566
G01 X22.4682 Y28.3478
G01 X22.4006 Y28.3158
G01 X22.3803 Y28.3050
G01 X22.3162 Y28.2666
G01 X22.2971 Y28.2538
G01 X22.2370 Y28.2092
G01 X22.2192 Y28.1947
G01 X22.1638 Y28.1444
G01 X22.1476 Y28.1282
G01 X22.0973 Y28.0728
G01 X22.0828 Y28.0550
G01 X22.0382 Y27.9949
G01 X22.0254 Y27.9758
G01 X21.9870 Y27.9117
G01 X21.9762 Y27.8914
G01 X21.9442 Y27.8238
G01 X21.9354 Y27.8026
G01 X21.9102 Y27.7321
G01 X21.9035 Y27.7102
G01 X21.8853 Y27.6376
G01 X21.8809 Y27.6151
G01 X21.8699 Y27.5411
G01 X21.8676 Y27.5182
G01 X21.8637 Y27.4320
G01 X21.8637 Y27.2838
G01 X21.8311 Y27.2651
G01 X21.8082 Y27.2506
G01 X21.7891 Y27.2378
G01 X21.7699 Y27.2236
G01 X21.7504 Y27.2099
G01 X21.7322 Y27.1958
G01 X21.7112 Y27.1787
G01 X21.6936 Y27.1627
G01 X21.6755 Y27.1471
G01 X21.6475 Y27.1205
G01 X16.5675 Y22.0405
G01 X16.5093 Y21.9768
G01 X16.4948 Y21.9590
G01 X16.4502 Y21.8989
G01 X16.4374 Y21.8798
G01 X16.3990 Y21.8157
G01 X16.3882 Y21.7954
G01 X16.3562 Y21.7278
G01 X16.3474 Y21.7066
G01 X16.3222 Y21.6361
G01 X16.3155 Y21.6142
G01 X16.2973 Y21.5416
G01 X16.2929 Y21.5191
G01 X16.2819 Y21.4451
G01 X16.2796 Y21.4222
G01 X16.2757 Y21.3360
G01 X16.2757 Y20.7342
G00 X16.2757 Y20.7342
G01 F60.00
G01 Z-0.3000
G01 F60.00
G01 X16.2519 Y20.7021
G01 X16.2391 Y20.6830
G01 X16.1917 Y20.6039
G01 X16.1809 Y20.5836
G01 X16.1414 Y20.5003
G01 X16.1327 Y20.4791
G01 X16.1016 Y20.3922
G01 X16.0949 Y20.3703
G01 X16.0725 Y20.2808
G01 X16.0680 Y20.2583
G01 X16.0545 Y20.1670
G01 X16.0523 Y20.1442
G01 X16.0477 Y20.0521
G01 X16.0477 Y20.0291
G01 X16.0523 Y19.9370
G01 X16.0545 Y19.9142
G01 X16.0680 Y19.8229
G01 X16.0725 Y19.8004
G01 X16.0949 Y19.7109
G01 X16.1016 Y19.6890
G01 X16.1327 Y19.6021
G01 X16.1414 Y19.5809
G01 X16.1809 Y19.4976
G01 X16.1917 Y19.4773
G01 X16.2391 Y19.3982
G01 X16.2519 Y19.3791
G01 X16.3068 Y19.3050
G01 X16.3214 Y19.2873
G01 X16.3833 Y19.2189
G01 X16.3995 Y19.2027
G01 X16.4679 Y19.1408
G01 X16.4856 Y19.1262
G01 X16.5597 Y19.0713
G01 X16.5788 Y19.0585
G01 X16.6579 Y19.0111
G01 X16.6782 Y19.0003
G01 X16.7615 Y18.9608
G01 X16.7827 Y18.9521
G01 X16.8696 Y18.9210
G01 X16.8915 Y18.9143
G01 X16.9810 Y18.8919
G01 X17.0035 Y18.8874
G01 X17.0948 Y18.8739
G01 X17.1176 Y18.8717
G01 X17.2097 Y18.8671
G01 X17.2327 Y18.8671
G01 X17.3248 Y18.8717
G01 X17.3476 Y18.8739
G01 X17.4389 Y18.8874
G01 X17.4614 Y18.8919
G01 X17.5509 Y18.9143
G01 X17.5728 Y18.9210
G01 X17.6597 Y18.9521
G01 X17.6809 Y18.9608
G01 X17.7642 Y19.0003
G01 X17.7845 Y19.0111
G01 X17.8636 Y19.0585
G01 X17.8827 Y19.0713
G01 X17.9568 Y19.1262
G01 X17.9745 Y19.1408
G01 X18.0429 Y19.2027
G01 X18.0591 Y19.2189
G01 X18.1210 Y19.2873
G01 X18.1356 Y19.3050
G01 X18.1905 Y19.3791
G01 X18.2033 Y19.3982
G01 X18.2507 Y19.4773
G01 X18.2615 Y19.4976
G01 X18.3010 Y19.5809
G01 X18.3097 Y19.6021
G01 X18.3408 Y19.6890
G01 X18.3475 Y19.7109
G01 X18.3699 Y19.8004
G01 X18.3744 Y19.8229
G01 X18.3879 Y19.9142
G01 X18.3901 Y19.9370
G01 X18.3947 Y20.0291
G01 X18.3947 Y20.0521
G01 X18.3901 Y20.1442
G01 X18.3879 Y20.1670
G01 X18.3744 Y20.2583
G01 X18.3699 Y20.2808
G01 X18.3475 Y20.3703
G01 X18.3408 Y20.3922
G01 X18.3097 Y20.4791
G01 X18.3010 Y20.5003
G01 X18.2683 Y20.5692
G01 X18.2683 Y20.9233
G01 X22.3801 Y25.0351
G01 X22.4006 Y25.0242
G01 X22.4682 Y24.9922
G01 X22.4894 Y24.9834
G01 X22.5599 Y24.9582
G01 X22.5818 Y24.9515
G01 X22.6544 Y24.9333
G01 X22.6769 Y24.9289
G01 X22.7509 Y24.9179
G01 X22.7738 Y24.9156
G01 X22.8485 Y24.9120
G01 X22.8715 Y24.9120
G01 X22.9462 Y24.9156
G01 X22.9691 Y24.9179
G01 X23.0431 Y24.9289
G01 X23.0656 Y24.9333
G01 X23.1382 Y24.9515
G01 X23.1601 Y24.9582
G01 X23.2306 Y24.9834
G01 X23.2518 Y24.9922
G01 X23.3194 Y25.0242
G01 X23.3397 Y25.0350
G01 X23.4038 Y25.0734
G01 X23.4229 Y25.0862
G01 X23.4830 Y25.1308
G01 X23.5008 Y25.1453
G01 X23.5562 Y25.1956
G01 X23.5724 Y25.2118
G01 X23.6227 Y25.2672
G01 X23.6372 Y25.2850
G01 X23.6818 Y25.3451
G01 X23.6946 Y25.3642
G01 X23.7330 Y25.4283
G01 X23.7438 Y25.4486
G01 X23.7758 Y25.5162
G01 X23.7846 Y25.5374
G01 X23.8098 Y25.6079
G01 X23.8165 Y25.6298
G01 X23.8347 Y25.7024
G01 X23.8391 Y25.7249
G01 X23.8501 Y25.7989
G01 X23.8524 Y25.8218
G01 X23.8563 Y25.9080
G01 X23.8563 Y27.4320
G01 X23.8524 Y27.5182
G01 X23.8501 Y27.5411
G01 X23.8391 Y27.6151
G01 X23.8347 Y27.6376
G01 X23.8165 Y27.7102
G01 X23.8098 Y27.7321
G01 X23.7846 Y27.8026
G01 X23.7758 Y27.8238
G01 X23.7438 Y27.8914
G01 X23.7330 Y27.9117
G01 X23.6946 Y27.9758
G01 X23.6818 Y27.9949
G01 X23.6372 Y28.0550
G01 X23.6227 Y28.0728
G01 X23.5724 Y28.1282
G01 X23.5562 Y28.1444
G01 X23.5008 Y28.1947
G01 X23.4830 Y28.2092
G01 X23.4229 Y28.2538
G01 X23.4038 Y28.2666
G01 X23.3397 Y28.3050
G01 X23.3194 Y28.3158
G01 X23.2518 Y28.3478
G01 X23.2306 Y28.3566
G01 X23.1601 Y28.3818
G01 X23.1382 Y28.3885
G01 X23.0656 Y28.4067
G01 X23.0431 Y28.4111
G01 X22.9691 Y28.4221
G01 X22.9462 Y28.4244
G01 X22.8715 Y28.4280
G01 X22.8485 Y28.4280
G01 X22.7738 Y28.4244
G01 X22.7509 Y28.4221
G01 X22.6769 Y28.4111
G01 X22.6544 Y28.4067
G01 X22.5818 Y28.3885
G01 X22.5599 Y28.3818
G01 X22.4894 Y28.3566
G01 X22.4682 Y28.3478
G01 X22.4006 Y28.3158
G01 X22.3803 Y28.3050
G01 X22.3162 Y28.2666
G01 X22.2971 Y28.2538
G01 X22.2370 Y28.2092
G01 X22.2192 Y28.1947
G01 X22.1638 Y28.1444
G01 X22.1476 Y28.1282
G01 X22.0973 Y28.0728
G01 X22.0828 Y28.0550
G01 X22.0382 Y27.9949
G01 X22.0254 Y27.9758
G01 X21.9870 Y27.9117
G01 X21.9762 Y27.8914
G01 X21.9442 Y27.8238
G01 X21.9354 Y27.8026
G01 X21.9102 Y27.7321
G01 X21.9035 Y27.7102
G01 X21.8853 Y27.6376
G01 X21.8809 Y27.6151
G01 X21.8699 Y27.5411
G01 X21.8676 Y27.5182
G01 X21.8637 Y27.4320
G01 X21.8637 Y27.2838
G01 X21.8311 Y27.2651
G01 X21.8082 Y27.2506
G01 X21.7891 Y27.2378
G01 X21.7699 Y27.2236
G01 X21.7504 Y27.2099
G01 X21.7322 Y27.1958
G01 X21.7112 Y27.1787
G01 X21.6936 Y27.1627
G01 X21.6755 Y27.1471
G01 X21.6475 Y27.1205
G01 X16.5675 Y22.0405
G01 X16.5093 Y21.9768
G01 X16.4948 Y21.9590
G01 X16.4502 Y21.8989
G01 X16.4374 Y21.8798
G01 X16.3990 Y21.8157
G01 X16.3882 Y21.7954
G01 X16.3562 Y21.7278
G01 X16.3474 Y21.7066
G01 X16.3222 Y21.6361
G01 X16.3155 Y21.6142
G01 X16.2973 Y21.5416
G01 X16.2929 Y21.5191
G01 X16.2819 Y21.4451
G01 X16.2796 Y21.4222
G01 X16.2757 Y21.3360
G01 X16.2757 Y20.7342
G00 Z0.3608
G00 X16.5407 Y14.5642
G01 F60.00
G01 Z-0.0400
G01 F60.00
G01 X16.5482 Y14.5557
G01 X16.5758 Y14.5276
G01 X16.6187 Y14.4880
G01 X16.6490 Y14.4628
G01 X16.6956 Y14.4276
G01 X16.7282 Y14.4054
G01 X16.7780 Y14.3750
G01 X16.8126 Y14.3562
G01 X16.8652 Y14.3308
G01 X16.9014 Y14.3154
G01 X16.9563 Y14.2953
G01 X16.9938 Y14.2835
G01 X17.0504 Y14.2689
G01 X17.0889 Y14.2609
G01 X17.1466 Y14.2518
G01 X17.1858 Y14.2476
G01 X17.2441 Y14.2443
G01 X17.2720 Y14.2437
G01 X28.0353 Y14.2437
G01 X28.7595 Y13.5195
G01 X28.8232 Y13.4613
G01 X28.8410 Y13.4468
G01 X28.9011 Y13.4022
G01 X28.9202 Y13.3894
G01 X28.9843 Y13.3510
G01 X29.0046 Y13.3402
G01 X29.0722 Y13.3082
G01 X29.0934 Y13.2994
G01 X29.1639 Y13.2742
G01 X29.1858 Y13.2675
G01 X29.2584 Y13.2493
G01 X29.2809 Y13.2449
G01 X29.3549 Y13.2339
G01 X29.3778 Y13.2316
G01 X29.4640 Y13.2277
G01 X31.4960 Y13.2277
G01 X31.5822 Y13.2316
G01 X31.6051 Y13.2339
G01 X31.6791 Y13.2449
G01 X31.7016 Y13.2493
G01 X31.7742 Y13.2675
G01 X31.7961 Y13.2742
G01 X31.8666 Y13.2994
G01 X31.8878 Y13.3082
G01 X31.9554 Y13.3402
G01 X31.9757 Y13.3510
G01 X32.0398 Y13.3894
G01 X32.0589 Y13.4022
G01 X32.1190 Y13.4468
G01 X32.1368 Y13.4613
G01 X32.2005 Y13.5195
G01 X34.2325 Y15.5515
G01 X34.2591 Y15.5795
G01 X34.2747 Y15.5976
G01 X34.2907 Y15.6152
G01 X34.3052 Y15.6330
G01 X34.3219 Y15.6544
G01 X34.3356 Y15.6739
G01 X34.3498 Y15.6931
G01 X34.3626 Y15.7122
G01 X34.3771 Y15.7351
G01 X34.3888 Y15.7559
G01 X34.4010 Y15.7763
G01 X34.4118 Y15.7966
G01 X34.4240 Y15.8208
G01 X34.4336 Y15.8427
G01 X34.4438 Y15.8642
G01 X34.4526 Y15.8854
G01 X34.4624 Y15.9107
G01 X34.4698 Y15.9334
G01 X34.4778 Y15.9559
G01 X34.4845 Y15.9778
G01 X34.4917 Y16.0040
G01 X34.4969 Y16.0273
G01 X34.5027 Y16.0504
G01 X34.5071 Y16.0729
G01 X34.5118 Y16.0997
G01 X34.5146 Y16.1233
G01 X34.5181 Y16.1469
G01 X34.5204 Y16.1698
G01 X34.5224 Y16.1968
G01 X34.5229 Y16.2207
G01 X34.5240 Y16.2445
G01 X34.5240 Y16.2675
G01 X34.5234 Y16.2946
G01 X34.5215 Y16.3184
G01 X34.5204 Y16.3422
G01 X34.5181 Y16.3651
G01 X34.5148 Y16.3920
G01 X34.5107 Y16.4155
G01 X34.5071 Y16.4391
G01 X34.5027 Y16.4616
G01 X34.4967 Y16.4880
G01 X34.4903 Y16.5110
G01 X34.4845 Y16.5342
G01 X34.4778 Y16.5561
G01 X34.4693 Y16.5819
G01 X34.4607 Y16.6041
G01 X34.4526 Y16.6266
G01 X34.4438 Y16.6478
G01 X34.4328 Y16.6726
G01 X34.4220 Y16.6938
G01 X34.4118 Y16.7154
G01 X34.4010 Y16.7357
G01 X34.3876 Y16.7592
G01 X34.3748 Y16.7794
G01 X34.3626 Y16.7998
G01 X34.3498 Y16.8189
G01 X34.3342 Y16.8411
G01 X34.3195 Y16.8599
G01 X34.3052 Y16.8790
G01 X34.2907 Y16.8968
G01 X34.2729 Y16.9173
G01 X34.2565 Y16.9345
G01 X34.2404 Y16.9522
G01 X34.2242 Y16.9684
G01 X34.2045 Y16.9871
G01 X34.1864 Y17.0027
G01 X34.1688 Y17.0187
G01 X34.1510 Y17.0332
G01 X34.1296 Y17.0499
G01 X34.1101 Y17.0636
G01 X34.0909 Y17.0778
G01 X34.0718 Y17.0906
G01 X34.0489 Y17.1051
G01 X34.0208 Y17.1211
G01 X34.0021 Y17.1524
G01 X33.9893 Y17.1715
G01 X33.9344 Y17.2456
G01 X33.9198 Y17.2633
G01 X33.8579 Y17.3317
G01 X33.8417 Y17.3479
G01 X33.7733 Y17.4098
G01 X33.7556 Y17.4244
G01 X33.6815 Y17.4793
G01 X33.6624 Y17.4921
G01 X33.5833 Y17.5395
G01 X33.5630 Y17.5503
G01 X33.4797 Y17.5898
G01 X33.4585 Y17.5985
G01 X33.3716 Y17.6296
G01 X33.3497 Y17.6363
G01 X33.2602 Y17.6587
G01 X33.2377 Y17.6632
G01 X33.1464 Y17.6767
G01 X33.1236 Y17.6789
G01 X33.0315 Y17.6835
G01 X33.0085 Y17.6835
G01 X32.9164 Y17.6789
G01 X32.8936 Y17.6767
G01 X32.8023 Y17.6632
G01 X32.7798 Y17.6587
G01 X32.6903 Y17.6363
G01 X32.6684 Y17.6296
G01 X32.5815 Y17.5985
G01 X32.5603 Y17.5898
G01 X32.4770 Y17.5503
G01 X32.4567 Y17.5395
G01 X32.3776 Y17.4921
G01 X32.3585 Y17.4793
G01 X32.2844 Y17.4244
G01 X32.2667 Y17.4098
G01 X32.1983 Y17.3479
G01 X32.1821 Y17.3317
G01 X32.1202 Y17.2633
G01 X32.1056 Y17.2456
G01 X32.0507 Y17.1715
G01 X32.0379 Y17.1524
G01 X31.9905 Y17.0733
G01 X31.9797 Y17.0530
G01 X31.9402 Y16.9697
G01 X31.9315 Y16.9485
G01 X31.9004 Y16.8616
G01 X31.8937 Y16.8397
G01 X31.8713 Y16.7502
G01 X31.8668 Y16.7277
G01 X31.8533 Y16.6364
G01 X31.8511 Y16.6136
G01 X31.8465 Y16.5215
G01 X31.8465 Y16.4985
G01 X31.8511 Y16.4064
G01 X31.8533 Y16.3836
G01 X31.8668 Y16.2923
G01 X31.8713 Y16.2698
G01 X31.8937 Y16.1803
G01 X31.9004 Y16.1584
G01 X31.9324 Y16.0694
G01 X31.0833 Y15.2203
G01 X29.8767 Y15.2203
G01 X29.1525 Y15.9445
G01 X29.0888 Y16.0027
G01 X29.0710 Y16.0172
G01 X29.0109 Y16.0618
G01 X28.9918 Y16.0746
G01 X28.9277 Y16.1130
G01 X28.9074 Y16.1238
G01 X28.8398 Y16.1558
G01 X28.8186 Y16.1646
G01 X28.7481 Y16.1898
G01 X28.7262 Y16.1965
G01 X28.6536 Y16.2147
G01 X28.6311 Y16.2191
G01 X28.5571 Y16.2301
G01 X28.5342 Y16.2324
G01 X28.4480 Y16.2363
G01 X18.1494 Y16.2363
G01 X18.1356 Y16.2550
G01 X18.1210 Y16.2727
G01 X18.0591 Y16.3411
G01 X18.0429 Y16.3573
G01 X17.9745 Y16.4192
G01 X17.9568 Y16.4338
G01 X17.8827 Y16.4887
G01 X17.8636 Y16.5015
G01 X17.7845 Y16.5489
G01 X17.7642 Y16.5597
G01 X17.6809 Y16.5992
G01 X17.6597 Y16.6079
G01 X17.5728 Y16.6390
G01 X17.5509 Y16.6457
G01 X17.4614 Y16.6681
G01 X17.4389 Y16.6726
G01 X17.3476 Y16.6861
G01 X17.3248 Y16.6883
G01 X17.2327 Y16.6929
G01 X17.2097 Y16.6929
G01 X17.1176 Y16.6883
G01 X17.0948 Y16.6861
G01 X17.0035 Y16.6726
G01 X16.9810 Y16.6681
G01 X16.8915 Y16.6457
G01 X16.8696 Y16.6390
G01 X16.7827 Y16.6079
G01 X16.7615 Y16.5992
G01 X16.6782 Y16.5597
G01 X16.6579 Y16.5489
G01 X16.5788 Y16.5015
G01 X16.5597 Y16.4887
G01 X16.4856 Y16.4338
G01 X16.4679 Y16.4192
G01 X16.3995 Y16.3573
G01 X16.3833 Y16.3411
G01 X16.3214 Y16.2727
G01 X16.3068 Y16.2550
G01 X16.2519 Y16.1809
G01 X16.2391 Y16.1618
G01 X16.1917 Y16.0827
G01 X16.1809 Y16.0624
G01 X16.1414 Y15.9791
G01 X16.1327 Y15.9579
G01 X16.1016 Y15.8710
G01 X16.0949 Y15.8491
G01 X16.0725 Y15.7596
G01 X16.0680 Y15.7371
G01 X16.0545 Y15.6458
G01 X16.0523 Y15.6230
G01 X16.0477 Y15.5309
G01 X16.0477 Y15.5079
G01 X16.0523 Y15.4158
G01 X16.0545 Y15.3930
G01 X16.0680 Y15.3017
G01 X16.0725 Y15.2792
G01 X16.0949 Y15.1897
G01 X16.1016 Y15.1678
G01 X16.1327 Y15.0809
G01 X16.1414 Y15.0597
G01 X16.1809 Y14.9764
G01 X16.1917 Y14.9561
G01 X16.2391 Y14.8770
G01 X16.2519 Y14.8579
G01 X16.3068 Y14.7838
G01 X16.3214 Y14.7661
G01 X16.3833 Y14.6977
G01 X16.3995 Y14.6815
G01 X16.4679 Y14.6196
G01 X16.4856 Y14.6050
G01 X16.5407 Y14.5642
G00 X16.5407 Y14.5642
G01 F60.00
G01 Z-0.0800
G01 F60.00
G01 X16.5482 Y14.5557
G01 X16.5758 Y14.5276
G01 X16.6187 Y14.4880
G01 X16.6490 Y14.4628
G01 X16.6956 Y14.4276
G01 X16.7282 Y14.4054
G01 X16.7780 Y14.3750
G01 X16.8126 Y14.3562
G01 X16.8652 Y14.3308
G01 X16.9014 Y14.3154
G01 X16.9563 Y14.2953
G01 X16.9938 Y14.2835
G01 X17.0504 Y14.2689
G01 X17.0889 Y14.2609
G01 X17.1466 Y14.2518
G01 X17.1858 Y14.2476
G01 X17.2441 Y14.2443
G01 X17.2720 Y14.2437
G01 X28.0353 Y14.2437
G01 X28.7595 Y13.5195
G01 X28.8232 Y13.4613
G01 X28.8410 Y13.4468
G01 X28.9011 Y13.4022
G01 X28.9202 Y13.3894
G01 X28.9843 Y13.3510
G01 X29.0046 Y13.3402
G01 X29.0722 Y13.3082
G01 X29.0934 Y13.2994
G01 X29.1639 Y13.2742
G01 X29.1858 Y13.2675
G01 X29.2584 Y13.2493
G01 X29.2809 Y13.2449
G01 X29.3549 Y13.2339
G01 X29.3778 Y13.2316
G01 X29.4640 Y13.2277
G01 X31.4960 Y13.2277
G01 X31.5822 Y13.2316
G01 X31.6051 Y13.2339
G01 X31.6791 Y13.2449
G01 X31.7016 Y13.2493
G01 X31.7742 Y13.2675
G01 X31.7961 Y13.2742
G01 X31.8666 Y13.2994
G01 X31.8878 Y13.3082
G01 X31.9554 Y13.3402
G01 X31.9757 Y13.3510
G01 X32.0398 Y13.3894
G01 X32.0589 Y13.4022
G01 X32.1190 Y13.4468
G01 X32.1368 Y13.4613
G01 X32.2005 Y13.5195
G01 X34.2325 Y15.5515
G01 X34.2591 Y15.5795
G01 X34.2747 Y15.5976
G01 X34.2907 Y15.6152
G01 X34.3052 Y15.6330
G01 X34.3219 Y15.6544
G01 X34.3356 Y15.6739
G01 X34.3498 Y15.6931
G01 X34.3626 Y15.7122
G01 X34.3771 Y15.7351
G01 X34.3888 Y15.7559
G01 X34.4010 Y15.7763
G01 X34.4118 Y15.7966
G01 X34.4240 Y15.8208
G01 X34.4336 Y15.8427
G01 X34.4438 Y15.8642
G01 X34.4526 Y15.8854
G01 X34.4624 Y15.9107
G01 X34.4698 Y15.9334
G01 X34.4778 Y15.9559
G01 X34.4845 Y15.9778
G01 X34.4917 Y16.0040
G01 X34.4969 Y16.0273
G01 X34.5027 Y16.0504
G01 X34.5071 Y16.0729
G01 X34.5118 Y16.0997
G01 X34.5146 Y16.1233
G01 X34.5181 Y16.1469
G01 X34.5204 Y16.1698
G01 X34.5224 Y16.1968
G01 X34.5229 Y16.2207
G01 X34.5240 Y16.2445
G01 X34.5240 Y16.2675
G01 X34.5234 Y16.2946
G01 X34.5215 Y16.3184
G01 X34.5204 Y16.3422
G01 X34.5181 Y16.3651
G01 X34.5148 Y16.3920
G01 X34.5107 Y16.4155
G01 X34.5071 Y16.4391
G01 X34.5027 Y16.4616
G01 X34.4967 Y16.4880
G01 X34.4903 Y16.5110
G01 X34.4845 Y16.5342
G01 X34.4778 Y16.5561
G01 X34.4693 Y16.5819
G01 X34.4607 Y16.6041
G01 X34.4526 Y16.6266
G01 X34.4438 Y16.6478
G01 X34.4328 Y16.6726
G01 X34.4220 Y16.6938
G01 X34.4118 Y16.7154
G01 X34.4010 Y16.7357
G01 X34.3876 Y16.7592
G01 X34.3748 Y16.7794
G01 X34.3626 Y16.7998
G01 X34.3498 Y16.8189
G01 X34.3342 Y16.8411
G01 X34.3195 Y16.8599
G01 X34.3052 Y16.8790
G01 X34.2907 Y16.8968
G01 X34.2729 Y16.9173
G01 X34.2565 Y16.9345
G01 X34.2404 Y16.9522
G01 X34.2242 Y16.9684
G01 X34.2045 Y16.9871
G01 X34.1864 Y17.0027
G01 X34.1688 Y17.0187
G01 X34.1510 Y17.0332
G01 X34.1296 Y17.0499
G01 X34.1101 Y17.0636
G01 X34.0909 Y17.0778
G01 X34.0718 Y17.0906
G01 X34.0489 Y17.1051
G01 X34.0208 Y17.1211
G01 X34.0021 Y17.1524
G01 X33.9893 Y17.1715
G01 X33.9344 Y17.2456
G01 X33.9198 Y17.2633
G01 X33.8579 Y17.3317
G01 X33.8417 Y17.3479
G01 X33.7733 Y17.4098
G01 X33.7556 Y17.4244
G01 X33.6815 Y17.4793
G01 X33.6624 Y17.4921
G01 X33.5833 Y17.5395
G01 X33.5630 Y17.5503
G01 X33.4797 Y17.5898
G01 X33.4585 Y17.5985
G01 X33.3716 Y17.6296
G01 X33.3497 Y17.6363
G01 X33.2602 Y17.6587
G01 X33.2377 Y17.6632
G01 X33.1464 Y17.6767
G01 X33.1236 Y17.6789
G01 X33.0315 Y17.6835
G01 X33.0085 Y17.6835
G01 X32.9164 Y17.6789
G01 X32.8936 Y17.6767
G01 X32.8023 Y17.6632
G01 X32.7798 Y17.6587
G01 X32.6903 Y17.6363
G01 X32.6684 Y17.6296
G01 X32.5815 Y17.5985
G01 X32.5603 Y17.5898
G01 X32.4770 Y17.5503
G01 X32.4567 Y17.5395
G01 X32.3776 Y17.4921
G01 X32.3585 Y17.4793
G01 X32.2844 Y17.4244
G01 X32.2667 Y17.4098
G01 X32.1983 Y17.3479
G01 X32.1821 Y17.3317
G01 X32.1202 Y17.2633
G01 X32.1056 Y17.2456
G01 X32.0507 Y17.1715
G01 X32.0379 Y17.1524
G01 X31.9905 Y17.0733
G01 X31.9797 Y17.0530
G01 X31.9402 Y16.9697
G01 X31.9315 Y16.9485
G01 X31.9004 Y16.8616
G01 X31.8937 Y16.8397
G01 X31.8713 Y16.7502
G01 X31.8668 Y16.7277
G01 X31.8533 Y16.6364
G01 X31.8511 Y16.6136
G01 X31.8465 Y16.5215
G01 X31.8465 Y16.4985
G01 X31.8511 Y16.4064
G01 X31.8533 Y16.3836
G01 X31.8668 Y16.2923
G01 X31.8713 Y16.2698
G01 X31.8937 Y16.1803
G01 X31.9004 Y16.1584
G01 X31.9324 Y16.0694
G01 X31.0833 Y15.2203
G01 X29.8767 Y15.2203
G01 X29.1525 Y15.9445
G01 X29.0888 Y16.0027
G01 X29.0710 Y16.0172
G01 X29.0109 Y16.0618
G01 X28.9918 Y16.0746
G01 X28.9277 Y16.1130
G01 X28.9074 Y16.1238
G01 X28.8398 Y16.1558
G01 X28.8186 Y16.1646
G01 X28.7481 Y16.1898
G01 X28.7262 Y16.1965
G01 X28.6536 Y16.2147
G01 X28.6311 Y16.2191
G01 X28.5571 Y16.2301
G01 X28.5342 Y16.2324
G01 X28.4480 Y16.2363
G01 X18.1494 Y16.2363
G01 X18.1356 Y16.2550
G01 X18.1210 Y16.2727
G01 X18.0591 Y16.3411
G01 X18.0429 Y16.3573
G01 X17.9745 Y16.4192
G01 X17.9568 Y16.4338
G01 X17.8827 Y16.4887
G01 X17.8636 Y16.5015
G01 X17.7845 Y16.5489
G01 X17.7642 Y16.5597
G01 X17.6809 Y16.5992
G01 X17.6597 Y16.6079
G01 X17.5728 Y16.6390
G01 X17.5509 Y16.6457
G01 X17.4614 Y16.6681
G01 X17.4389 Y16.6726
G01 X17.3476 Y16.6861
G01 X17.3248 Y16.6883
G01 X17.2327 Y16.6929
G01 X17.2097 Y16.6929
G01 X17.1176 Y16.6883
G01 X17.0948 Y16.6861
G01 X17.0035 Y16.6726
G01 X16.9810 Y16.6681
G01 X16.8915 Y16.6457
G01 X16.8696 Y16.6390
G01 X16.7827 Y16.6079
G01 X16.7615 Y16.5992
G01 X16.6782 Y16.5597
G01 X16.6579 Y16.5489
G01 X16.5788 Y16.5015
G01 X16.5597 Y16.4887
G01 X16.4856 Y16.4338
G01 X16.4679 Y16.4192
G01 X16.3995 Y16.3573
G01 X16.3833 Y16.3411
G01 X16.3214 Y16.2727
G01 X16.3068 Y16.2550
G01 X16.2519 Y16.1809
G01 X16.2391 Y16.1618
G01 X16.1917 Y16.0827
G01 X16.1809 Y16.0624
G01 X16.1414 Y15.9791
G01 X16.1327 Y15.9579
G01 X16.1016 Y15.8710
G01 X16.0949 Y15.8491
G01 X16.0725 Y15.7596
G01 X16.0680 Y15.7371
G01 X16.0545 Y15.6458
G01 X16.0523 Y15.6230
G01 X16.0477 Y15.5309
G01 X16.0477 Y15.5079
G01 X16.0523 Y15.4158
G01 X16.0545 Y15.3930
G01 X16.0680 Y15.3017
G01 X16.0725 Y15.2792
G01 X16.0949 Y15.1897
G01 X16.1016 Y15.1678
G01 X16.1327 Y15.0809
G01 X16.1414 Y15.0597
G01 X16.1809 Y14.9764
G01 X16.1917 Y14.9561
G01 X16.2391 Y14.8770
G01 X16.2519 Y14.8579
G01 X16.3068 Y14.7838
G01 X16.3214 Y14.7661
G01 X16.3833 Y14.6977
G01 X16.3995 Y14.6815
G01 X16.4679 Y14.6196
G01 X16.4856 Y14.6050
G01 X16.5407 Y14.5642
G00 X16.5407 Y14.5642
G01 F60.00
G01 Z-0.1200
G01 F60.00
G01 X16.5482 Y14.5557
G01 X16.5758 Y14.5276
G01 X16.6187 Y14.4880
G01 X16.6490 Y14.4628
G01 X16.6956 Y14.4276
G01 X16.7282 Y14.4054
G01 X16.7780 Y14.3750
G01 X16.8126 Y14.3562
G01 X16.8652 Y14.3308
G01 X16.9014 Y14.3154
G01 X16.9563 Y14.2953
G01 X16.9938 Y14.2835
G01 X17.0504 Y14.2689
G01 X17.0889 Y14.2609
G01 X17.1466 Y14.2518
G01 X17.1858 Y14.2476
G01 X17.2441 Y14.2443
G01 X17.2720 Y14.2437
G01 X28.0353 Y14.2437
G01 X28.7595 Y13.5195
G01 X28.8232 Y13.4613
G01 X28.8410 Y13.4468
G01 X28.9011 Y13.4022
G01 X28.9202 Y13.3894
G01 X28.9843 Y13.3510
G01 X29.0046 Y13.3402
G01 X29.0722 Y13.3082
G01 X29.0934 Y13.2994
G01 X29.1639 Y13.2742
G01 X29.1858 Y13.2675
G01 X29.2584 Y13.2493
G01 X29.2809 Y13.2449
G01 X29.3549 Y13.2339
G01 X29.3778 Y13.2316
G01 X29.4640 Y13.2277
G01 X31.4960 Y13.2277
G01 X31.5822 Y13.2316
G01 X31.6051 Y13.2339
G01 X31.6791 Y13.2449
G01 X31.7016 Y13.2493
G01 X31.7742 Y13.2675
G01 X31.7961 Y13.2742
G01 X31.8666 Y13.2994
G01 X31.8878 Y13.3082
G01 X31.9554 Y13.3402
G01 X31.9757 Y13.3510
G01 X32.0398 Y13.3894
G01 X32.0589 Y13.4022
G01 X32.1190 Y13.4468
G01 X32.1368 Y13.4613
G01 X32.2005 Y13.5195
G01 X34.2325 Y15.5515
G01 X34.2591 Y15.5795
G01 X34.2747 Y15.5976
G01 X34.2907 Y15.6152
G01 X34.3052 Y15.6330
G01 X34.3219 Y15.6544
G01 X34.3356 Y15.6739
G01 X34.3498 Y15.6931
G01 X34.3626 Y15.7122
G01 X34.3771 Y15.7351
G01 X34.3888 Y15.7559
G01 X34.4010 Y15.7763
G01 X34.4118 Y15.7966
G01 X34.4240 Y15.8208
G01 X34.4336 Y15.8427
G01 X34.4438 Y15.8642
G01 X34.4526 Y15.8854
G01 X34.4624 Y15.9107
G01 X34.4698 Y15.9334
G01 X34.4778 Y15.9559
G01 X34.4845 Y15.9778
