(G-CODE GENERATED BY FLATCAM v8.991 - www.flatcam.org - Version Date: 2019/12/27)

(Name: copper_top.gbr_iso_cnc_1)
(Type: G-code from Geometry)
(Units: MM)

(Created on Monday, 19 June 2023 at 11:44)

(TOOL DIAMETER: 0.2536 mm)
(Feedrate: 120.0 mm/min)
(Feedrate_Z: 60.0 mm/min)
(Feedrate rapids 1500.0 mm/min)

(Z_Cut: -0.2 mm)
(DepthPerCut: 0.09 mm <=>3 passes)
(Z_Move: 2.0 mm)
(Z Toolchange: 15.0 mm)
(X,Y Toolchange: 0.0000, 0.0000 mm)
(Z Start: None mm)
(Z End: 5.0 mm)
(Steps per circle: 64)
(Preprocessor Geometry: default)

(X range:    1.1548 ...    8.7492  mm)
(Y range:    0.9742 ...   10.3210  mm)

(Spindle Speed: 65000 RPM)
G21
G90
G94

(Acceleration settings)
M204 P36000 T36000

(Rapid speed)
G00 F1200.00

(Auto leveling map probing)
G29 L0 R10 F0 B15 N6 N6

(Tool change)
M06

(Probing new tool)
G30

(Give chance for removing probing wires)
M06

(Zeroing Z-axis after probing)
G92 X0 Y0 Z0

G01 F120.00
G00 Z2.0000

M03 S65000
G00 X1.9851 Y3.0799
G01 F60.00
G01 Z-0.0900
G01 F120.00
G01 X6.9708 Y8.0655
G01 X6.9708 Y9.4320
G01 X6.9746 Y9.5129
G01 X6.9759 Y9.5253
G01 X6.9868 Y9.5993
G01 X6.9893 Y9.6115
G01 X7.0074 Y9.6841
G01 X7.0111 Y9.6960
G01 X7.0363 Y9.7665
G01 X7.0410 Y9.7780
G01 X7.0730 Y9.8456
G01 X7.0789 Y9.8566
G01 X7.1173 Y9.9207
G01 X7.1243 Y9.9311
G01 X7.1688 Y9.9912
G01 X7.1767 Y10.0008
G01 X7.2270 Y10.0562
G01 X7.2358 Y10.0650
G01 X7.2912 Y10.1153
G01 X7.3008 Y10.1232
G01 X7.3609 Y10.1677
G01 X7.3713 Y10.1747
G01 X7.4354 Y10.2131
G01 X7.4464 Y10.2190
G01 X7.5140 Y10.2510
G01 X7.5255 Y10.2557
G01 X7.5960 Y10.2809
G01 X7.6079 Y10.2846
G01 X7.6805 Y10.3027
G01 X7.6927 Y10.3052
G01 X7.7667 Y10.3161
G01 X7.7791 Y10.3174
G01 X7.8538 Y10.3210
G01 X7.8662 Y10.3210
G01 X7.9409 Y10.3174
G01 X7.9533 Y10.3161
G01 X8.0273 Y10.3052
G01 X8.0395 Y10.3027
G01 X8.1121 Y10.2846
G01 X8.1240 Y10.2809
G01 X8.1945 Y10.2557
G01 X8.2060 Y10.2510
G01 X8.2736 Y10.2190
G01 X8.2846 Y10.2131
G01 X8.3487 Y10.1747
G01 X8.3591 Y10.1677
G01 X8.4192 Y10.1232
G01 X8.4288 Y10.1153
G01 X8.4842 Y10.0650
G01 X8.4930 Y10.0562
G01 X8.5433 Y10.0008
G01 X8.5512 Y9.9912
G01 X8.5957 Y9.9311
G01 X8.6027 Y9.9207
G01 X8.6411 Y9.8566
G01 X8.6470 Y9.8456
G01 X8.6790 Y9.7780
G01 X8.6837 Y9.7665
G01 X8.7089 Y9.6960
G01 X8.7126 Y9.6841
G01 X8.7307 Y9.6115
G01 X8.7332 Y9.5993
G01 X8.7441 Y9.5253
G01 X8.7454 Y9.5129
G01 X8.7490 Y9.4382
G01 X8.7492 Y7.9080
G01 X8.7454 Y7.8271
G01 X8.7441 Y7.8147
G01 X8.7332 Y7.7407
G01 X8.7307 Y7.7285
G01 X8.7126 Y7.6559
G01 X8.7089 Y7.6440
G01 X8.6837 Y7.5735
G01 X8.6790 Y7.5620
G01 X8.6470 Y7.4944
G01 X8.6411 Y7.4834
G01 X8.6027 Y7.4193
G01 X8.5957 Y7.4089
G01 X8.5512 Y7.3488
G01 X8.5433 Y7.3392
G01 X8.4930 Y7.2838
G01 X8.4842 Y7.2750
G01 X8.4288 Y7.2247
G01 X8.4192 Y7.2168
G01 X8.3591 Y7.1723
G01 X8.3487 Y7.1653
G01 X8.2846 Y7.1269
G01 X8.2736 Y7.1210
G01 X8.2060 Y7.0890
G01 X8.1945 Y7.0843
G01 X8.1240 Y7.0591
G01 X8.1121 Y7.0554
G01 X8.0395 Y7.0373
G01 X8.0273 Y7.0348
G01 X7.9533 Y7.0239
G01 X7.9409 Y7.0226
G01 X7.8662 Y7.0190
G01 X7.8538 Y7.0190
G01 X7.7791 Y7.0226
G01 X7.7667 Y7.0239
G01 X7.6927 Y7.0348
G01 X7.6805 Y7.0373
G01 X7.6079 Y7.0554
G01 X7.5960 Y7.0591
G01 X7.5255 Y7.0843
G01 X7.5140 Y7.0890
G01 X7.4464 Y7.1210
G01 X7.4354 Y7.1269
G01 X7.3713 Y7.1653
G01 X7.3609 Y7.1723
G01 X7.3008 Y7.2168
G01 X7.2912 Y7.2247
G01 X7.2473 Y7.2645
G01 X2.8692 Y2.8865
G01 X2.8929 Y2.8689
G01 X2.9026 Y2.8610
G01 X2.9709 Y2.7991
G01 X2.9797 Y2.7903
G01 X3.0416 Y2.7220
G01 X3.0495 Y2.7123
G01 X3.1045 Y2.6383
G01 X3.1114 Y2.6279
G01 X3.1588 Y2.5488
G01 X3.1647 Y2.5378
G01 X3.2041 Y2.4545
G01 X3.2088 Y2.4430
G01 X3.2399 Y2.3561
G01 X3.2435 Y2.3442
G01 X3.2659 Y2.2548
G01 X3.2684 Y2.2426
G01 X3.2819 Y2.1513
G01 X3.2831 Y2.1389
G01 X3.2876 Y2.0468
G01 X3.2876 Y2.0344
G01 X3.2831 Y1.9423
G01 X3.2819 Y1.9299
G01 X3.2684 Y1.8386
G01 X3.2659 Y1.8264
G01 X3.2435 Y1.7370
G01 X3.2399 Y1.7251
G01 X3.2088 Y1.6382
G01 X3.2041 Y1.6267
G01 X3.1647 Y1.5434
G01 X3.1588 Y1.5324
G01 X3.1114 Y1.4533
G01 X3.1045 Y1.4429
G01 X3.0495 Y1.3689
G01 X3.0416 Y1.3592
G01 X2.9797 Y1.2909
G01 X2.9709 Y1.2821
G01 X2.9026 Y1.2202
G01 X2.8929 Y1.2123
G01 X2.8189 Y1.1573
G01 X2.8085 Y1.1504
G01 X2.7294 Y1.1030
G01 X2.7184 Y1.0971
G01 X2.6351 Y1.0577
G01 X2.6236 Y1.0530
G01 X2.5367 Y1.0219
G01 X2.5248 Y1.0183
G01 X2.4354 Y0.9959
G01 X2.4232 Y0.9934
G01 X2.3319 Y0.9799
G01 X2.3195 Y0.9787
G01 X2.2274 Y0.9742
G01 X2.2150 Y0.9742
G01 X2.1229 Y0.9787
G01 X2.1105 Y0.9799
G01 X2.0192 Y0.9934
G01 X2.0070 Y0.9959
G01 X1.9176 Y1.0183
G01 X1.9057 Y1.0219
G01 X1.8188 Y1.0530
G01 X1.8073 Y1.0577
G01 X1.7240 Y1.0971
G01 X1.7130 Y1.1030
G01 X1.6339 Y1.1504
G01 X1.6235 Y1.1573
G01 X1.5495 Y1.2123
G01 X1.5398 Y1.2202
G01 X1.4715 Y1.2821
G01 X1.4627 Y1.2909
G01 X1.4008 Y1.3592
G01 X1.3929 Y1.3689
G01 X1.3379 Y1.4429
G01 X1.3310 Y1.4533
G01 X1.2836 Y1.5324
G01 X1.2777 Y1.5434
G01 X1.2383 Y1.6267
G01 X1.2336 Y1.6382
G01 X1.2025 Y1.7251
G01 X1.1989 Y1.7370
G01 X1.1765 Y1.8264
G01 X1.1740 Y1.8386
G01 X1.1605 Y1.9299
G01 X1.1593 Y1.9423
G01 X1.1548 Y2.0344
G01 X1.1548 Y2.0468
G01 X1.1593 Y2.1389
G01 X1.1605 Y2.1513
G01 X1.1740 Y2.2426
G01 X1.1765 Y2.2548
G01 X1.1989 Y2.3442
G01 X1.2025 Y2.3561
G01 X1.2336 Y2.4430
G01 X1.2383 Y2.4545
G01 X1.2777 Y2.5378
G01 X1.2836 Y2.5488
G01 X1.3310 Y2.6279
G01 X1.3379 Y2.6383
G01 X1.3929 Y2.7123
G01 X1.4008 Y2.7220
G01 X1.4627 Y2.7903
G01 X1.4715 Y2.7991
G01 X1.5398 Y2.8610
G01 X1.5495 Y2.8689
G01 X1.6235 Y2.9239
G01 X1.6339 Y2.9308
G01 X1.7130 Y2.9782
G01 X1.7240 Y2.9841
G01 X1.8073 Y3.0235
G01 X1.8188 Y3.0282
G01 X1.9057 Y3.0593
G01 X1.9176 Y3.0629
G01 X1.9851 Y3.0799
G00 X1.9851 Y3.0799
G01 F60.00
G01 Z-0.1800
G01 F120.00
G01 X6.9708 Y8.0655
G01 X6.9708 Y9.4320
G01 X6.9746 Y9.5129
G01 X6.9759 Y9.5253
G01 X6.9868 Y9.5993
G01 X6.9893 Y9.6115
G01 X7.0074 Y9.6841
G01 X7.0111 Y9.6960
G01 X7.0363 Y9.7665
G01 X7.0410 Y9.7780
G01 X7.0730 Y9.8456
G01 X7.0789 Y9.8566
G01 X7.1173 Y9.9207
G01 X7.1243 Y9.9311
G01 X7.1688 Y9.9912
G01 X7.1767 Y10.0008
G01 X7.2270 Y10.0562
G01 X7.2358 Y10.0650
G01 X7.2912 Y10.1153
G01 X7.3008 Y10.1232
G01 X7.3609 Y10.1677
G01 X7.3713 Y10.1747
G01 X7.4354 Y10.2131
G01 X7.4464 Y10.2190
G01 X7.5140 Y10.2510
G01 X7.5255 Y10.2557
G01 X7.5960 Y10.2809
G01 X7.6079 Y10.2846
G01 X7.6805 Y10.3027
G01 X7.6927 Y10.3052
G01 X7.7667 Y10.3161
G01 X7.7791 Y10.3174
G01 X7.8538 Y10.3210
G01 X7.8662 Y10.3210
G01 X7.9409 Y10.3174
G01 X7.9533 Y10.3161
G01 X8.0273 Y10.3052
G01 X8.0395 Y10.3027
G01 X8.1121 Y10.2846
G01 X8.1240 Y10.2809
G01 X8.1945 Y10.2557
G01 X8.2060 Y10.2510
G01 X8.2736 Y10.2190
G01 X8.2846 Y10.2131
G01 X8.3487 Y10.1747
G01 X8.3591 Y10.1677
G01 X8.4192 Y10.1232
G01 X8.4288 Y10.1153
G01 X8.4842 Y10.0650
G01 X8.4930 Y10.0562
G01 X8.5433 Y10.0008
G01 X8.5512 Y9.9912
G01 X8.5957 Y9.9311
G01 X8.6027 Y9.9207
G01 X8.6411 Y9.8566
G01 X8.6470 Y9.8456
G01 X8.6790 Y9.7780
G01 X8.6837 Y9.7665
G01 X8.7089 Y9.6960
G01 X8.7126 Y9.6841
G01 X8.7307 Y9.6115
G01 X8.7332 Y9.5993
G01 X8.7441 Y9.5253
G01 X8.7454 Y9.5129
G01 X8.7490 Y9.4382
G01 X8.7492 Y7.9080
G01 X8.7454 Y7.8271
G01 X8.7441 Y7.8147
G01 X8.7332 Y7.7407
G01 X8.7307 Y7.7285
G01 X8.7126 Y7.6559
G01 X8.7089 Y7.6440
G01 X8.6837 Y7.5735
G01 X8.6790 Y7.5620
G01 X8.6470 Y7.4944
G01 X8.6411 Y7.4834
G01 X8.6027 Y7.4193
G01 X8.5957 Y7.4089
G01 X8.5512 Y7.3488
G01 X8.5433 Y7.3392
G01 X8.4930 Y7.2838
G01 X8.4842 Y7.2750
G01 X8.4288 Y7.2247
G01 X8.4192 Y7.2168
G01 X8.3591 Y7.1723
G01 X8.3487 Y7.1653
G01 X8.2846 Y7.1269
G01 X8.2736 Y7.1210
G01 X8.2060 Y7.0890
G01 X8.1945 Y7.0843
G01 X8.1240 Y7.0591
G01 X8.1121 Y7.0554
G01 X8.0395 Y7.0373
G01 X8.0273 Y7.0348
G01 X7.9533 Y7.0239
G01 X7.9409 Y7.0226
G01 X7.8662 Y7.0190
G01 X7.8538 Y7.0190
G01 X7.7791 Y7.0226
G01 X7.7667 Y7.0239
G01 X7.6927 Y7.0348
G01 X7.6805 Y7.0373
G01 X7.6079 Y7.0554
G01 X7.5960 Y7.0591
G01 X7.5255 Y7.0843
G01 X7.5140 Y7.0890
G01 X7.4464 Y7.1210
G01 X7.4354 Y7.1269
G01 X7.3713 Y7.1653
G01 X7.3609 Y7.1723
G01 X7.3008 Y7.2168
G01 X7.2912 Y7.2247
G01 X7.2473 Y7.2645
G01 X2.8692 Y2.8865
G01 X2.8929 Y2.8689
G01 X2.9026 Y2.8610
G01 X2.9709 Y2.7991
G01 X2.9797 Y2.7903
G01 X3.0416 Y2.7220
G01 X3.0495 Y2.7123
G01 X3.1045 Y2.6383
G01 X3.1114 Y2.6279
G01 X3.1588 Y2.5488
G01 X3.1647 Y2.5378
G01 X3.2041 Y2.4545
G01 X3.2088 Y2.4430
G01 X3.2399 Y2.3561
G01 X3.2435 Y2.3442
G01 X3.2659 Y2.2548
G01 X3.2684 Y2.2426
G01 X3.2819 Y2.1513
G01 X3.2831 Y2.1389
G01 X3.2876 Y2.0468
G01 X3.2876 Y2.0344
G01 X3.2831 Y1.9423
G01 X3.2819 Y1.9299
G01 X3.2684 Y1.8386
G01 X3.2659 Y1.8264
G01 X3.2435 Y1.7370
G01 X3.2399 Y1.7251
G01 X3.2088 Y1.6382
G01 X3.2041 Y1.6267
G01 X3.1647 Y1.5434
G01 X3.1588 Y1.5324
G01 X3.1114 Y1.4533
G01 X3.1045 Y1.4429
G01 X3.0495 Y1.3689
G01 X3.0416 Y1.3592
G01 X2.9797 Y1.2909
G01 X2.9709 Y1.2821
G01 X2.9026 Y1.2202
G01 X2.8929 Y1.2123
G01 X2.8189 Y1.1573
G01 X2.8085 Y1.1504
G01 X2.7294 Y1.1030
G01 X2.7184 Y1.0971
G01 X2.6351 Y1.0577
G01 X2.6236 Y1.0530
G01 X2.5367 Y1.0219
G01 X2.5248 Y1.0183
G01 X2.4354 Y0.9959
G01 X2.4232 Y0.9934
G01 X2.3319 Y0.9799
G01 X2.3195 Y0.9787
G01 X2.2274 Y0.9742
G01 X2.2150 Y0.9742
G01 X2.1229 Y0.9787
G01 X2.1105 Y0.9799
G01 X2.0192 Y0.9934
G01 X2.0070 Y0.9959
G01 X1.9176 Y1.0183
G01 X1.9057 Y1.0219
G01 X1.8188 Y1.0530
G01 X1.8073 Y1.0577
G01 X1.7240 Y1.0971
G01 X1.7130 Y1.1030
G01 X1.6339 Y1.1504
G01 X1.6235 Y1.1573
G01 X1.5495 Y1.2123
G01 X1.5398 Y1.2202
G01 X1.4715 Y1.2821
G01 X1.4627 Y1.2909
G01 X1.4008 Y1.3592
G01 X1.3929 Y1.3689
G01 X1.3379 Y1.4429
G01 X1.3310 Y1.4533
G01 X1.2836 Y1.5324
G01 X1.2777 Y1.5434
G01 X1.2383 Y1.6267
G01 X1.2336 Y1.6382
G01 X1.2025 Y1.7251
G01 X1.1989 Y1.7370
G01 X1.1765 Y1.8264
G01 X1.1740 Y1.8386
G01 X1.1605 Y1.9299
G01 X1.1593 Y1.9423
G01 X1.1548 Y2.0344
G01 X1.1548 Y2.0468
G01 X1.1593 Y2.1389
G01 X1.1605 Y2.1513
G01 X1.1740 Y2.2426
G01 X1.1765 Y2.2548
G01 X1.1989 Y2.3442
G01 X1.2025 Y2.3561
G01 X1.2336 Y2.4430
G01 X1.2383 Y2.4545
G01 X1.2777 Y2.5378
G01 X1.2836 Y2.5488
G01 X1.3310 Y2.6279
G01 X1.3379 Y2.6383
G01 X1.3929 Y2.7123
G01 X1.4008 Y2.7220
G01 X1.4627 Y2.7903
G01 X1.4715 Y2.7991
G01 X1.5398 Y2.8610
G01 X1.5495 Y2.8689
G01 X1.6235 Y2.9239
G01 X1.6339 Y2.9308
G01 X1.7130 Y2.9782
G01 X1.7240 Y2.9841
G01 X1.8073 Y3.0235
G01 X1.8188 Y3.0282
G01 X1.9057 Y3.0593
G01 X1.9176 Y3.0629
G01 X1.9851 Y3.0799
G00 X1.9851 Y3.0799
G01 F60.00
G01 Z-0.2000
G01 F120.00
G01 X6.9708 Y8.0655
G01 X6.9708 Y9.4320
G01 X6.9746 Y9.5129
G01 X6.9759 Y9.5253
G01 X6.9868 Y9.5993
G01 X6.9893 Y9.6115
G01 X7.0074 Y9.6841
G01 X7.0111 Y9.6960
G01 X7.0363 Y9.7665
G01 X7.0410 Y9.7780
G01 X7.0730 Y9.8456
G01 X7.0789 Y9.8566
G01 X7.1173 Y9.9207
G01 X7.1243 Y9.9311
G01 X7.1688 Y9.9912
G01 X7.1767 Y10.0008
G01 X7.2270 Y10.0562
G01 X7.2358 Y10.0650
G01 X7.2912 Y10.1153
G01 X7.3008 Y10.1232
G01 X7.3609 Y10.1677
G01 X7.3713 Y10.1747
G01 X7.4354 Y10.2131
G01 X7.4464 Y10.2190
G01 X7.5140 Y10.2510
G01 X7.5255 Y10.2557
G01 X7.5960 Y10.2809
G01 X7.6079 Y10.2846
G01 X7.6805 Y10.3027
G01 X7.6927 Y10.3052
G01 X7.7667 Y10.3161
G01 X7.7791 Y10.3174
G01 X7.8538 Y10.3210
G01 X7.8662 Y10.3210
G01 X7.9409 Y10.3174
G01 X7.9533 Y10.3161
G01 X8.0273 Y10.3052
G01 X8.0395 Y10.3027
G01 X8.1121 Y10.2846
G01 X8.1240 Y10.2809
G01 X8.1945 Y10.2557
G01 X8.2060 Y10.2510
G01 X8.2736 Y10.2190
G01 X8.2846 Y10.2131
G01 X8.3487 Y10.1747
G01 X8.3591 Y10.1677
G01 X8.4192 Y10.1232
G01 X8.4288 Y10.1153
G01 X8.4842 Y10.0650
G01 X8.4930 Y10.0562
G01 X8.5433 Y10.0008
G01 X8.5512 Y9.9912
G01 X8.5957 Y9.9311
G01 X8.6027 Y9.9207
G01 X8.6411 Y9.8566
G01 X8.6470 Y9.8456
G01 X8.6790 Y9.7780
G01 X8.6837 Y9.7665
G01 X8.7089 Y9.6960
G01 X8.7126 Y9.6841
G01 X8.7307 Y9.6115
G01 X8.7332 Y9.5993
G01 X8.7441 Y9.5253
G01 X8.7454 Y9.5129
G01 X8.7490 Y9.4382
G01 X8.7492 Y7.9080
G01 X8.7454 Y7.8271
G01 X8.7441 Y7.8147
G01 X8.7332 Y7.7407
G01 X8.7307 Y7.7285
G01 X8.7126 Y7.6559
G01 X8.7089 Y7.6440
G01 X8.6837 Y7.5735
G01 X8.6790 Y7.5620
G01 X8.6470 Y7.4944
G01 X8.6411 Y7.4834
G01 X8.6027 Y7.4193
G01 X8.5957 Y7.4089
G01 X8.5512 Y7.3488
G01 X8.5433 Y7.3392
G01 X8.4930 Y7.2838
G01 X8.4842 Y7.2750
G01 X8.4288 Y7.2247
G01 X8.4192 Y7.2168
G01 X8.3591 Y7.1723
G01 X8.3487 Y7.1653
G01 X8.2846 Y7.1269
G01 X8.2736 Y7.1210
G01 X8.2060 Y7.0890
G01 X8.1945 Y7.0843
G01 X8.1240 Y7.0591
G01 X8.1121 Y7.0554
G01 X8.0395 Y7.0373
G01 X8.0273 Y7.0348
G01 X7.9533 Y7.0239
G01 X7.9409 Y7.0226
G01 X7.8662 Y7.0190
G01 X7.8538 Y7.0190
G01 X7.7791 Y7.0226
G01 X7.7667 Y7.0239
G01 X7.6927 Y7.0348
G01 X7.6805 Y7.0373
G01 X7.6079 Y7.0554
G01 X7.5960 Y7.0591
G01 X7.5255 Y7.0843
G01 X7.5140 Y7.0890
G01 X7.4464 Y7.1210
G01 X7.4354 Y7.1269
G01 X7.3713 Y7.1653
G01 X7.3609 Y7.1723
G01 X7.3008 Y7.2168
G01 X7.2912 Y7.2247
G01 X7.2473 Y7.2645
G01 X2.8692 Y2.8865
G01 X2.8929 Y2.8689
G01 X2.9026 Y2.8610
G01 X2.9709 Y2.7991
G01 X2.9797 Y2.7903
G01 X3.0416 Y2.7220
G01 X3.0495 Y2.7123
G01 X3.1045 Y2.6383
G01 X3.1114 Y2.6279
G01 X3.1588 Y2.5488
G01 X3.1647 Y2.5378
G01 X3.2041 Y2.4545
G01 X3.2088 Y2.4430
G01 X3.2399 Y2.3561
G01 X3.2435 Y2.3442
G01 X3.2659 Y2.2548
G01 X3.2684 Y2.2426
G01 X3.2819 Y2.1513
G01 X3.2831 Y2.1389
G01 X3.2876 Y2.0468
G01 X3.2876 Y2.0344
G01 X3.2831 Y1.9423
G01 X3.2819 Y1.9299
G01 X3.2684 Y1.8386
G01 X3.2659 Y1.8264
G01 X3.2435 Y1.7370
G01 X3.2399 Y1.7251
G01 X3.2088 Y1.6382
G01 X3.2041 Y1.6267
G01 X3.1647 Y1.5434
G01 X3.1588 Y1.5324
G01 X3.1114 Y1.4533
G01 X3.1045 Y1.4429
G01 X3.0495 Y1.3689
G01 X3.0416 Y1.3592
G01 X2.9797 Y1.2909
G01 X2.9709 Y1.2821
G01 X2.9026 Y1.2202
G01 X2.8929 Y1.2123
G01 X2.8189 Y1.1573
G01 X2.8085 Y1.1504
G01 X2.7294 Y1.1030
G01 X2.7184 Y1.0971
G01 X2.6351 Y1.0577
G01 X2.6236 Y1.0530
G01 X2.5367 Y1.0219
G01 X2.5248 Y1.0183
G01 X2.4354 Y0.9959
G01 X2.4232 Y0.9934
G01 X2.3319 Y0.9799
G01 X2.3195 Y0.9787
G01 X2.2274 Y0.9742
G01 X2.2150 Y0.9742
G01 X2.1229 Y0.9787
G01 X2.1105 Y0.9799
G01 X2.0192 Y0.9934
G01 X2.0070 Y0.9959
G01 X1.9176 Y1.0183
G01 X1.9057 Y1.0219
G01 X1.8188 Y1.0530
G01 X1.8073 Y1.0577
G01 X1.7240 Y1.0971
G01 X1.7130 Y1.1030
G01 X1.6339 Y1.1504
G01 X1.6235 Y1.1573
G01 X1.5495 Y1.2123
G01 X1.5398 Y1.2202
G01 X1.4715 Y1.2821
G01 X1.4627 Y1.2909
G01 X1.4008 Y1.3592
G01 X1.3929 Y1.3689
G01 X1.3379 Y1.4429
G01 X1.3310 Y1.4533
G01 X1.2836 Y1.5324
G01 X1.2777 Y1.5434
G01 X1.2383 Y1.6267
G01 X1.2336 Y1.6382
G01 X1.2025 Y1.7251
G01 X1.1989 Y1.7370
G01 X1.1765 Y1.8264
G01 X1.1740 Y1.8386
G01 X1.1605 Y1.9299
G01 X1.1593 Y1.9423
G01 X1.1548 Y2.0344
G01 X1.1548 Y2.0468
G01 X1.1593 Y2.1389
G01 X1.1605 Y2.1513
G01 X1.1740 Y2.2426
G01 X1.1765 Y2.2548
G01 X1.1989 Y2.3442
G01 X1.2025 Y2.3561
G01 X1.2336 Y2.4430
G01 X1.2383 Y2.4545
G01 X1.2777 Y2.5378
G01 X1.2836 Y2.5488
G01 X1.3310 Y2.6279
G01 X1.3379 Y2.6383
G01 X1.3929 Y2.7123
G01 X1.4008 Y2.7220
G01 X1.4627 Y2.7903
G01 X1.4715 Y2.7991
G01 X1.5398 Y2.8610
G01 X1.5495 Y2.8689
G01 X1.6235 Y2.9239
G01 X1.6339 Y2.9308
G01 X1.7130 Y2.9782
G01 X1.7240 Y2.9841
G01 X1.8073 Y3.0235
G01 X1.8188 Y3.0282
G01 X1.9057 Y3.0593
G01 X1.9176 Y3.0629
G01 X1.9851 Y3.0799
G00 Z2.0000
M05
G00 Z2.0000
G00 Z5.00
G00 X0.0 Y0.0

