(G-CODE GENERATED BY FLATCAM v8.991 - www.flatcam.org - Version Date: 2019/12/27)

(Name: copper_top.gbr_iso_cnc_0.5mm_single_track_w_offset)
(Type: G-code from Geometry)
(Units: MM)

(Created on Thursday, 01 June 2023 at 13:46)

(TOOL DIAMETER: 0.2536 mm)
(Feedrate: 120.0 mm/min)
(Feedrate_Z: 60.0 mm/min)
(Feedrate rapids 1500.0 mm/min)

(Z_Cut: -0.2 mm)
(DepthPerCut: 0.09 mm <=>3 passes)
(Z_Move: 2.0 mm)
(Z Toolchange: 15.0 mm)
(X,Y Toolchange: 0.0000, 0.0000 mm)
(Z Start: None mm)
(Z End: 5.0 mm)
(Steps per circle: 64)
(Preprocessor Geometry: default)

(X range:   16.1548 ...   23.7492  mm)
(Y range:   18.9742 ...   28.3210  mm)

(Spindle Speed: 65000 RPM)
G21
G90
G94

(Acceleration settings)
M204 P36000 T36000

(Rapid speed)
G00 F1200.00

(Auto leveling map probing)
G29 L16 R24 F18 B29 N6 N6

(Tool change)
M06

(Probing new tool)
G30

(Give chance for removing probing wires)
M06

(Zeroing Z-axis after probing)
G92 X0 Y0 Z0


G01 F120.00
G00 Z2.0000

M03 S65000
G00 X16.9851 Y21.0799
G01 F60.00
G01 Z-0.0900
G01 F120.00
G01 X16.9176 Y21.0629
G01 X16.9057 Y21.0593
G01 X16.8188 Y21.0282
G01 X16.8073 Y21.0235
G01 X16.7240 Y20.9841
G01 X16.7130 Y20.9782
G01 X16.6339 Y20.9308
G01 X16.6235 Y20.9239
G01 X16.5495 Y20.8689
G01 X16.5398 Y20.8610
G01 X16.4715 Y20.7991
G01 X16.4627 Y20.7903
G01 X16.4008 Y20.7220
G01 X16.3929 Y20.7123
G01 X16.3379 Y20.6383
G01 X16.3310 Y20.6279
G01 X16.2836 Y20.5488
G01 X16.2777 Y20.5378
G01 X16.2383 Y20.4545
G01 X16.2336 Y20.4430
G01 X16.2025 Y20.3561
G01 X16.1989 Y20.3442
G01 X16.1765 Y20.2548
G01 X16.1740 Y20.2426
G01 X16.1605 Y20.1513
G01 X16.1593 Y20.1389
G01 X16.1548 Y20.0468
G01 X16.1548 Y20.0344
G01 X16.1593 Y19.9423
G01 X16.1605 Y19.9299
G01 X16.1740 Y19.8386
G01 X16.1765 Y19.8264
G01 X16.1989 Y19.7370
G01 X16.2025 Y19.7251
G01 X16.2336 Y19.6382
G01 X16.2383 Y19.6267
G01 X16.2777 Y19.5434
G01 X16.2836 Y19.5324
G01 X16.3310 Y19.4533
G01 X16.3379 Y19.4429
G01 X16.3929 Y19.3689
G01 X16.4008 Y19.3592
G01 X16.4627 Y19.2909
G01 X16.4715 Y19.2821
G01 X16.5398 Y19.2202
G01 X16.5495 Y19.2123
G01 X16.6235 Y19.1573
G01 X16.6339 Y19.1504
G01 X16.7130 Y19.1030
G01 X16.7240 Y19.0971
G01 X16.8073 Y19.0577
G01 X16.8188 Y19.0530
G01 X16.9057 Y19.0219
G01 X16.9176 Y19.0183
G01 X17.0070 Y18.9959
G01 X17.0192 Y18.9934
G01 X17.1105 Y18.9799
G01 X17.1229 Y18.9787
G01 X17.2150 Y18.9742
G01 X17.2274 Y18.9742
G01 X17.3195 Y18.9787
G01 X17.3319 Y18.9799
G01 X17.4232 Y18.9934
G01 X17.4354 Y18.9959
G01 X17.5248 Y19.0183
G01 X17.5367 Y19.0219
G01 X17.6236 Y19.0530
G01 X17.6351 Y19.0577
G01 X17.7184 Y19.0971
G01 X17.7294 Y19.1030
G01 X17.8085 Y19.1504
G01 X17.8189 Y19.1573
G01 X17.8929 Y19.2123
G01 X17.9026 Y19.2202
G01 X17.9709 Y19.2821
G01 X17.9797 Y19.2909
G01 X18.0416 Y19.3592
G01 X18.0495 Y19.3689
G01 X18.1045 Y19.4429
G01 X18.1114 Y19.4533
G01 X18.1588 Y19.5324
G01 X18.1647 Y19.5434
G01 X18.2041 Y19.6267
G01 X18.2088 Y19.6382
G01 X18.2399 Y19.7251
G01 X18.2435 Y19.7370
G01 X18.2659 Y19.8264
G01 X18.2684 Y19.8386
G01 X18.2819 Y19.9299
G01 X18.2831 Y19.9423
G01 X18.2876 Y20.0344
G01 X18.2876 Y20.0468
G01 X18.2831 Y20.1389
G01 X18.2819 Y20.1513
G01 X18.2684 Y20.2426
G01 X18.2659 Y20.2548
G01 X18.2435 Y20.3442
G01 X18.2399 Y20.3561
G01 X18.2088 Y20.4430
G01 X18.2041 Y20.4545
G01 X18.1647 Y20.5378
G01 X18.1588 Y20.5488
G01 X18.1114 Y20.6279
G01 X18.1045 Y20.6383
G01 X18.0495 Y20.7123
G01 X18.0416 Y20.7220
G01 X17.9797 Y20.7903
G01 X17.9709 Y20.7991
G01 X17.9026 Y20.8610
G01 X17.8929 Y20.8689
G01 X17.8692 Y20.8865
G01 X22.2473 Y25.2645
G01 X22.2912 Y25.2247
G01 X22.3008 Y25.2168
G01 X22.3609 Y25.1723
G01 X22.3713 Y25.1653
G01 X22.4354 Y25.1269
G01 X22.4464 Y25.1210
G01 X22.5140 Y25.0890
G01 X22.5255 Y25.0843
G01 X22.5960 Y25.0591
G01 X22.6079 Y25.0554
G01 X22.6805 Y25.0373
G01 X22.6927 Y25.0348
G01 X22.7667 Y25.0239
G01 X22.7791 Y25.0226
G01 X22.8538 Y25.0190
G01 X22.8662 Y25.0190
G01 X22.9409 Y25.0226
G01 X22.9533 Y25.0239
G01 X23.0273 Y25.0348
G01 X23.0395 Y25.0373
G01 X23.1121 Y25.0554
G01 X23.1240 Y25.0591
G01 X23.1945 Y25.0843
G01 X23.2060 Y25.0890
G01 X23.2736 Y25.1210
G01 X23.2846 Y25.1269
G01 X23.3487 Y25.1653
G01 X23.3591 Y25.1723
G01 X23.4192 Y25.2168
G01 X23.4288 Y25.2247
G01 X23.4842 Y25.2750
G01 X23.4930 Y25.2838
G01 X23.5433 Y25.3392
G01 X23.5512 Y25.3488
G01 X23.5957 Y25.4089
G01 X23.6027 Y25.4193
G01 X23.6411 Y25.4834
G01 X23.6470 Y25.4944
G01 X23.6790 Y25.5620
G01 X23.6837 Y25.5735
G01 X23.7089 Y25.6440
G01 X23.7126 Y25.6559
G01 X23.7307 Y25.7285
G01 X23.7332 Y25.7407
G01 X23.7441 Y25.8147
G01 X23.7454 Y25.8271
G01 X23.7492 Y25.9080
G01 X23.7490 Y27.4382
G01 X23.7454 Y27.5129
G01 X23.7441 Y27.5253
G01 X23.7332 Y27.5993
G01 X23.7307 Y27.6115
G01 X23.7126 Y27.6841
G01 X23.7089 Y27.6960
G01 X23.6837 Y27.7665
G01 X23.6790 Y27.7780
G01 X23.6470 Y27.8456
G01 X23.6411 Y27.8566
G01 X23.6027 Y27.9207
G01 X23.5957 Y27.9311
G01 X23.5512 Y27.9912
G01 X23.5433 Y28.0008
G01 X23.4930 Y28.0562
G01 X23.4842 Y28.0650
G01 X23.4288 Y28.1153
G01 X23.4192 Y28.1232
G01 X23.3591 Y28.1677
G01 X23.3487 Y28.1747
G01 X23.2846 Y28.2131
G01 X23.2736 Y28.2190
G01 X23.2060 Y28.2510
G01 X23.1945 Y28.2557
G01 X23.1240 Y28.2809
G01 X23.1121 Y28.2846
G01 X23.0395 Y28.3027
G01 X23.0273 Y28.3052
G01 X22.9533 Y28.3161
G01 X22.9409 Y28.3174
G01 X22.8662 Y28.3210
G01 X22.8538 Y28.3210
G01 X22.7791 Y28.3174
G01 X22.7667 Y28.3161
G01 X22.6927 Y28.3052
G01 X22.6805 Y28.3027
G01 X22.6079 Y28.2846
G01 X22.5960 Y28.2809
G01 X22.5255 Y28.2557
G01 X22.5140 Y28.2510
G01 X22.4464 Y28.2190
G01 X22.4354 Y28.2131
G01 X22.3713 Y28.1747
G01 X22.3609 Y28.1677
G01 X22.3008 Y28.1232
G01 X22.2912 Y28.1153
G01 X22.2358 Y28.0650
G01 X22.2270 Y28.0562
G01 X22.1767 Y28.0008
G01 X22.1688 Y27.9912
G01 X22.1243 Y27.9311
G01 X22.1173 Y27.9207
G01 X22.0789 Y27.8566
G01 X22.0730 Y27.8456
G01 X22.0410 Y27.7780
G01 X22.0363 Y27.7665
G01 X22.0111 Y27.6960
G01 X22.0074 Y27.6841
G01 X21.9893 Y27.6115
G01 X21.9868 Y27.5993
G01 X21.9759 Y27.5253
G01 X21.9746 Y27.5129
G01 X21.9708 Y27.4320
G01 X21.9708 Y26.0655
G01 X16.9851 Y21.0799
G00 X16.9851 Y21.0799
G01 F60.00
G01 Z-0.1800
G01 F120.00
G01 X16.9176 Y21.0629
G01 X16.9057 Y21.0593
G01 X16.8188 Y21.0282
G01 X16.8073 Y21.0235
G01 X16.7240 Y20.9841
G01 X16.7130 Y20.9782
G01 X16.6339 Y20.9308
G01 X16.6235 Y20.9239
G01 X16.5495 Y20.8689
G01 X16.5398 Y20.8610
G01 X16.4715 Y20.7991
G01 X16.4627 Y20.7903
G01 X16.4008 Y20.7220
G01 X16.3929 Y20.7123
G01 X16.3379 Y20.6383
G01 X16.3310 Y20.6279
G01 X16.2836 Y20.5488
G01 X16.2777 Y20.5378
G01 X16.2383 Y20.4545
G01 X16.2336 Y20.4430
G01 X16.2025 Y20.3561
G01 X16.1989 Y20.3442
G01 X16.1765 Y20.2548
G01 X16.1740 Y20.2426
G01 X16.1605 Y20.1513
G01 X16.1593 Y20.1389
G01 X16.1548 Y20.0468
G01 X16.1548 Y20.0344
G01 X16.1593 Y19.9423
G01 X16.1605 Y19.9299
G01 X16.1740 Y19.8386
G01 X16.1765 Y19.8264
G01 X16.1989 Y19.7370
G01 X16.2025 Y19.7251
G01 X16.2336 Y19.6382
G01 X16.2383 Y19.6267
G01 X16.2777 Y19.5434
G01 X16.2836 Y19.5324
G01 X16.3310 Y19.4533
G01 X16.3379 Y19.4429
G01 X16.3929 Y19.3689
G01 X16.4008 Y19.3592
G01 X16.4627 Y19.2909
G01 X16.4715 Y19.2821
G01 X16.5398 Y19.2202
G01 X16.5495 Y19.2123
G01 X16.6235 Y19.1573
G01 X16.6339 Y19.1504
G01 X16.7130 Y19.1030
G01 X16.7240 Y19.0971
G01 X16.8073 Y19.0577
G01 X16.8188 Y19.0530
G01 X16.9057 Y19.0219
G01 X16.9176 Y19.0183
G01 X17.0070 Y18.9959
G01 X17.0192 Y18.9934
G01 X17.1105 Y18.9799
G01 X17.1229 Y18.9787
G01 X17.2150 Y18.9742
G01 X17.2274 Y18.9742
G01 X17.3195 Y18.9787
G01 X17.3319 Y18.9799
G01 X17.4232 Y18.9934
G01 X17.4354 Y18.9959
G01 X17.5248 Y19.0183
G01 X17.5367 Y19.0219
G01 X17.6236 Y19.0530
G01 X17.6351 Y19.0577
G01 X17.7184 Y19.0971
G01 X17.7294 Y19.1030
G01 X17.8085 Y19.1504
G01 X17.8189 Y19.1573
G01 X17.8929 Y19.2123
G01 X17.9026 Y19.2202
G01 X17.9709 Y19.2821
G01 X17.9797 Y19.2909
G01 X18.0416 Y19.3592
G01 X18.0495 Y19.3689
G01 X18.1045 Y19.4429
G01 X18.1114 Y19.4533
G01 X18.1588 Y19.5324
G01 X18.1647 Y19.5434
G01 X18.2041 Y19.6267
G01 X18.2088 Y19.6382
G01 X18.2399 Y19.7251
G01 X18.2435 Y19.7370
G01 X18.2659 Y19.8264
G01 X18.2684 Y19.8386
G01 X18.2819 Y19.9299
G01 X18.2831 Y19.9423
G01 X18.2876 Y20.0344
G01 X18.2876 Y20.0468
G01 X18.2831 Y20.1389
G01 X18.2819 Y20.1513
G01 X18.2684 Y20.2426
G01 X18.2659 Y20.2548
G01 X18.2435 Y20.3442
G01 X18.2399 Y20.3561
G01 X18.2088 Y20.4430
G01 X18.2041 Y20.4545
G01 X18.1647 Y20.5378
G01 X18.1588 Y20.5488
G01 X18.1114 Y20.6279
G01 X18.1045 Y20.6383
G01 X18.0495 Y20.7123
G01 X18.0416 Y20.7220
G01 X17.9797 Y20.7903
G01 X17.9709 Y20.7991
G01 X17.9026 Y20.8610
G01 X17.8929 Y20.8689
G01 X17.8692 Y20.8865
G01 X22.2473 Y25.2645
G01 X22.2912 Y25.2247
G01 X22.3008 Y25.2168
G01 X22.3609 Y25.1723
G01 X22.3713 Y25.1653
G01 X22.4354 Y25.1269
G01 X22.4464 Y25.1210
G01 X22.5140 Y25.0890
G01 X22.5255 Y25.0843
G01 X22.5960 Y25.0591
G01 X22.6079 Y25.0554
G01 X22.6805 Y25.0373
G01 X22.6927 Y25.0348
G01 X22.7667 Y25.0239
G01 X22.7791 Y25.0226
G01 X22.8538 Y25.0190
G01 X22.8662 Y25.0190
G01 X22.9409 Y25.0226
G01 X22.9533 Y25.0239
G01 X23.0273 Y25.0348
G01 X23.0395 Y25.0373
G01 X23.1121 Y25.0554
G01 X23.1240 Y25.0591
G01 X23.1945 Y25.0843
G01 X23.2060 Y25.0890
G01 X23.2736 Y25.1210
G01 X23.2846 Y25.1269
G01 X23.3487 Y25.1653
G01 X23.3591 Y25.1723
G01 X23.4192 Y25.2168
G01 X23.4288 Y25.2247
G01 X23.4842 Y25.2750
G01 X23.4930 Y25.2838
G01 X23.5433 Y25.3392
G01 X23.5512 Y25.3488
G01 X23.5957 Y25.4089
G01 X23.6027 Y25.4193
G01 X23.6411 Y25.4834
G01 X23.6470 Y25.4944
G01 X23.6790 Y25.5620
G01 X23.6837 Y25.5735
G01 X23.7089 Y25.6440
G01 X23.7126 Y25.6559
G01 X23.7307 Y25.7285
G01 X23.7332 Y25.7407
G01 X23.7441 Y25.8147
G01 X23.7454 Y25.8271
G01 X23.7492 Y25.9080
G01 X23.7490 Y27.4382
G01 X23.7454 Y27.5129
G01 X23.7441 Y27.5253
G01 X23.7332 Y27.5993
G01 X23.7307 Y27.6115
G01 X23.7126 Y27.6841
G01 X23.7089 Y27.6960
G01 X23.6837 Y27.7665
G01 X23.6790 Y27.7780
G01 X23.6470 Y27.8456
G01 X23.6411 Y27.8566
G01 X23.6027 Y27.9207
G01 X23.5957 Y27.9311
G01 X23.5512 Y27.9912
G01 X23.5433 Y28.0008
G01 X23.4930 Y28.0562
G01 X23.4842 Y28.0650
G01 X23.4288 Y28.1153
G01 X23.4192 Y28.1232
G01 X23.3591 Y28.1677
G01 X23.3487 Y28.1747
G01 X23.2846 Y28.2131
G01 X23.2736 Y28.2190
G01 X23.2060 Y28.2510
G01 X23.1945 Y28.2557
G01 X23.1240 Y28.2809
G01 X23.1121 Y28.2846
G01 X23.0395 Y28.3027
G01 X23.0273 Y28.3052
G01 X22.9533 Y28.3161
G01 X22.9409 Y28.3174
G01 X22.8662 Y28.3210
G01 X22.8538 Y28.3210
G01 X22.7791 Y28.3174
G01 X22.7667 Y28.3161
G01 X22.6927 Y28.3052
G01 X22.6805 Y28.3027
G01 X22.6079 Y28.2846
G01 X22.5960 Y28.2809
G01 X22.5255 Y28.2557
G01 X22.5140 Y28.2510
G01 X22.4464 Y28.2190
G01 X22.4354 Y28.2131
G01 X22.3713 Y28.1747
G01 X22.3609 Y28.1677
G01 X22.3008 Y28.1232
G01 X22.2912 Y28.1153
G01 X22.2358 Y28.0650
G01 X22.2270 Y28.0562
G01 X22.1767 Y28.0008
G01 X22.1688 Y27.9912
G01 X22.1243 Y27.9311
G01 X22.1173 Y27.9207
G01 X22.0789 Y27.8566
G01 X22.0730 Y27.8456
G01 X22.0410 Y27.7780
G01 X22.0363 Y27.7665
G01 X22.0111 Y27.6960
G01 X22.0074 Y27.6841
G01 X21.9893 Y27.6115
G01 X21.9868 Y27.5993
G01 X21.9759 Y27.5253
G01 X21.9746 Y27.5129
G01 X21.9708 Y27.4320
G01 X21.9708 Y26.0655
G01 X16.9851 Y21.0799
G00 X16.9851 Y21.0799
G01 F60.00
G01 Z-0.2000
G01 F120.00
G01 X16.9176 Y21.0629
G01 X16.9057 Y21.0593
G01 X16.8188 Y21.0282
G01 X16.8073 Y21.0235
G01 X16.7240 Y20.9841
G01 X16.7130 Y20.9782
G01 X16.6339 Y20.9308
G01 X16.6235 Y20.9239
G01 X16.5495 Y20.8689
G01 X16.5398 Y20.8610
G01 X16.4715 Y20.7991
G01 X16.4627 Y20.7903
G01 X16.4008 Y20.7220
G01 X16.3929 Y20.7123
G01 X16.3379 Y20.6383
G01 X16.3310 Y20.6279
G01 X16.2836 Y20.5488
G01 X16.2777 Y20.5378
G01 X16.2383 Y20.4545
G01 X16.2336 Y20.4430
G01 X16.2025 Y20.3561
G01 X16.1989 Y20.3442
G01 X16.1765 Y20.2548
G01 X16.1740 Y20.2426
G01 X16.1605 Y20.1513
G01 X16.1593 Y20.1389
G01 X16.1548 Y20.0468
G01 X16.1548 Y20.0344
G01 X16.1593 Y19.9423
G01 X16.1605 Y19.9299
G01 X16.1740 Y19.8386
G01 X16.1765 Y19.8264
G01 X16.1989 Y19.7370
G01 X16.2025 Y19.7251
G01 X16.2336 Y19.6382
G01 X16.2383 Y19.6267
G01 X16.2777 Y19.5434
G01 X16.2836 Y19.5324
G01 X16.3310 Y19.4533
G01 X16.3379 Y19.4429
G01 X16.3929 Y19.3689
G01 X16.4008 Y19.3592
G01 X16.4627 Y19.2909
G01 X16.4715 Y19.2821
G01 X16.5398 Y19.2202
G01 X16.5495 Y19.2123
G01 X16.6235 Y19.1573
G01 X16.6339 Y19.1504
G01 X16.7130 Y19.1030
G01 X16.7240 Y19.0971
G01 X16.8073 Y19.0577
G01 X16.8188 Y19.0530
G01 X16.9057 Y19.0219
G01 X16.9176 Y19.0183
G01 X17.0070 Y18.9959
G01 X17.0192 Y18.9934
G01 X17.1105 Y18.9799
G01 X17.1229 Y18.9787
G01 X17.2150 Y18.9742
G01 X17.2274 Y18.9742
G01 X17.3195 Y18.9787
G01 X17.3319 Y18.9799
G01 X17.4232 Y18.9934
G01 X17.4354 Y18.9959
G01 X17.5248 Y19.0183
G01 X17.5367 Y19.0219
G01 X17.6236 Y19.0530
G01 X17.6351 Y19.0577
G01 X17.7184 Y19.0971
G01 X17.7294 Y19.1030
G01 X17.8085 Y19.1504
G01 X17.8189 Y19.1573
G01 X17.8929 Y19.2123
G01 X17.9026 Y19.2202
G01 X17.9709 Y19.2821
G01 X17.9797 Y19.2909
G01 X18.0416 Y19.3592
G01 X18.0495 Y19.3689
G01 X18.1045 Y19.4429
G01 X18.1114 Y19.4533
G01 X18.1588 Y19.5324
G01 X18.1647 Y19.5434
G01 X18.2041 Y19.6267
G01 X18.2088 Y19.6382
G01 X18.2399 Y19.7251
G01 X18.2435 Y19.7370
G01 X18.2659 Y19.8264
G01 X18.2684 Y19.8386
G01 X18.2819 Y19.9299
G01 X18.2831 Y19.9423
G01 X18.2876 Y20.0344
G01 X18.2876 Y20.0468
G01 X18.2831 Y20.1389
G01 X18.2819 Y20.1513
G01 X18.2684 Y20.2426
G01 X18.2659 Y20.2548
G01 X18.2435 Y20.3442
G01 X18.2399 Y20.3561
G01 X18.2088 Y20.4430
G01 X18.2041 Y20.4545
G01 X18.1647 Y20.5378
G01 X18.1588 Y20.5488
G01 X18.1114 Y20.6279
G01 X18.1045 Y20.6383
G01 X18.0495 Y20.7123
G01 X18.0416 Y20.7220
G01 X17.9797 Y20.7903
G01 X17.9709 Y20.7991
G01 X17.9026 Y20.8610
G01 X17.8929 Y20.8689
G01 X17.8692 Y20.8865
G01 X22.2473 Y25.2645
G01 X22.2912 Y25.2247
G01 X22.3008 Y25.2168
G01 X22.3609 Y25.1723
G01 X22.3713 Y25.1653
G01 X22.4354 Y25.1269
G01 X22.4464 Y25.1210
G01 X22.5140 Y25.0890
G01 X22.5255 Y25.0843
G01 X22.5960 Y25.0591
G01 X22.6079 Y25.0554
G01 X22.6805 Y25.0373
G01 X22.6927 Y25.0348
G01 X22.7667 Y25.0239
G01 X22.7791 Y25.0226
G01 X22.8538 Y25.0190
G01 X22.8662 Y25.0190
G01 X22.9409 Y25.0226
G01 X22.9533 Y25.0239
G01 X23.0273 Y25.0348
G01 X23.0395 Y25.0373
G01 X23.1121 Y25.0554
G01 X23.1240 Y25.0591
G01 X23.1945 Y25.0843
G01 X23.2060 Y25.0890
G01 X23.2736 Y25.1210
G01 X23.2846 Y25.1269
G01 X23.3487 Y25.1653
G01 X23.3591 Y25.1723
G01 X23.4192 Y25.2168
G01 X23.4288 Y25.2247
G01 X23.4842 Y25.2750
G01 X23.4930 Y25.2838
G01 X23.5433 Y25.3392
G01 X23.5512 Y25.3488
G01 X23.5957 Y25.4089
G01 X23.6027 Y25.4193
G01 X23.6411 Y25.4834
G01 X23.6470 Y25.4944
G01 X23.6790 Y25.5620
G01 X23.6837 Y25.5735
G01 X23.7089 Y25.6440
G01 X23.7126 Y25.6559
G01 X23.7307 Y25.7285
G01 X23.7332 Y25.7407
G01 X23.7441 Y25.8147
G01 X23.7454 Y25.8271
G01 X23.7492 Y25.9080
G01 X23.7490 Y27.4382
G01 X23.7454 Y27.5129
G01 X23.7441 Y27.5253
G01 X23.7332 Y27.5993
G01 X23.7307 Y27.6115
G01 X23.7126 Y27.6841
G01 X23.7089 Y27.6960
G01 X23.6837 Y27.7665
G01 X23.6790 Y27.7780
G01 X23.6470 Y27.8456
G01 X23.6411 Y27.8566
G01 X23.6027 Y27.9207
G01 X23.5957 Y27.9311
G01 X23.5512 Y27.9912
G01 X23.5433 Y28.0008
G01 X23.4930 Y28.0562
G01 X23.4842 Y28.0650
G01 X23.4288 Y28.1153
G01 X23.4192 Y28.1232
G01 X23.3591 Y28.1677
G01 X23.3487 Y28.1747
G01 X23.2846 Y28.2131
G01 X23.2736 Y28.2190
G01 X23.2060 Y28.2510
G01 X23.1945 Y28.2557
G01 X23.1240 Y28.2809
G01 X23.1121 Y28.2846
G01 X23.0395 Y28.3027
G01 X23.0273 Y28.3052
G01 X22.9533 Y28.3161
G01 X22.9409 Y28.3174
G01 X22.8662 Y28.3210
G01 X22.8538 Y28.3210
G01 X22.7791 Y28.3174
G01 X22.7667 Y28.3161
G01 X22.6927 Y28.3052
G01 X22.6805 Y28.3027
G01 X22.6079 Y28.2846
G01 X22.5960 Y28.2809
G01 X22.5255 Y28.2557
G01 X22.5140 Y28.2510
G01 X22.4464 Y28.2190
G01 X22.4354 Y28.2131
G01 X22.3713 Y28.1747
G01 X22.3609 Y28.1677
G01 X22.3008 Y28.1232
G01 X22.2912 Y28.1153
G01 X22.2358 Y28.0650
G01 X22.2270 Y28.0562
G01 X22.1767 Y28.0008
G01 X22.1688 Y27.9912
G01 X22.1243 Y27.9311
G01 X22.1173 Y27.9207
G01 X22.0789 Y27.8566
G01 X22.0730 Y27.8456
G01 X22.0410 Y27.7780
G01 X22.0363 Y27.7665
G01 X22.0111 Y27.6960
G01 X22.0074 Y27.6841
G01 X21.9893 Y27.6115
G01 X21.9868 Y27.5993
G01 X21.9759 Y27.5253
G01 X21.9746 Y27.5129
G01 X21.9708 Y27.4320
G01 X21.9708 Y26.0655
G01 X16.9851 Y21.0799
G00 Z2.0000
M05
G00 Z2.0000
G00 Z5.00
G00 X0.0 Y0.0

