(G-CODE GENERATED BY FLATCAM v8.991 - www.flatcam.org - Version Date: 2019/12/27)

(Name: drill_1_16.xln_cnc)
(Type: G-code from Excellon)
(Units: MM)

(Created on Wednesday, 07 June 2023 at 23:28)

(Feedrate: 60.0 mm/min)
(Feedrate rapids 1500.0 mm/min)

(Z_Cut: -1.7 mm)
(Z_Move: 2.0 mm)
(Z Toolchange: 15.0 mm)
(X,Y Toolchange: 0.0000, 0.0000 mm)
(Z Start: None mm)
(Z End: 2.0 mm)
(Steps per circle: 64)
(Preprocessor Excellon: default)

(X range:   10.2110 ...   33.4265  mm)
(Y range:   15.0110 ...   27.1780  mm)

(Spindle Speed: 25000.0 RPM)
G21
G90
G94




G01 F60.00

M5
G00 Z15.0000
T2
G00 X0.0000 Y0.0000                
M6
(MSG, Change to Tool Dia = 0.8130 ||| Total drills for tool T2 = 2)
M0
G00 Z15.0000

M03 S25000.0
G00 X30.4800 Y16.5100
G01 Z-1.7000
G01 Z0
G00 Z2.0000
G00 X33.0200 Y16.5100
G01 Z-1.7000
G01 Z0
G00 Z2.0000

M5
G00 Z15.0000
T1
G00 X0.0000 Y0.0000                
M6
(MSG, Change to Tool Dia = 1.0160 ||| Total drills for tool T1 = 6)
M0
G00 Z15.0000

M03 S25000.0
G00 X22.8600 Y26.6700
G01 Z-1.7000
G01 Z0
G00 Z2.0000
G00 X25.4000 Y26.6700
G01 Z-1.7000
G01 Z0
G00 Z2.0000
G00 X17.2210 Y20.0410
G01 Z-1.7000
G01 Z0
G00 Z2.0000
G00 X17.2210 Y15.5190
G01 Z-1.7000
G01 Z0
G00 Z2.0000
G00 X10.7190 Y15.5190
G01 Z-1.7000
G01 Z0
G00 Z2.0000
G00 X10.7190 Y20.0410
G01 Z-1.7000
G01 Z0
G00 Z2.0000
M05
G00 Z2.00
G00 X0.0 Y0.0

