(G-CODE GENERATED BY FLATCAM v8.991 - www.flatcam.org - Version Date: 2019/12/27)

(Name: profile.gbr_cutout_cnc)
(Type: G-code from Geometry)
(Units: MM)

(Created on Wednesday, 07 June 2023 at 23:35)

(TOOL DIAMETER: 0.5 mm)
(Feedrate: 120.0 mm/min)
(Feedrate_Z: 60.0 mm/min)
(Feedrate rapids 1500.0 mm/min)

(Z_Cut: -1.8 mm)
(DepthPerCut: 0.6 mm <=>3 passes)
(Z_Move: 2.0 mm)
(Z Toolchange: 15.0 mm)
(X,Y Toolchange: 0.0000, 0.0000 mm)
(Z Start: None mm)
(Z End: 2.0 mm)
(Steps per circle: 64)
(Preprocessor Geometry: default)

(X range:    3.3329 ...   38.2471  mm)
(Y range:   10.9529 ...   32.2171  mm)

(Spindle Speed: 25000 RPM)
G21
G90
G94




G01 F120.00
G00 Z2.0000

M03 S25000
G00 X3.3329 Y19.4350
G01 F60.00
G01 Z-0.6000
G01 F120.00
G01 X3.3329 Y11.3029
G01 X3.3346 Y11.2686
G01 X3.3397 Y11.2347
G01 X3.3480 Y11.2013
G01 X3.3596 Y11.1690
G01 X3.3743 Y11.1379
G01 X3.3919 Y11.1085
G01 X3.4124 Y11.0809
G01 X3.4354 Y11.0554
G01 X3.4609 Y11.0324
G01 X3.4885 Y11.0119
G01 X3.5179 Y10.9943
G01 X3.5490 Y10.9796
G01 X3.5813 Y10.9680
G01 X3.6147 Y10.9597
G01 X3.6486 Y10.9546
G01 X3.6829 Y10.9529
G01 X18.6400 Y10.9529
G00 X18.6400 Y10.9529
G01 F60.00
G01 Z-1.2000
G01 F120.00
G01 X3.6829 Y10.9529
G01 X3.6486 Y10.9546
G01 X3.6147 Y10.9597
G01 X3.5813 Y10.9680
G01 X3.5490 Y10.9796
G01 X3.5179 Y10.9943
G01 X3.4885 Y11.0119
G01 X3.4609 Y11.0324
G01 X3.4354 Y11.0554
G01 X3.4124 Y11.0809
G01 X3.3919 Y11.1085
G01 X3.3743 Y11.1379
G01 X3.3596 Y11.1690
G01 X3.3480 Y11.2013
G01 X3.3397 Y11.2347
G01 X3.3346 Y11.2686
G01 X3.3329 Y11.3029
G01 X3.3329 Y19.4350
G00 X3.3329 Y19.4350
G01 F60.00
G01 Z-1.8000
G01 F120.00
G01 X3.3329 Y11.3029
G01 X3.3346 Y11.2686
G01 X3.3397 Y11.2347
G01 X3.3480 Y11.2013
G01 X3.3596 Y11.1690
G01 X3.3743 Y11.1379
G01 X3.3919 Y11.1085
G01 X3.4124 Y11.0809
G01 X3.4354 Y11.0554
G01 X3.4609 Y11.0324
G01 X3.4885 Y11.0119
G01 X3.5179 Y10.9943
G01 X3.5490 Y10.9796
G01 X3.5813 Y10.9680
G01 X3.6147 Y10.9597
G01 X3.6486 Y10.9546
G01 X3.6829 Y10.9529
G01 X18.6400 Y10.9529
G00 Z2.0000
G00 X23.1400 Y10.9529
G01 F60.00
G01 Z-0.6000
G01 F120.00
G01 X37.8971 Y10.9529
G00 X37.8971 Y10.9529
G01 F60.00
G01 Z-1.2000
G01 F120.00
G01 X23.1400 Y10.9529
G00 X23.1400 Y10.9529
G01 F60.00
G01 Z-1.8000
G01 F120.00
G01 X37.8971 Y10.9529
G00 Z2.0000
G00 X37.8971 Y10.9529
G01 F60.00
G01 Z-0.6000
G01 F120.00
G01 X37.9314 Y10.9546
G01 X37.9653 Y10.9597
G01 X37.9987 Y10.9680
G01 X38.0310 Y10.9796
G01 X38.0621 Y10.9943
G01 X38.0915 Y11.0119
G01 X38.1191 Y11.0324
G01 X38.1446 Y11.0554
G01 X38.1676 Y11.0809
G01 X38.1881 Y11.1085
G01 X38.2057 Y11.1379
G01 X38.2204 Y11.1690
G01 X38.2320 Y11.2013
G01 X38.2403 Y11.2347
G01 X38.2454 Y11.2686
G01 X38.2471 Y11.3029
G01 X38.2471 Y19.4350
G00 X38.2471 Y19.4350
G01 F60.00
G01 Z-1.2000
G01 F120.00
G01 X38.2471 Y11.3029
G01 X38.2454 Y11.2686
G01 X38.2403 Y11.2347
G01 X38.2320 Y11.2013
G01 X38.2204 Y11.1690
G01 X38.2057 Y11.1379
G01 X38.1881 Y11.1085
G01 X38.1676 Y11.0809
G01 X38.1446 Y11.0554
G01 X38.1191 Y11.0324
G01 X38.0915 Y11.0119
G01 X38.0621 Y10.9943
G01 X38.0310 Y10.9796
G01 X37.9987 Y10.9680
G01 X37.9653 Y10.9597
G01 X37.9314 Y10.9546
G01 X37.8971 Y10.9529
G00 X37.8971 Y10.9529
G01 F60.00
G01 Z-1.8000
G01 F120.00
G01 X37.9314 Y10.9546
G01 X37.9653 Y10.9597
G01 X37.9987 Y10.9680
G01 X38.0310 Y10.9796
G01 X38.0621 Y10.9943
G01 X38.0915 Y11.0119
G01 X38.1191 Y11.0324
G01 X38.1446 Y11.0554
G01 X38.1676 Y11.0809
G01 X38.1881 Y11.1085
G01 X38.2057 Y11.1379
G01 X38.2204 Y11.1690
G01 X38.2320 Y11.2013
G01 X38.2403 Y11.2347
G01 X38.2454 Y11.2686
G01 X38.2471 Y11.3029
G01 X38.2471 Y19.4350
G00 Z2.0000
G00 X38.2471 Y23.9350
G01 F60.00
G01 Z-0.6000
G01 F120.00
G01 X38.2471 Y31.8671
G01 X38.2454 Y31.9014
G01 X38.2403 Y31.9353
G01 X38.2320 Y31.9687
G01 X38.2204 Y32.0010
G01 X38.2057 Y32.0321
G01 X38.1881 Y32.0615
G01 X38.1676 Y32.0891
G01 X38.1446 Y32.1146
G01 X38.1191 Y32.1376
G01 X38.0915 Y32.1581
G01 X38.0621 Y32.1757
G01 X38.0310 Y32.1904
G01 X37.9987 Y32.2020
G01 X37.9653 Y32.2103
G01 X37.9314 Y32.2154
G01 X37.8971 Y32.2171
G01 X23.1400 Y32.2171
G00 X23.1400 Y32.2171
G01 F60.00
G01 Z-1.2000
G01 F120.00
G01 X37.8971 Y32.2171
G01 X37.9314 Y32.2154
G01 X37.9653 Y32.2103
G01 X37.9987 Y32.2020
G01 X38.0310 Y32.1904
G01 X38.0621 Y32.1757
G01 X38.0915 Y32.1581
G01 X38.1191 Y32.1376
G01 X38.1446 Y32.1146
G01 X38.1676 Y32.0891
G01 X38.1881 Y32.0615
G01 X38.2057 Y32.0321
G01 X38.2204 Y32.0010
G01 X38.2320 Y31.9687
G01 X38.2403 Y31.9353
G01 X38.2454 Y31.9014
G01 X38.2471 Y31.8671
G01 X38.2471 Y23.9350
G00 X38.2471 Y23.9350
G01 F60.00
G01 Z-1.8000
G01 F120.00
G01 X38.2471 Y31.8671
G01 X38.2454 Y31.9014
G01 X38.2403 Y31.9353
G01 X38.2320 Y31.9687
G01 X38.2204 Y32.0010
G01 X38.2057 Y32.0321
G01 X38.1881 Y32.0615
G01 X38.1676 Y32.0891
G01 X38.1446 Y32.1146
G01 X38.1191 Y32.1376
G01 X38.0915 Y32.1581
G01 X38.0621 Y32.1757
G01 X38.0310 Y32.1904
G01 X37.9987 Y32.2020
G01 X37.9653 Y32.2103
G01 X37.9314 Y32.2154
G01 X37.8971 Y32.2171
G01 X23.1400 Y32.2171
G00 Z2.0000
G00 X18.6400 Y32.2171
G01 F60.00
G01 Z-0.6000
G01 F120.00
G01 X3.6829 Y32.2171
G01 X3.6486 Y32.2154
G01 X3.6147 Y32.2103
G01 X3.5813 Y32.2020
G01 X3.5490 Y32.1904
G01 X3.5179 Y32.1757
G01 X3.4885 Y32.1581
G01 X3.4609 Y32.1376
G01 X3.4354 Y32.1146
G01 X3.4124 Y32.0891
G01 X3.3919 Y32.0615
G01 X3.3743 Y32.0321
G01 X3.3596 Y32.0010
G01 X3.3480 Y31.9687
G01 X3.3397 Y31.9353
G01 X3.3346 Y31.9014
G01 X3.3329 Y31.8671
G01 X3.3329 Y23.9350
G00 X3.3329 Y23.9350
G01 F60.00
G01 Z-1.2000
G01 F120.00
G01 X3.3329 Y31.8671
G01 X3.3346 Y31.9014
G01 X3.3397 Y31.9353
G01 X3.3480 Y31.9687
G01 X3.3596 Y32.0010
G01 X3.3743 Y32.0321
G01 X3.3919 Y32.0615
G01 X3.4124 Y32.0891
G01 X3.4354 Y32.1146
G01 X3.4609 Y32.1376
G01 X3.4885 Y32.1581
G01 X3.5179 Y32.1757
G01 X3.5490 Y32.1904
G01 X3.5813 Y32.2020
G01 X3.6147 Y32.2103
G01 X3.6486 Y32.2154
G01 X3.6829 Y32.2171
G01 X18.6400 Y32.2171
G00 X18.6400 Y32.2171
G01 F60.00
G01 Z-1.8000
G01 F120.00
G01 X3.6829 Y32.2171
G01 X3.6486 Y32.2154
G01 X3.6147 Y32.2103
G01 X3.5813 Y32.2020
G01 X3.5490 Y32.1904
G01 X3.5179 Y32.1757
G01 X3.4885 Y32.1581
G01 X3.4609 Y32.1376
G01 X3.4354 Y32.1146
G01 X3.4124 Y32.0891
G01 X3.3919 Y32.0615
G01 X3.3743 Y32.0321
G01 X3.3596 Y32.0010
G01 X3.3480 Y31.9687
G01 X3.3397 Y31.9353
G01 X3.3346 Y31.9014
G01 X3.3329 Y31.8671
G01 X3.3329 Y23.9350
G00 Z2.0000
M05
G00 Z2.0000
G00 Z2.00
G00 X0.0 Y0.0

