(G-CODE GENERATED BY FLATCAM v8.991 - www.flatcam.org - Version Date: 2019/12/27)

(Name: profile_2mm)
(Type: G-code from Geometry)
(Units: MM)

(Created on Wednesday, 21 June 2023 at 11:20)

(TOOL DIAMETER: 2.4 mm)
(Feedrate: 60.0 mm/min)
(Feedrate_Z: 60.0 mm/min)
(Feedrate rapids 1500.0 mm/min)

(Z_Cut: -1.8 mm)
(DepthPerCut: 0.6 mm <=>3 passes)
(Z_Move: 2.0 mm)
(Z Toolchange: 15.0 mm)
(X,Y Toolchange: 0.0000, 0.0000 mm)
(Z Start: None mm)
(Z End: 5.0 mm)
(Steps per circle: 64)
(Preprocessor Geometry: default)

(X range:    5.5988 ...   39.0747  mm)
(Y range:   10.5995 ...   30.8680  mm)

(Spindle Speed: 65535 RPM)
G21
G90
G94

(Tool change)
M06

(Probing new tool)
G30

(Give chance for removing probing wires)
M06

(Zeroing Z-axis after probing)
G92 X0 Y0 Z0


G01 F60.00
G00 Z2.0000

M03 S65535
G00 X5.5988 Y17.4837
G01 F60.00
G01 Z-0.6000
G01 F60.00
G01 X5.5988 Y12.2245
G01 X5.6066 Y12.0652
G01 X5.6300 Y11.9075
G01 X5.6687 Y11.7528
G01 X5.7224 Y11.6026
G01 X5.7906 Y11.4585
G01 X5.8726 Y11.3217
G01 X5.9676 Y11.1936
G01 X6.0747 Y11.0755
G01 X6.1929 Y10.9684
G01 X6.3209 Y10.8734
G01 X6.4577 Y10.7914
G01 X6.6019 Y10.7232
G01 X6.7520 Y10.6695
G01 X6.9067 Y10.6307
G01 X7.0645 Y10.6073
G01 X7.2238 Y10.5995
G01 X19.0868 Y10.5995
G00 X19.0868 Y10.5995
G01 F60.00
G01 Z-1.2000
G01 F60.00
G01 X7.2238 Y10.5995
G01 X7.0645 Y10.6073
G01 X6.9067 Y10.6307
G01 X6.7520 Y10.6695
G01 X6.6019 Y10.7232
G01 X6.4577 Y10.7914
G01 X6.3209 Y10.8734
G01 X6.1929 Y10.9684
G01 X6.0747 Y11.0755
G01 X5.9676 Y11.1936
G01 X5.8726 Y11.3217
G01 X5.7906 Y11.4585
G01 X5.7224 Y11.6026
G01 X5.6687 Y11.7528
G01 X5.6300 Y11.9075
G01 X5.6066 Y12.0652
G01 X5.5988 Y12.2245
G01 X5.5988 Y17.4837
G00 X5.5988 Y17.4837
G01 F60.00
G01 Z-1.8000
G01 F60.00
G01 X5.5988 Y12.2245
G01 X5.6066 Y12.0652
G01 X5.6300 Y11.9075
G01 X5.6687 Y11.7528
G01 X5.7224 Y11.6026
G01 X5.7906 Y11.4585
G01 X5.8726 Y11.3217
G01 X5.9676 Y11.1936
G01 X6.0747 Y11.0755
G01 X6.1929 Y10.9684
G01 X6.3209 Y10.8734
G01 X6.4577 Y10.7914
G01 X6.6019 Y10.7232
G01 X6.7520 Y10.6695
G01 X6.9067 Y10.6307
G01 X7.0645 Y10.6073
G01 X7.2238 Y10.5995
G01 X19.0868 Y10.5995
G00 Z2.0000
G00 X25.8368 Y10.5995
G01 F60.00
G01 Z-0.6000
G01 F60.00
G01 X37.4497 Y10.5995
G00 X37.4497 Y10.5995
G01 F60.00
G01 Z-1.2000
G01 F60.00
G01 X25.8368 Y10.5995
G00 X25.8368 Y10.5995
G01 F60.00
G01 Z-1.8000
G01 F60.00
G01 X37.4497 Y10.5995
G00 Z2.0000
G00 X37.4497 Y10.5995
G01 F60.00
G01 Z-0.6000
G01 F60.00
G01 X37.6090 Y10.6073
G01 X37.7668 Y10.6307
G01 X37.9215 Y10.6695
G01 X38.0716 Y10.7232
G01 X38.2158 Y10.7914
G01 X38.3526 Y10.8734
G01 X38.4806 Y10.9684
G01 X38.5988 Y11.0755
G01 X38.7059 Y11.1936
G01 X38.8009 Y11.3217
G01 X38.8829 Y11.4585
G01 X38.9511 Y11.6026
G01 X39.0048 Y11.7528
G01 X39.0435 Y11.9075
G01 X39.0669 Y12.0652
G01 X39.0747 Y12.2245
G01 X39.0747 Y17.4837
G00 X39.0747 Y17.4837
G01 F60.00
G01 Z-1.2000
G01 F60.00
G01 X39.0747 Y12.2245
G01 X39.0669 Y12.0652
G01 X39.0435 Y11.9075
G01 X39.0048 Y11.7528
G01 X38.9511 Y11.6026
G01 X38.8829 Y11.4585
G01 X38.8009 Y11.3217
G01 X38.7059 Y11.1936
G01 X38.5988 Y11.0755
G01 X38.4806 Y10.9684
G01 X38.3526 Y10.8734
G01 X38.2158 Y10.7914
G01 X38.0716 Y10.7232
G01 X37.9215 Y10.6695
G01 X37.7668 Y10.6307
G01 X37.6090 Y10.6073
G01 X37.4497 Y10.5995
G00 X37.4497 Y10.5995
G01 F60.00
G01 Z-1.8000
G01 F60.00
G01 X37.6090 Y10.6073
G01 X37.7668 Y10.6307
G01 X37.9215 Y10.6695
G01 X38.0716 Y10.7232
G01 X38.2158 Y10.7914
G01 X38.3526 Y10.8734
G01 X38.4806 Y10.9684
G01 X38.5988 Y11.0755
G01 X38.7059 Y11.1936
G01 X38.8009 Y11.3217
G01 X38.8829 Y11.4585
G01 X38.9511 Y11.6026
G01 X39.0048 Y11.7528
G01 X39.0435 Y11.9075
G01 X39.0669 Y12.0652
G01 X39.0747 Y12.2245
G01 X39.0747 Y17.4837
G00 Z2.0000
G00 X39.0747 Y24.2337
G01 F60.00
G01 Z-0.6000
G01 F60.00
G01 X39.0747 Y29.2430
G01 X39.0669 Y29.4023
G01 X39.0435 Y29.5600
G01 X39.0048 Y29.7147
G01 X38.9511 Y29.8648
G01 X38.8829 Y30.0090
G01 X38.8009 Y30.1458
G01 X38.7059 Y30.2739
G01 X38.5988 Y30.3920
G01 X38.4806 Y30.4991
G01 X38.3526 Y30.5941
G01 X38.2158 Y30.6761
G01 X38.0716 Y30.7443
G01 X37.9215 Y30.7980
G01 X37.7668 Y30.8368
G01 X37.6090 Y30.8602
G01 X37.4497 Y30.8680
G01 X25.8368 Y30.8680
G00 X25.8368 Y30.8680
G01 F60.00
G01 Z-1.2000
G01 F60.00
G01 X37.4497 Y30.8680
G01 X37.6090 Y30.8602
G01 X37.7668 Y30.8368
G01 X37.9215 Y30.7980
G01 X38.0716 Y30.7443
G01 X38.2158 Y30.6761
G01 X38.3526 Y30.5941
G01 X38.4806 Y30.4991
G01 X38.5988 Y30.3920
G01 X38.7059 Y30.2739
G01 X38.8009 Y30.1458
G01 X38.8829 Y30.0090
G01 X38.9511 Y29.8648
G01 X39.0048 Y29.7147
G01 X39.0435 Y29.5600
G01 X39.0669 Y29.4023
G01 X39.0747 Y29.2430
G01 X39.0747 Y24.2337
G00 X39.0747 Y24.2337
G01 F60.00
G01 Z-1.8000
G01 F60.00
G01 X39.0747 Y29.2430
G01 X39.0669 Y29.4023
G01 X39.0435 Y29.5600
G01 X39.0048 Y29.7147
G01 X38.9511 Y29.8648
G01 X38.8829 Y30.0090
G01 X38.8009 Y30.1458
G01 X38.7059 Y30.2739
G01 X38.5988 Y30.3920
G01 X38.4806 Y30.4991
G01 X38.3526 Y30.5941
G01 X38.2158 Y30.6761
G01 X38.0716 Y30.7443
G01 X37.9215 Y30.7980
G01 X37.7668 Y30.8368
G01 X37.6090 Y30.8602
G01 X37.4497 Y30.8680
G01 X25.8368 Y30.8680
G00 Z2.0000
G00 X19.0868 Y30.8680
G01 F60.00
G01 Z-0.6000
G01 F60.00
G01 X7.2238 Y30.8680
G01 X7.0645 Y30.8602
G01 X6.9067 Y30.8368
G01 X6.7520 Y30.7980
G01 X6.6019 Y30.7443
G01 X6.4577 Y30.6761
G01 X6.3209 Y30.5941
G01 X6.1929 Y30.4991
G01 X6.0747 Y30.3920
G01 X5.9676 Y30.2739
G01 X5.8726 Y30.1458
G01 X5.7906 Y30.0090
G01 X5.7224 Y29.8648
G01 X5.6687 Y29.7147
G01 X5.6300 Y29.5600
G01 X5.6066 Y29.4023
G01 X5.5988 Y29.2430
G01 X5.5988 Y24.2337
G00 X5.5988 Y24.2337
G01 F60.00
G01 Z-1.2000
G01 F60.00
G01 X5.5988 Y29.2430
G01 X5.6066 Y29.4023
G01 X5.6300 Y29.5600
G01 X5.6687 Y29.7147
G01 X5.7224 Y29.8648
G01 X5.7906 Y30.0090
G01 X5.8726 Y30.1458
G01 X5.9676 Y30.2739
G01 X6.0747 Y30.3920
G01 X6.1929 Y30.4991
G01 X6.3209 Y30.5941
G01 X6.4577 Y30.6761
G01 X6.6019 Y30.7443
G01 X6.7520 Y30.7980
G01 X6.9067 Y30.8368
G01 X7.0645 Y30.8602
G01 X7.2238 Y30.8680
G01 X19.0868 Y30.8680
G00 X19.0868 Y30.8680
G01 F60.00
G01 Z-1.8000
G01 F60.00
G01 X7.2238 Y30.8680
G01 X7.0645 Y30.8602
G01 X6.9067 Y30.8368
G01 X6.7520 Y30.7980
G01 X6.6019 Y30.7443
G01 X6.4577 Y30.6761
G01 X6.3209 Y30.5941
G01 X6.1929 Y30.4991
G01 X6.0747 Y30.3920
G01 X5.9676 Y30.2739
G01 X5.8726 Y30.1458
G01 X5.7906 Y30.0090
G01 X5.7224 Y29.8648
G01 X5.6687 Y29.7147
G01 X5.6300 Y29.5600
G01 X5.6066 Y29.4023
G01 X5.5988 Y29.2430
G01 X5.5988 Y24.2337
G00 Z2.0000
M05
G00 Z2.0000
G00 Z5.00
G00 X0.0 Y0.0

